/* XPM */
static char *_a6959326f724444d3d63b2ba87cfbd6zRh2RADiopNbVbNz[] = {
/* columns rows colors chars-per-pixel */
"960 360 256 2 ",
"   c None",
"   c None",
"X  c #181C27",
"o  c #171D2A",
"O  c #191E2A",
"+  c #131723",
"@  c #191F31",
"#  c #1C222D",
"$  c #1C252B",
"%  c #1E2431",
"&  c #1F2833",
"*  c #1E253A",
"=  c #1E293A",
"-  c #1F313F",
";  c #21252E",
":  c #22292F",
">  c #202732",
",  c #232A35",
"<  c #252D3A",
"1  c #282F3B",
"2  c #282B37",
"3  c #26303C",
"4  c #2A323D",
"5  c #293237",
"6  c #32353D",
"7  c #34393E",
"8  c #1F2D43",
"9  c #252D42",
"0  c #282F42",
"q  c #242E49",
"w  c #253143",
"e  c #2D3543",
"r  c #2E3845",
"t  c #25334A",
"y  c #2C354A",
"u  c #2E394B",
"i  c #22384D",
"p  c #313744",
"a  c #323A45",
"s  c #31374A",
"d  c #343C4B",
"f  c #393F4D",
"g  c #3A3C44",
"h  c #2D3A52",
"j  c #2B3755",
"k  c #353E52",
"l  c #383F52",
"z  c #343C59",
"x  c #313E62",
"c  c #37404D",
"v  c #3A424E",
"b  c #3A4348",
"n  c #364153",
"m  c #3B4354",
"M  c #3E4855",
"N  c #36425B",
"B  c #3C455B",
"V  c #3E495B",
"C  c #2E405C",
"Z  c #3C4662",
"A  c #3E4963",
"S  c #3E4A6A",
"D  c #374567",
"F  c #3B4D71",
"G  c #42454C",
"H  c #48494D",
"J  c #414654",
"K  c #434955",
"L  c #4B4D54",
"P  c #40475A",
"I  c #434B5C",
"U  c #4A4E5B",
"Y  c #484654",
"T  c #4C515C",
"R  c #49515A",
"E  c #545355",
"W  c #53545B",
"Q  c #5C5A5B",
"!  c #5A5758",
"~  c #514E53",
"^  c #625D5D",
"/  c #625959",
"(  c #66615E",
")  c #444D63",
"_  c #494F63",
"`  c #434D6A",
"'  c #454B67",
"]  c #465164",
"[  c #4B5265",
"{  c #45516C",
"}  c #4C546B",
"|  c #4E596D",
" . c #4E5966",
".. c #525664",
"X. c #535A65",
"o. c #5C5C62",
"O. c #51566C",
"+. c #535A6D",
"@. c #595C6B",
"#. c #434E72",
"$. c #484E76",
"%. c #465273",
"&. c #4B5573",
"*. c #4D5974",
"=. c #45547A",
"-. c #4B567A",
";. c #4D5A7C",
":. c #46597C",
">. c #505772",
",. c #535B74",
"<. c #595E74",
"1. c #535C7B",
"2. c #595F7B",
"3. c #51567B",
"4. c #504E60",
"5. c #635E62",
"6. c #645F67",
"7. c #615E73",
"8. c #5A626C",
"9. c #596169",
"0. c #566175",
"q. c #5B6274",
"w. c #56617B",
"e. c #5B637C",
"r. c #5E6979",
"t. c #646263",
"y. c #6B6363",
"u. c #67646C",
"i. c #61667D",
"p. c #636A7C",
"a. c #666875",
"s. c #70717A",
"d. c #413D43",
"f. c #4E5B82",
"g. c #4A5A86",
"h. c #525D83",
"j. c #595E83",
"k. c #545E8A",
"l. c #585D8A",
"z. c #515F93",
"x. c #4D618B",
"c. c #556184",
"v. c #5C6483",
"b. c #5E6984",
"n. c #55628B",
"m. c #5B648B",
"M. c #5D698C",
"N. c #57698F",
"B. c #536493",
"V. c #5C6592",
"C. c #5D6993",
"Z. c #56689A",
"A. c #4E6393",
"S. c #616683",
"D. c #636A84",
"F. c #61668B",
"G. c #646B8B",
"H. c #696E8B",
"J. c #696D84",
"K. c #6B7284",
"L. c #6C728C",
"P. c #67728A",
"I. c #757889",
"U. c #646B93",
"Y. c #6A6E93",
"T. c #646C9A",
"R. c #656997",
"E. c #6C7394",
"W. c #6C749B",
"Q. c #697495",
"!. c #717594",
"~. c #737A94",
"^. c #72759B",
"/. c #747A9B",
"(. c #7A7C99",
"). c #756E89",
"_. c #5A6BA3",
"`. c #6D73A3",
"'. c #6D74A8",
"]. c #747BA3",
"[. c #7A7DA3",
"{. c #757AA8",
"}. c #7277AF",
"|. c #817B95",
" X c #7C839C",
".X c #7B8495",
"XX c #7C818A",
"oX c #7C82A4",
"OX c #7C83AB",
"+X c #7984A7",
"@X c #7D83B5",
"#X c #7E84C5",
"$X c #868899",
"%X c #8B8F97",
"&X c #838BA5",
"*X c #8285AB",
"=X c #848BAB",
"-X c #8688A7",
";X c #8B93AA",
":X c #959AA9",
">X c #868AB6",
",X c #8C93B3",
"<X c #8C93BA",
"1X c #9599B8",
"2X c #928EB4",
"3X c #9BA3B9",
"4X c #9CA1A9",
"5X c #A5AAB8",
"6X c #ACB0B5",
"7X c #A19ABD",
"8X c #868BC5",
"9X c #8D93C7",
"0X c #969AC6",
"qX c #969AD7",
"wX c #8D92D3",
"eX c #9CA3C5",
"rX c #9EA3D7",
"tX c #A5AAC7",
"yX c #ACB4C9",
"uX c #B5BAC8",
"iX c #A7AAD5",
"pX c #ADB4D5",
"aX c #B4BBD3",
"sX c #B6BBD8",
"dX c #B1ADD0",
"fX c #A6A9E8",
"gX c #B3B6EF",
"hX c #9B9FE3",
"jX c #BCC4DB",
"kX c #BCC4D5",
"lX c #BDC2C8",
"zX c #BCC3EB",
"xX c #C4CBDC",
"cX c #C5C9D8",
"vX c #CAD1DB",
"bX c #D5D7DB",
"nX c #C4C6CB",
"mX c #C6CBE5",
"MX c #CBD3E4",
"NX c #CBD4E8",
"BX c #D5DAE9",
"VX c #D7DAF6",
"CX c #CACBF6",
"ZX c #DBE2EC",
"AX c #DDE4F3",
"SX c #E5E8EB",
"DX c #E6EAF6",
"FX c #ECF3FB",
"GX c #EBF2F6",
"HX c #F3F5FC",
"JX c #F4FAFD",
"KX c #FEFEFE",
"LX c #F6F8F6",
"PX c #F1F7EF",
"IX c #E2DEF3",
"UX c #C1BDD4",
/* pixels */
"                                                                                                                                                                                                                                                                                                                                                                                                                                                                                                                                                                                                                                                                                                                                                                                tX:X$XE.                                                                                                                                                                                                                                                                                                                                                                                                                                                                                                                                                                                                                                                                                                                                                                                                                                                                                                                                                                                                                                                                                                                                                                                                        ",
"                                                                                                                                                                                                                                                                                                                                                                                                                                                                                                                                                                                                                                                                                                                                                                                    DXxXeX*X`._._._._.Z.B.                                                                                                                                                                                                                                                                                                                                                                                                                                                                                                                                                                                                                                                                                                                                                                                                                                                                                                                                                                                                                                                                                                                                                                                      ",
"                                                                                                                                                                                                                                                                                                                                                                                                                                                                                                                                                                                                                                                                                                                                                                                    KXKXJXAXjXeX@X'._._._.Z.Z._._.Z.Z.B.B.n.Z.                                                                                                                                                                                                                                                                                                                                                                                                                                                                                                                                                                                                                                                                                                                                                                                                                                                                                                                                                                                                                                                                                                                                                                  ",
"                                                                                                                                                                                                                                                                                                                                                                                                                                                                                                                                                                                                                                                                                                                                                                                      PXKXKXKXJXZXjXeX`.B.B.Z._._._._._.Z.Z.Z.Z.Z.Z.Z.B.A.x.g.g.x.n.N.C.n.x.f.:.                                                                                                                                                                                                                                                                                                                                                                                                                                                                                                                                                                                                                                                                                                                                                                                                                                                                                                                                                                                                                                                                                                                                ",
"                                                                                                                                                                                                                                                                                                                                                                                                                                                                                                                                                                                                                                                                                                                                                                                          KXKXKXKXKXFXBXkX XA D S =.=.F F g.g.A.A.Z.Z.Z.Z.Z.A.A.A.x.Z.Z.B.x.z.g.g.g.g.:.:.:.-.%.%.F                                                                                                                                                                                                                                                                                                                                                                                                                                                                                                                                                                                                                                                                                                                                                                                                                                                                                                                                                                                                                                                                                                             ",
"                                                                                                                                                                                                                                                                                                                                                                                                                                                                                                                                                                                                                                                                                                                                                                                          KXKXKXKXKXKXKXKXGXcXXX[ k t q j j j j j x C D F F F g.g.g.g.g.g.x.x.g.g.g.g.g.g.g.g.:.=.=.=.g.g.h.n.c.;.*.*.*.                                                                                                                                                                                                                                                                                                                                                                                                                                                                                                                                                                                                                                                                                                                                                                                                                                                                                                                                                                                                                                                                                        ",
"                                                                                                                                                                                                                                                                                                                                                                                                                                                                                                                                                                                                                                                                                                                                                                                            LXKXKXKXKXKXKXKXKXLXSXuXI...k 9 9 0 0 9 9 9 9 t t t t t t t j j z z D A S F F F =.=.g.=.=.=.=.g.g.f.n.B.n.B.B.x.                                                                                                                                                                                                                                                                                                                                                                                                                                                                                                                                                                                                                                                                                                                                                                                                                                                                                                                                                                                                                                                                                    ",
"                                                                                                                                                                                                                                                                                                                                                                                                                                                                                                                                                                                                                                                                                                                                                                                              KXKXKXKXKXKXKXKXKXKXKXKXZX5XI...p , < < < 1 1 < 3 w w 0 w w 0 w 0 0 0 9 t t q t t h h z z D D D D F =.=.g.g.g.g.                                                                                                                                                                                                                                                                                                                                                                                                                                                                                                                                                                                                                                                                                                                                                                                                                                                                                                                                                                                                                                                                                  ",
"                                                                                                                                                                                                                                                                                                                                                                                                                                                                                                                                                                                                                                                                                                                                                                                                ZXKXKXKXKXKXKXKXKXKXKXKXKXKXbX5XXXR 5 2 < 3 3 3 w 0 0 0 0 1 0 1 1 1 0 9 w 0 0 0 0 w 9 9 < 3 w 9 w i j D S ;.g.f.g.                                                                                                                                                                                                                                                                                                                                                                                                                                                                                                                                                                                                                                                                                                                                                                                                                                                                                                                                                                                                                                                                              ",
"                                                                                                                                                                                                                                                                                                                                                                                                                                                                                                                                                                                                                                                                                                                                                                                                  SXKXKXKXKXKXKXJXKXKXKXKXKXKXKXPXbX6XI.m 1 w 0 0 1 0 0 w 1 1 1 4 1 1 0 0 0 0 0 0 0 0 0 < 3 w w w w 9 9 y N A =.g.z.Z.                                                                                                                                                                                                                                                                                                                                                                                                                                                                                                                                                                                                                                                                                                                                                                                                                                                                                                                                                                                                                                                                          ",
"                                                                                                                                                                                                                                                                                                                                                                                                                                                                                                                                                                                                                                                                                                                                                                                                    bXLXKXKXKXKXKXKXKXKXKXKXKXKXKXKXKXGXBX5Xp.m r 4 1 < 1 1 1 w w 0 w 0 0 0 0 0 0 0 0 0 0 0 0 w 0 0 0 w 0 0 w h %.B.Z.Z.B.                                                                                                                                                                                                                                                                                                                                                                                                                                                                                                                                                                                                                                                                                                                                                                                                                                                                                                                                                                                                                                                                      ",
"                                                                                                                                                                                                                                                                                                                                                                                                                                                                                                                                                                                                                                                                                                                                                                                                      uXJXKXKXKXKXKXKXKXKXKXKXKXKXKXKXKXKXKXGXbX:Xq.M r < 0 w t q q 9 0 0 0 0 0 0 0 0 0 0 0 1 0 0 1 1 1 1 1 1 w t N :.B.B.B.                                                                                                                                                                                                                                                                                                                                                                                                                                                                                                                                                                                                                                                                                                                                                                                                                                                                                                                                                                                                                                                                    ",
"                                                                                                                                                                                                                                                                                                                                                                                                                                                                                                                                                                                                                                                                                                                                                                                                        BXLXKXKXKXKXKXKXKXKXKXKXKXKXKXKXKXKXKXKXKXJXbX%Xp.P 9 q q q q 9 9 9 9 0 0 0 0 w w 0 1 0 0 1 0 1 1 1 0 w 9 w t N ;.n.Z.Z.                                                                                                                                                                                                                                                                                                                                                                                                                                                                                                                                                                                                                                                                                                                                                                                                                                                                                                                                                                                                                                                                ",
"                                                                                                                                                                                                                                                                                                                                                                                                                                                                                                                                                                                                                                                                                                                                                                                                          6XLXKXKXKXKXKXKXKXKXKXKXKXKXKXKXKXKXKXKXKXKXKXGXuXK.I N B Z Z A Z N k k y 9 0 w w w 0 0 0 0 0 w w 9 0 w < 3 w i D g.A.B.B.                                                                                                                                                                                                                                                                                                                                                                                                                                                                                                                                                                                                                                                                                                                                                                                                                                                                                                                                                                                                                                                            ",
"                                                                                                                                                                                                                                                                                                                                                                                                                                                                                                                                                                                                                                                                                                                                                                                                            uXLXKXKXKXKXKXKXKXKXKXKXKXKXKXKXKXKXKXKXKXKXKXKXSX5XD.S.c.c.m.c.1.*.&.{ Z y t w w w w 0 0 0 w 0 w 0 1 < < 3 w w j S f.Z.Z.B.                                                                                                                                                                                                                                                                                                                                                                                                                                                                                                                                                                                                                                                                                                                                                                                                                                                                                                                                                                                                                                                        ",
"                                                                                                                                                                                                                                                                                                                                                                                                                                                                                                                                                                                                                                                                                                                                                                                                              4XGXKXKXKXKXKXKXKXKXKXKXKXKXKXKXKXKXKXKXKXKXKXKXHXaX!.m.n.k.c.c.c.;.c.1.` z t w y w 0 0 0 0 0 w 3 1 1 1 1 0 0 9 t z #.n.Z.Z.Z.                                                                                                                                                                                                                                                                                                                                                                                                                                                                                                                                                                                                                                                                                                                                                                                                                                                                                                                                                                                                                                                    ",
"                                                                                                                                                                                                                                                                                                                                                                                                                                                                                                                                                                                                                                                                                                                                                                                                                %XGXKXKXKXKXKXKXKXKXKXKXKXKXKXKXKXKXKXKXKXKXKXKXJXaXY.k.j.c.1.c.h.h.1.;.*.A h w w 0 1 0 0 0 0 1 0 0 0 0 0 0 0 9 0 w z F x.B.B.                                                                                                                                                                                                                                                                                                                                                                                                                                                                                                                                                                                                                                                                                                                                                                                                                                                                                                                                                                                                                                                  ",
"                                                                                                                                                                                                                                                                                                                                                                                                                                                                                                                                                                                                                                                                                                                                                                                                                  $XSXKXKXKXKXKXKXKXKXKXKXKXKXKXKXKXKXKXKXKXKXKXKXHXaXY.3.>.1.h.f.h.;.1.j.3.3.A y 9 0 w 1 1 0 0 0 0 w 0 0 0 w w 3 3 3 w C =.x.Z.Z.                                                                                                                                                                                                                                                                                                                                                                                                                                                                                                                                                                                                                                                                                                                                                                                                                                                                                                                                                                                                                                              ",
"                                                                                                                                                                                                                                                                                                                                                                                                                                                                                                                                                                                                                                                                                                                                                                                                                    XXSXKXKXKXKXKXKXKXKXKXKXKXKXKXKXKXKXKXKXKXKXKXKXHXuXG.h.j.h.c.n.f.1.h.;.k.1.{ z w 9 w 3 0 0 0 0 0 0 0 0 0 0 1 < 1 9 8 t C =.Z.Z.                                                                                                                                                                                                                                                                                                                                                                                                                                                                                                                                                                                                                                                                                                                                                                                                                                                                                                                                                                                                                                            ",
"                                                                                                                                                                                                                                                                                                                                                                                                                                                                                                                                                                                                                                                                                                                                                                                                                      s.SXKXKXKXKXKXKXKXKXKXKXKXKXKXKXKXKXKXKXKXKXKXKXJXkXE.j.k.n.c.h.c.f.h.k.c.h.&.` k w < 0 0 0 0 0 0 0 0 1 0 0 0 < 1 1 9 8 j D g.Z._.                                                                                                                                                                                                                                                                                                                                                                                                                                                                                                                                                                                                                                                                                                                                                                                                                                                                                                                                                                                                                                        ",
"                                                                                                                                                                                                                                                                                                                                                                                                                                                                                                                                                                                                                                                                                                                                                                                                                        $XSXKXKXKXKXKXKXKXKXKXKXKXKXKXKXKXKXKXKXKXKXKXKXJXxX].k.k.c.c.c.h.c.h.n.m.n.1.*.A y 0 0 0 0 0 1 0 1 1 0 9 9 0 0 1 3 9 9 8 j F k.Z.A.                                                                                                                                                                                                                                                                                                                                                                                                                                                                                                                                                                                                                                                                                                                                                                                                                                                                                                                                                                                                                                    ",
"                                                                                                                                                                                                                                                                                                                                                                                                                                                                                                                                                                                                                                                                                                                                                                                                                          a.ZXKXKXKXKXKXKXKXKXKXKXKXKXKXKXKXKXKXKXKXKXKXKXKXmX].k.h.c.n.c.c.h.h.N.m.n.h.w.&.n w 9 0 1 1 1 0 1 1 9 9 < 1 1 1 0 9 9 8 w z =.x.B.Z.                                                                                                                                                                                                                                                                                                                                                                                                                                                                                                                                                                                                                                                                                                                                                                                                                                                                                                                                                                                                                                ",
"                                                                                                                                                                                                                                                                                                                                                                                                                                                                                                                                                                                                                                                                                                                                                                                                                          : s.bXKXKXKXKXKXKXKXKXKXKXKXKXKXKXKXKXKXKXKXKXKXKXKXBXoXm.N.m.n.c.c.n.h.n.n.n.c.1.*.) k w 0 0 0 1 1 1 < 3 < 0 1 0 0 0 1 < < w j x =.x.B.Z.                                                                                                                                                                                                                                                                                                                                                                                                                                                                                                                                                                                                                                                                                                                                                                                                                                                                                                                                                                                                                            ",
"                                                                                                                                                                                                                                                                                                                                                                                                                                                                                                                                                                                                                                                                                                                                                                                                                              o.bXKXKXKXKXKXKXKXKXKXKXKXKXKXKXKXKXKXKXKXKXKXKXKXBXoXn.n.M.m.c.c.c.h.h.k.f.f.1.,.} B y 9 0 0 0 1 3 < < 0 0 0 0 1 < < 9 8 w y t z :.B.Z.                                                                                                                                                                                                                                                                                                                                                                                                                                                                                                                                                                                                                                                                                                                                                                                                                                                                                                                                                                                                                          ",
"                                                                                                                                                                                                                                                                                                                                                                                                                                                                                                                                                                                                                                                                                                                                                                                                                              $ W nXKXKXKXKXKXKXKXKXKXKXKXKXKXKXKXKXKXKXKXKXKXKXKXBX=Xm.m.c.c.h.n.n.m.h.f.f.;.;.;.*.` N y 9 0 0 3 w 9 9 0 0 1 < < < 9 9 9 < 0 9 t D g.Z._.                                                                                                                                                                                                                                                                                                                                                                                                                                                                                                                                                                                                                                                                                                                                                                                                                                                                                                                                                                                                                      ",
"                                                                                                                                                                                                                                                                                                                                                                                                                                                                                                                                                                                                                                                                                                                                                                                                                                . L nXKXKXKXKXKXKXKXKXKXKXKXKXKXKXKXKXKXKXKXKXKXKXKXZX,Xm.n.c.c.c.f.h.h.h.k.h.f.;.;.3.&.{ N t 9 9 0 w 9 < 1 1 < < 1 9 9 0 0 0 0 9 8 j %.z._.Z.                                                                                                                                                                                                                                                                                                                                                                                                                                                                                                                                                                                                                                                                                                                                                                                                                                                                                                                                                                                                                  ",
"                                                                                                                                                                                                                                                                                                                                                                                                                                                                                                                                                                                                                                                                                                                                                                                                                                    b 6XJXKXKXKXKXKXKXKXKXKXKXKXKXKXKXKXKXKXKXKXKXKXKXZX1XC.c.h.c.h.h.c.f.h.h.k.h.f.;.h.c.1.' y 9 < 0 3 3 3 1 1 9 9 0 1 1 3 < < w 9 < t x =.n.Z.Z.                                                                                                                                                                                                                                                                                                                                                                                                                                                                                                                                                                                                                                                                                                                                                                                                                                                                                                                                                                                                              ",
"                                                                                                                                                                                                                                                                                                                                                                                                                                                                                                                                                                                                                                                                                                                                                                                                                                    $ a 6XKXKXKXKXKXKXKXKXKXKXKXKXKXKXKXKXKXKXKXKXKXKXKXAX<Xm.;.c.h.c.c.;.h.k.n.f.f.k.h.h.j.1.&.B y 0 w w 3 3 0 9 9 < 1 1 3 3 < 3 1 0 0 8 t z g.Z.Z.                                                                                                                                                                                                                                                                                                                                                                                                                                                                                                                                                                                                                                                                                                                                                                                                                                                                                                                                                                                                            ",
"                                                                                                                                                                                                                                                                                                                                                                                                                                                                                                                                                                                                                                                                                                                                                                                                                                      $ p 4XLXKXKXKXKXKXKXKXKXKXKXKXKXKXKXKXKXKXKXKXKXKXKXDX1Xj.h.n.c.c.c.h.c.n.n.k.n.n.h.h.h.;.3.{ z t 9 0 1 1 1 1 < 0 1 < < < 1 < 1 1 < < 8 t D f.n.                                                                                                                                                                                                                                                                                                                                                                                                                                                                                                                                                                                                                                                                                                                                                                                                                                                                                                                                                                                                          ",
"                                                                                                                                                                                                                                                                                                                                                                                                                                                                                                                                                                                                                                                                                                                                                                                                                                        > p 6XKXKXKXKXKXKXKXKXKXKXKXKXKXKXKXKXKXKXKXKXKXKXKXGX3XM.h.n.c.h.1.f.c.n.h.k.n.h.h.h.h.;.;.;.S z w 0 0 < 1 0 0 1 < < < < < < < < 1 9 9 9 t S g.Z.                                                                                                                                                                                                                                                                                                                                                                                                                                                                                                                                                                                                                                                                                                                                                                                                                                                                                                                                                                                                      ",
"                                                                                                                                                                                                                                                                                                                                                                                                                                                                                                                                                                                                                                                                                                                                                                                                                                          ; g 4XKXKXKXKXKXKXKXKXKXKXKXKXKXKXKXKXKXKXKXKXKXKXKXGXtXU.k.k.;.1.c.c.h.f.h.h.h.h.h.f.f.j.j.1.*.A y 9 0 0 0 0 1 1 1 1 < < < 1 0 < < 9 9 8 q z =.n.Z.                                                                                                                                                                                                                                                                                                                                                                                                                                                                                                                                                                                                                                                                                                                                                                                                                                                                                                                                                                                                  ",
"                                                                                                                                                                                                                                                                                                                                                                                                                                                                                                                                                                                                                                                                                                                                                                                                                                            X p 4XJXKXKXKXKXKXKXKXKXKXKXKXKXKXKXKXKXKXKXKXKXKXKXFXyXG.k.n.c.c.f.h.c.f.h.h.h.h.n.n.h.h.h.c.c.&.z q 9 9 1 1 1 < 1 1 1 1 1 9 < < 0 0 9 9 8 t D g.A.B.                                                                                                                                                                                                                                                                                                                                                                                                                                                                                                                                                                                                                                                                                                                                                                                                                                                                                                                                                                                              ",
"                                                                                                                                                                                                                                                                                                                                                                                                                                                                                                                                                                                                                                                                                                                                                                                                                                              O 4 %XHXKXKXKXKXKXKXKXKXKXKXKXKXKXKXKXKXKXKXKXKXKXKXFXyXE.c.k.h.h.h.h.h.h.c.n.n.m.n.n.k.f.h.h.h.3.S j 9 9 < 1 1 1 0 < < 9 < 0 1 < < < < < < 8 i D n.Z.                                                                                                                                                                                                                                                                                                                                                                                                                                                                                                                                                                                                                                                                                                                                                                                                                                                                                                                                                                                            ",
"                                                                                                                                                                                                                                                                                                                                                                                                                                                                                                                                                                                                                                                                                                                                                                                                                                                > 2 %XDXKXKXKXKXKXKXKXKXKXKXKXKXKXKXKXKXKXKXKXKXKXKXHXyXL.m.n.m.M.n.f.f.h.n.k.h.f.k.h.k.k.f.f.h.j.-.Z u 9 9 0 1 1 < < < 0 < < 1 1 < < 1 1 1 9 q D f.Z._.                                                                                                                                                                                                                                                                                                                                                                                                                                                                                                                                                                                                                                                                                                                                                                                                                                                                                                                                                                                        ",
"                                                                                                                                                                                                                                                                                                                                                                                                                                                                                                                                                                                                                                                                                                                                                                                                                                                  > , I.SXKXKXKXKXKXKXKXKXKXKXKXKXKXKXKXKXKXKXKXKXKXKXHXaXE.k.M.C.n.n.h.h.k.k.k.n.n.n.g.f.f.f.h.m.h.1.{ k t 9 1 0 1 < < 1 9 < < < < < 1 < < < 9 q q S g.B.                                                                                                                                                                                                                                                                                                                                                                                                                                                                                                                                                                                                                                                                                                                                                                                                                                                                                                                                                                                      ",
"                                                                                                                                                                                                                                                                                                                                                                                                                                                                                                                                                                                                                                                                                                                                                                                                                                                    > , s.SXKXKXKXKXKXKXKXKXKXKXKXKXKXKXKXKXKXKXKXKXKXKXHXaXW.l.m.m.n.n.n.n.n.k.n.n.m.f.h.f.c.h.c.1.;.;.&.A k w < 1 1 < < 9 < < < < < < < < < < 1 < 9 j D B.Z.                                                                                                                                                                                                                                                                                                                                                                                                                                                                                                                                                                                                                                                                                                                                                                                                                                                                                                                                                                                  ",
"                                                                                                                                                                                                                                                                                                                                                                                                                                                                                                                                                                                                                                                                                                                                                                                                                                                      > : s.SXKXKXKXKXKXKXKXKXKXKXKXKXKXKXKXKXKXKXKXKXKXKXJXjX/.m.M.n.h.n.n.m.n.n.h.n.h.h.c.;.f.;.h.f.;.3.1.*.B y < 1 1 < 0 9 < < < 9 9 9 9 < 1 1 < < 9 q x h.Z.Z.                                                                                                                                                                                                                                                                                                                                                                                                                                                                                                                                                                                                                                                                                                                                                                                                                                                                                                                                                                              ",
"                                                                                                                                                                                                                                                                                                                                                                                                                                                                                                                                                                                                                                                                                                                                                                                                                                                        % , s.SXKXKXKXKXKXKXKXKXKXKXKXKXKXKXKXKXKXKXKXKXKXKXKXMX(.j.k.k.m.C.m.m.m.h.g.c.c.c.h.;.;.f.;.f.;.h.1.&.` k 9 < 0 0 9 9 9 9 9 9 9 0 < < < < < < 9 9 h ` g.Z.Z.                                                                                                                                                                                                                                                                                                                                                                                                                                                                                                                                                                                                                                                                                                                                                                                                                                                                                                                                                                          ",
"                                                                                                                                                                                                                                                                                                                                                                                                                                                                                                                                                                                                                                                                                                                                                                                                                                                          > , a.SXKXKXKXKXKXKXKXKXKXKXKXKXKXKXKXKXKXKXKXKXKXKXKXMX Xc.M.m.n.h.h.h.n.n.m.c.c.c.;.c.c.;.h.f.h.h.1.;.&.A y 9 9 9 0 < < 9 9 9 9 < < < < 1 < 1 0 < 0 i #.k.z.                                                                                                                                                                                                                                                                                                                                                                                                                                                                                                                                                                                                                                                                                                                                                                                                                                                                                                                                                                        ",
"                                                                                                                                                                                                                                                                                                                                                                                                                                                                                                                                                                                                                                                                                                                                                                                                                                                            % , s.bXKXKXKXKXKXKXKXKXKXKXKXKXKXKXKXKXKXKXKXKXKXKXKXBX,XU.m.h.h.m.n.k.n.m.c.c.;.;.h.M.M.h.f.h.h.h.;.-.;.&.N y 9 < < < < < 1 < < 1 1 1 1 1 1 < 0 1 9 t D f.B.B.                                                                                                                                                                                                                                                                                                                                                                                                                                                                                                                                                                                                                                                                                                                                                                                                                                                                                                                                                                    ",
"                                                                                                                                                                                                                                                                                                                                                                                                                                                                                                                                                                                                                                                                                                                                                                                                                                                              % : o.vXKXKXKXKXKXKXKXKXKXKXKXKXKXKXKXKXKXKXKXKXKXKXKXAX,Xn.n.m.m.m.N.n.k.n.h.f.;.h.c.c.h.h.c.h.f.f.g.f.;.&.` k w < 1 1 < < < < < < 1 < < = < < = 9 9 9 j D :.x.                                                                                                                                                                                                                                                                                                                                                                                                                                                                                                                                                                                                                                                                                                                                                                                                                                                                                                                                                                  ",
"                                                                                                                                                                                                                                                                                                                                                                                                                                                                                                                                                                                                                                                                                                                                                                                                                                                                > > X.nXKXKXKXKXKXKXKXKXKXKXKXKXKXKXKXKXKXKXKXKXKXKXKXBX,XU.C.V.V.n.n.k.m.k.f.h.h.;.;.c.c.;.;.h.n.f.f.h.;.-.{ Z y 9 0 < < < < < < < 1 1 < < < 1 1 1 < 9 w h %.B.T.                                                                                                                                                                                                                                                                                                                                                                                                                                                                                                                                                                                                                                                                                                                                                                                                                                                                                                                                                              ",
"                                                                                                                                                                                                                                                                                                                                                                                                                                                                                                                                                                                                                                                                                                                                                                                                                                                                  < % K nXKXKXKXKXKXKXKXKXKXKXKXKXKXKXKXKXKXKXKXKXKXKXKXAX1XR.V.n.k.k.k.k.k.k.h.h.;.h.c.c.;.;.h.f.f.h.f.;.-.-.;.#.N y 0 1 < < < 1 1 1 1 1 < < < 1 1 < 1 1 9 t D h.Z._.                                                                                                                                                                                                                                                                                                                                                                                                                                                                                                                                                                                                                                                                                                                                                                                                                                                                                                                                                          ",
"                                                                                                                                                                                                                                                                                                                                                                                                                                                                                                                                                                                                                                                                                                                                                                                                                                                                    < % I 6XKXKXKXKXKXKXKXKXKXKXKXKXKXKXKXKXKXKXKXKXKXKXKXDX1Xm.k.n.n.k.c.h.1.h.c.h.h.h.h.c.h.f.f.f.h.h.;.f.h.;.;.*.' k w < 1 < < < 0 < 1 < < < 1 1 1 1 1 < 9 q j #.B.Z.Z.                                                                                                                                                                                                                                                                                                                                                                                                                                                                                                                                                                                                                                                                                                                                                                                                                                                                                                                                                      ",
"                                                                                                                                                                                                                                                                                                                                                                                                                                                                                                                                                                                                                                                                                                                                                                                                                                                                    , < > G lXKXKXKXKXKXKXKXKXKXKXKXKXKXKXKXKXKXKXKXKXKXKXKXDX1XM.m.k.n.h.;.1.h.n.k.h.;.h.h.;.f.h.;.f.f.h.c.f.-.=.-.;.&.B y < 9 9 < < < < 1 < < 9 0 0 1 1 0 9 9 9 q z #.Z.Z.                                                                                                                                                                                                                                                                                                                                                                                                                                                                                                                                                                                                                                                                                                                                                                                                                                                                                                                                                    ",
"                                                                                                                                                                                                                                                                                                                                                                                                                                                                                                                                                                                                                                                                                                                                                                                                                                                                        , > U uXKXKXKXKXKXKXKXKXKXKXKXKXKXKXKXKXKXKXKXKXKXKXKXDXtXY.c.m.f.h.c.c.n.k.h.;.;.;.;.h.m.h.h.c.h.;.;.f.:.-.;.1.*.A k t 9 9 9 < < 1 1 0 0 0 0 0 0 0 < < 9 9 0 q D g.B.B.                                                                                                                                                                                                                                                                                                                                                                                                                                                                                                                                                                                                                                                                                                                                                                                                                                                                                                                                                ",
"                                                                                                                                                                                                                                                                                                                                                                                                                                                                                                                                                                                                                                                                                                                                                                                                                                                                          < > v 6XKXKXKXKXKXKXKXKXKXKXKXKXKXKXKXKXKXKXKXKXKXKXKXFXtXH.m.n.m.M.n.k.k.h.f.;.h.h.h.h.h.h.h.;.-.f.:.g.:.;.;.;.*.&.{ z q 9 0 0 0 0 0 9 9 0 0 0 0 1 1 < < < < 9 j F g.B.x.                                                                                                                                                                                                                                                                                                                                                                                                                                                                                                                                                                                                                                                                                                                                                                                                                                                                                                                                            ",
"                                                                                                                                                                                                                                                                                                                                                                                                                                                                                                                                                                                                                                                                                                                                                                                                                                                                          = < , G 4XLXKXKXKXKXKXKXKXKXKXKXKXKXKXKXKXKXKXKXKXKXKXKXFXyXQ.m.m.N.Z.C.m.h.h.h.h.h.:.h.c.;.f.f.f.f.f.h.g.g.;.f.;.;.1.;.A y 0 0 0 9 9 9 9 9 9 0 w 1 1 < 1 < 1 0 9 q D g.x.B.                                                                                                                                                                                                                                                                                                                                                                                                                                                                                                                                                                                                                                                                                                                                                                                                                                                                                                                                          ",
"                                                                                                                                                                                                                                                                                                                                                                                                                                                                                                                                                                                                                                                                                                                                                                                                                                                                              1 > a 4XJXKXKXKXKXKXKXKXKXKXSX4X%XnXKXKXKXKXKXKXKXKXKXHXaXQ.n.m.C.C.C.m.n.m.h.h.f.f.h.;.f.f.h.h.h.k.k.g.f.g.g.c.1.c.2.' k w 9 w w w w 0 0 w w 0 1 1 0 9 9 9 9 9 9 j S g.V.n.                                                                                                                                                                                                                                                                                                                                                                                                                                                                                                                                                                                                                                                                                                                                                                                                                                                                                                                                      ",
"                                                                                                                                                                                                                                                                                                                                                                                                                                                                                                                                                                                                                                                                                                                                                                                                                                                                              9 < < p %XGXKXKXKXKXKXKXKXGXs.2 , J XXuXKXKXKXKXKXKXKXKXHXjXQ.h.c.C.V.C.c.k.c.c.f.f.h.h.h.;.h.h.h.f.g.n.k.g.n.c.h.h.1.3.&.Z h y t w w w w w 0 0 0 0 0 9 9 9 < < < 9 q z F x.g.g.                                                                                                                                                                                                                                                                                                                                                                                                                                                                                                                                                                                                                                                                                                                                                                                                                                                                                                                                  ",
"                                                                                                                                                                                                                                                                                                                                                                                                                                                                                                                                                                                                                                                                                                                                                                                                                                                                                w < , 5 %XSXKXKXKXKXKXKX:X: $ # % , I cXKXKXKXKXKXKXKXKXJXkXL.m.R.V.m.C.m.h.h.h.f.h.h.n.m.n.h.n.f.f.k.k.k.n.g.f.;.;.2.2.>.} A h w y w w w w 0 0 9 0 0 0 < < < < 9 9 9 q C =.g.Z.                                                                                                                                                                                                                                                                                                                                                                                                                                                                                                                                                                                                                                                                                                                                                                                                                                                                                                                                ",
"                                                                                                                                                                                                                                                                                                                                                                                                                                                                                                                                                                                                                                                                                                                                                                                                                                                                                  0 < , , I.SXKXKXKXKX6X7 $ # # % % % %XKXKXKXKXKXKXKXKXKXJXcX~.l.m.n.m.m.h.n.c.f.f.h.h.n.n.h.k.g.f.h.k.n.k.h.c.h.h.v.2.;.3.h.&.N y w w w w w w 9 0 1 < < < < 9 9 9 9 = 8 j %.n.Z.                                                                                                                                                                                                                                                                                                                                                                                                                                                                                                                                                                                                                                                                                                                                                                                                                                                                                                                              ",
"                                                                                                                                                                                                                                                                                                                                                                                                                                                                                                                                                                                                                                                                                                                                                                                                                                                                                    1 , & 2 I.ZXKXKXbXL $ $ # % # % O a.GXKXKXKXKXKXKXKXKXKXKXcX!.k.m.n.n.n.h.h.f.f.h.h.h.h.n.h.h.h.h.h.n.f.g.h.h.1.1.1.h.;.h.h.-.A h w w w w w 9 0 3 < < 1 < 9 9 9 9 < , < t x f.n.n.                                                                                                                                                                                                                                                                                                                                                                                                                                                                                                                                                                                                                                                                                                                                                                                                                                                                                                                          ",
"                                                                                                                                                                                                                                                                                                                                                                                                                                                                                                                                                                                                                                                                                                                                                                                                                                                                                      , < > , I.SXSXu.# $ # $ X $ $ X g bXKXKXKXKXKXKXKXKXKXKXKXvX/.h.n.n.m.n.c.h.h.c.n.n.h.h.f.g.h.f.f.f.f.f.h.f.;.3.h.c.h.g.h.f.1.&.n w w w w w 0 3 1 1 1 < < < < < 1 < < 9 8 z %.n.n.g.                                                                                                                                                                                                                                                                                                                                                                                                                                                                                                                                                                                                                                                                                                                                                                                                                                                                                                                      ",
"                                                                                                                                                                                                                                                                                                                                                                                                                                                                                                                                                                                                                                                                                                                                                                                                                                                                                        1 , > 4 %X$X> O $ X $ # $ X X 6 nXKXKXKXKXKXKXKXKXKXKXKXJXMXoXm.c.c.n.m.n.h.h.c.n.h.h.n.h.h.h.f.h.h.f.h.;.;.3.j.h.c.g.n.h.h.w.*.V u t t t w w 0 0 0 1 < < < = < 9 9 < = 8 t D =.g.=.                                                                                                                                                                                                                                                                                                                                                                                                                                                                                                                                                                                                                                                                                                                                                                                                                                                                                                                    ",
"                                                                                                                                                                                                                                                                                                                                                                                                                                                                                                                                                                                                                                                                                                                                                                                                                                                                                          < > > L G O O $ # # $ # # X 5 uXKXKXKXKXKXKXKXKXKXKXKXKXKXBX*XM.m.n.k.n.n.h.k.m.c.k.n.k.h.h.h.c.h.3.h.;.h.c.h.c.c.;.c.h.;.h.w.;.&.B h t w w w d f w < < < 0 9 < 1 < < < 9 9 y S :.x.x.                                                                                                                                                                                                                                                                                                                                                                                                                                                                                                                                                                                                                                                                                                                                                                                                                                                                                                                ",
"                                                                                                                                                                                                                                                                                                                                                                                                                                                                                                                                                                                                                                                                                                                                                                                                                                                                                            % , > % # % # # # # # X X , 6XKXKXKXKXKXKXKXKXKXKXKXKXKXKXBX1XG.h.g.k.n.c.c.m.m.m.k.k.k.h.h.c.h.3.j.h.h.f.f.c.c.h.h.h.c.f.c.c.;.;.{ N t w 9 w f f 1 < < 9 9 < < < < < 9 9 9 y z F x.B.                                                                                                                                                                                                                                                                                                                                                                                                                                                                                                                                                                                                                                                                                                                                                                                                                                                                                                              ",
"                                                                                                                                                                                                                                                                                                                                                                                                                                                                                                                                                                                                                                                                                                                                                                                                                                                                                              = % % O % O # % # # $ X > 6XKXKXKXKXKXKXKXKXKXKXKXKXKXKXKXDX1XU.V.n.n.k.m.k.k.n.n.n.m.c.c.c.;.-.h.k.k.h.h.h.h.h.h.h.c.f.c.n.;.;.1.&.Z y 9 9 0 0 < < 1 < < < < < < < < 0 0 9 8 h %.B.Z.B.                                                                                                                                                                                                                                                                                                                                                                                                                                                                                                                                                                                                                                                                                                                                                                                                                                                                                                          ",
"                                                                                                                                                                                                                                                                                                                                                                                                                                                                                                                                                                                                                                                                                                                                                                                                                                                                                                              O % # O , 6XKXKXKXKXKXKXKXKXKXKXKXKXKXKXKXKXDXeXU.m.m.h.c.k.k.k.c.c.c.c.1.1.j.h.h.k.n.h.h.n.n.n.k.h.n.n.n.c.f.;.1.1.;.` z q 9 0 1 < < < 1 < < < < < < < 0 9 9 8 j F B.Z.B.                                                                                                                                                                                                                                                                                                                                                                                                                                                                                                                                                                                                                                                                                                                                                                                                                                                                                                        ",
"                                                                                                                                                                                                                                                                                                                                                                                                                                                                                                                                                                                                                                                                                                                                                                                                                                                                                                                  % # 2 uXKXKXKXKXKXKXKXKXKXKXKXKXKXKXKXKXKXDXtXQ.m.k.n.m.m.n.c.;.;.;.;.;.j.m.k.h.k.n.n.n.k.n.m.n.n.n.g.h.h.h.;.;.h.1.-.Z q 9 1 < < < < < < < < < < < 9 9 9 9 q t D =.N.B.B.                                                                                                                                                                                                                                                                                                                                                                                                                                                                                                                                                                                                                                                                                                                                                                                                                                                                                                    ",
"                                                                                                                                                                                                                                                                                                                                                                                                                                                                                                                                                                                                                                                                                                                                                                                                                                                                                                                  % X 6 nXKXKXKXKXKXKXKXJXGXPXKXKXKXKXKXKXKXKXFXyXY.n.k.m.m.m.c.;.;.;.1.;.3.c.k.h.k.n.n.m.V.n.n.n.N.n.h.h.h.h.h.h.f.f.;.&.A h 0 < 1 < < < < 1 < < < 1 9 1 9 q 9 9 w i S x.A.A.                                                                                                                                                                                                                                                                                                                                                                                                                                                                                                                                                                                                                                                                                                                                                                                                                                                                                                  ",
"                                                                                                                                                                                                                                                                                                                                                                                                                                                                                                                                                                                                                                                                                                                                                                                                                                                                                                                  @ O a vXKXKXKXKXKXKXKX6XI.$X6XSXLXKXKXKXKXKXKXHXsXU.k.k.k.n.h.h.h.h.j.j.j.k.k.k.k.m.n.n.V.V.V.n.n.n.n.c.c.c.h.h.h.f.-.-.*.{ k w 9 9 1 < < < < < < < < < 9 9 9 < < = t z g.z.B.B.                                                                                                                                                                                                                                                                                                                                                                                                                                                                                                                                                                                                                                                                                                                                                                                                                                                                                              ",
"                                                                                                                                                                                                                                                                                                                                                                                                                                                                                                                                                                                                                                                                                                                                                                                                                                                                                                                  % O v BXKXKXKXKXKXKXvXL X $ p I.5XJXKXKXKXKXKXKXJXkXE.k.m.k.h.n.c.c.n.k.h.3.j.c.m.M.m.M.C.V.k.h.c.c.h.h.c.c.c.;.-.-.;.&.{ &.&.} z q 9 < < < 1 < < 1 < 0 1 1 1 < < < 9 q z -.x.x.x.                                                                                                                                                                                                                                                                                                                                                                                                                                                                                                                                                                                                                                                                                                                                                                                                                                                                                            ",
"                                                                                                                                                                                                                                                                                                                                                                                                                                                                                                                                                                                                                                                                                                                                                                                                                                                                                                                    o m BXKXKXKXKXKXSXa.X O O % O m nXKXKXKXKXKXKXKXJXcX/.j.m.k.n.n.n.n.k.h.3.j.j.c.M.c.M.C.n.k.h.c.c.c.c.h.h.c.;.;.;.;.&.&.;.>.>.&.Z h 0 9 9 < < 1 1 1 < < < < 1 1 0 9 9 9 y D :.x.B.B.                                                                                                                                                                                                                                                                                                                                                                                                                                                                                                                                                                                                                                                                                                                                                                                                                                                                                        ",
"                                                                                                                                                                                                                                                                                                                                                                                                                                                                                                                                                                                                                                                                                                                                                                                                                                                                                                                    % p uXKXKXKXKXKX:X> O @ @ @ % O s.LXKXKXKXKXKXKXKXJXcX/.v.m.m.k.k.k.k.h.h.h.j.j.v.c.c.m.m.n.c.c.c.c.c.h.;.c.c.c.1.1.1.;.1.;.&.&.-.*.N 9 0 9 < < < < < < < < 1 0 0 0 0 < 1 9 i F A.B.A.                                                                                                                                                                                                                                                                                                                                                                                                                                                                                                                                                                                                                                                                                                                                                                                                                                                                                      ",
"                                                                                                                                                                                                                                                                                                                                                                                                                                                                                                                                                                                                                                                                                                                                                                                                                                                                                                                    > > X.uXJXKXKXBXL . O @ % @ % X L SXKXKXKXKXKXKXKXKXKXvX Xv.m.k.k.k.k.h.f.h.k.h.3.j.k.m.C.m.C.N.h.h.;.h.h.m.M.c.1.1.v.w.1.&.&.;.1.1.&.B y 9 9 < 9 < < < < 1 1 1 1 1 < 1 w 9 9 t D x.B.n.n.                                                                                                                                                                                                                                                                                                                                                                                                                                                                                                                                                                                                                                                                                                                                                                                                                                                                                  ",
"                                                                                                                                                                                                                                                                                                                                                                                                                                                                                                                                                                                                                                                                                                                                                                                                                                                                                                                      $ , a.vXKXKX%X; X O o O O O X G bXKXKXKXKXKXKXKXKXKXKXcX/.k.k.k.m.m.k.l.l.k.k.h.m.m.C.R.T.T.n.h.k.h.c.n.C.n.h.j.j.j.;.*.*.;.c.;.-.&.*.} z 9 = < 1 < 9 9 0 0 1 < 1 < < < 0 9 9 9 j F g.g.h.                                                                                                                                                                                                                                                                                                                                                                                                                                                                                                                                                                                                                                                                                                                                                                                                                                                                                ",
"                                                                                                                                                                                                                                                                                                                                                                                                                                                                                                                                                                                                                                                                                                                                                                                                                                                                                                                      # X > I.SXSXT . X o # % O # X g bXKXKXKXKXKXKXKXKXKXKXJXxX^.m.m.m.m.k.m.V.V.m.l.k.m.m.V.C.B.n.k.m.M.m.n.m.h.k.c.h.3.;.*.w.w.w.-.;.-.1.1.} A u < 9 w 9 9 0 0 9 9 < 9 9 < < < < 9 9 t D =.g.z.                                                                                                                                                                                                                                                                                                                                                                                                                                                                                                                                                                                                                                                                                                                                                                                                                                                                              ",
"                                                                                                                                                                                                                                                                                                                                                                                                                                                                                                                                                                                                                                                                                                                                                                                                                                                                                                                          # 2 4XuX2 X X # # # # X X p vXKXKXKXKXKXKXKXKXKXKXKXJXxX*XM.m.C.m.V.R.V.m.j.k.m.C.m.n.n.n.m.C.R.m.k.n.n.n.j.3.3.h.h.c.1.w.*.&.-.1.;.;.*.{ k w 9 9 0 0 9 9 < < < < < 0 0 < < 1 0 9 z F g.g.g.                                                                                                                                                                                                                                                                                                                                                                                                                                                                                                                                                                                                                                                                                                                                                                                                                                                                          ",
"                                                                                                                                                                                                                                                                                                                                                                                                                                                                                                                                                                                                                                                                                                                                                                                                                                                                                                                          # o P XXX X X X # # # $ X 4 nXKXKXKXKXKXKXKXKXKXKXKXKXKXBX;Xm.V.V.V.k.k.c.2.1.m.m.h.h.n.m.C.C.C.k.n.V.n.h.1.;.f.h.h.h.;.1.1.*.-.-.-.;.-.-.&.A y w 9 < < < < 1 1 < 1 0 0 1 < 9 9 9 8 t D g.g.g.                                                                                                                                                                                                                                                                                                                                                                                                                                                                                                                                                                                                                                                                                                                                                                                                                                                                        ",
"                                                                                                                                                                                                                                                                                                                                                                                                                                                                                                                                                                                                                                                                                                                                                                                                                                                                                                                            % # p X X # # # # $ $ X 2 nXKXKXKXKXKXKXKXKXKXKXKXKXKXKXBX,XY.R.V.k.c.h.k.m.c.j.k.h.h.n.M.m.k.V.C.m.h.;.;.;.h.h.f.h.;.;.w.*.;.;.-.h.f.h.c.;.` h 9 < 9 < 1 1 1 1 < 1 0 0 0 1 < < 9 9 9 x =.g.;.f.                                                                                                                                                                                                                                                                                                                                                                                                                                                                                                                                                                                                                                                                                                                                                                                                                                                                    ",
"                                                                                                                                                                                                                                                                                                                                                                                                                                                                                                                                                                                                                                                                                                                                                                                                                                                                                                                              # X         # # $ X X > nXKXKXKXKXKXKXKXKXKXKXKXKXKXKXKXDX1Xm.l.m.m.m.m.C.c.3.h.k.k.n.k.k.n.C.m.h.f.;.1.1.;.h.f.;.;.;.1.1.;.-.;.h.h.c.c.;.-.&.N t 9 0 0 < < 1 1 1 0 0 0 1 < 1 9 9 9 9 j S ;.f.h.                                                                                                                                                                                                                                                                                                                                                                                                                                                                                                                                                                                                                                                                                                                                                                                                                                                                  ",
"                                                                                                                                                                                                                                                                                                                                                                                                                                                                                                                                                                                                                                                                                                                                                                                                                                                                                                                                            # $ X $ > uXKXKXKXKXKXKXKXKXKXKXKXKXKXKXKXKXDX1XF.h.m.m.k.k.m.c.j.c.M.k.k.C.M.M.h.;.f.h.c.c.;.h.c.c.c.;.c.;.-.=.f.n.n.h.;.-.-.*.*.' h 9 9 9 0 1 1 1 1 1 1 < 1 1 < 9 9 < 8 q D g.g.g.                                                                                                                                                                                                                                                                                                                                                                                                                                                                                                                                                                                                                                                                                                                                                                                                                                                                ",
"                                                                                                                                                                                                                                                                                                                                                                                                                                                                                                                                                                                                                                                                                                                                                                                                                                                                                                                                            # # $ $ > uXKXKXKXKXKXKXKXKXKXKXKXKXKXKXKXKXKXHXtXD.l.h.h.k.k.V.k.c.m.k.m.U.M.m.f.;.c.h.h.k.1.h.m.1.c.f.h.h.h.h.h.h.f.-.-.%.%.&.;.*.` z t 9 9 0 1 1 1 1 < < < 1 1 9 9 < 3 w q x =.g.;.-.                                                                                                                                                                                                                                                                                                                                                                                                                                                                                                                                                                                                                                                                                                                                                                                                                                                            ",
"                                                                                                                                                                                                                                                                                                                                                                                                                                                                                                                                                                                                                                                                                                                                                                                                                                                                                                                                              # $ # $ 6XKXKXKXKXKXKXKXvXlXnXBXKXKXKXKXKXKXKXHXyXF.h.h.k.Z.V.k.j.k.m.m.m.n.h.h.h.h.h.h.k.h.h.c.;.1.;.k.c.c.c.c.h.;.-.%.-.-.-.;.;.*.&.' h 0 9 1 1 < 1 < < < 1 1 < 1 1 < < w q j F c.g.g.                                                                                                                                                                                                                                                                                                                                                                                                                                                                                                                                                                                                                                                                                                                                                                                                                                                          ",
"                                                                                                                                                                                                                                                                                                                                                                                                                                                                                                                                                                                                                                                                                                                                                                                                                                                                                                                                                # $ $ 5XKXKXKXKXKXKXnXL a g ..6XKXKXKXKXKXKXKXHX5XF.n.V.V.C.k.h.h.k.n.h.h.h.c.c.c.h.h.k.j.;.1.1.c.c.k.c.c.c.c.;.-.-.%.-.;.-.-.3.2.;.*.' k t 0 0 < 1 < < < 1 < < 1 0 0 < < < 8 t D g.n.g.g.                                                                                                                                                                                                                                                                                                                                                                                                                                                                                                                                                                                                                                                                                                                                                                                                                                                      ",
"                                                                                                                                                                                                                                                                                                                                                                                                                                                                                                                                                                                                                                                                                                                                                                                                                                                                                                                                                  # $ 4XKXKXKXKXKXLXs.. X o o d 4XJXKXKXKXKXKXKXGXaXW.R.C.k.k.l.k.m.n.h.h.k.h.h.c.h.h.k.;.3.3.h.j.-.-.;.;.1.;.;.&.-.-.-.&.-.-.3.1.-.&.{ } ) u 9 < < < 1 < 1 1 < < 9 9 1 < < 3 8 q z =.x.g.f.                                                                                                                                                                                                                                                                                                                                                                                                                                                                                                                                                                                                                                                                                                                                                                                                                                                    ",
"                                                                                                                                                                                                                                                                                                                                                                                                                                                                                                                                                                                                                                                                                                                                                                                                                                                                                                                                                  $ $ %XKXKXKXKXKXbX4 X % % o @ 4 6XKXKXKXKXKXKXKXHXaXv.h.m.k.l.k.m.m.k.k.h.;.h.c.c.n.h.h.h.h.j.k.k.k.;.;.-.-.;.-.-.;.-.-.;.;.3.;.&.&.&.*.*.{ k w 0 < 1 1 < < 1 < < 9 < < < < = 9 8 j F A.x.g.                                                                                                                                                                                                                                                                                                                                                                                                                                                                                                                                                                                                                                                                                                                                                                                                                                                  ",
"                                                                                                                                                                                                                                                                                                                                                                                                                                                                                                                                                                                                                                                                                                                                                                                                                                                                                                                                                      :XKXKXKXKXKX4X$ # o @ % % o s.PXKXKXKXKXKXKXKXHXuXY.l.l.k.l.k.m.m.k.h.f.h.n.c.k.k.h.k.h.k.h.k.h.h.1.;.-.;.;.;.;.-.;.j.3.;.-.=.-.&.&.&.%.} B y 9 9 1 < < < 1 1 1 < < < < < = 8 8 i F x.B.g.                                                                                                                                                                                                                                                                                                                                                                                                                                                                                                                                                                                                                                                                                                                                                                                                                                                ",
"                                                                                                                                                                                                                                                                                                                                                                                                                                                                                                                                                                                                                                                                                                                                                                                                                                                                                                                                                      6XHXKXKXKXKXI.. o o # @ % o X.SXKXKXKXKXKXKXKXKXJXsX^.l.l.k.k.m.h.k.m.n.h.k.h.k.h.k.k.h.k.h.m.1.1.;.;.;.;.;.h.c.h.h.h.;.&.-.&.-.-.;.&.` { *.{ h 9 < < 1 < < < 1 < 1 < < 1 < 3 3 - t D g.B.n.c.                                                                                                                                                                                                                                                                                                                                                                                                                                                                                                                                                                                                                                                                                                                                                                                                                                            ",
"                                                                                                                                                                                                                                                                                                                                                                                                                                                                                                                                                                                                                                                                                                                                                                                                                                                                                                                                                        bXvXKXKXSXW o % $ $ O % X T SXKXKXKXKXKXKXKXKXKXKXmX].k.k.m.n.h.k.M.m.n.n.n.h.k.m.V.R.@X@XU.c.;.-.;.;.;.h.f.h.f.h.h.;.-.;.-.;.&.%.-.%.=.&.&.{ B y 1 1 < < < < < < 9 0 < 0 < < w 9 t C F x.B.g.                                                                                                                                                                                                                                                                                                                                                                                                                                                                                                                                                                                                                                                                                                                                                                                                                                          ",
"                                                                                                                                                                                                                                                                                                                                                                                                                                                                                                                                                                                                                                                                                                                                                                                                                                                                                                                                                          I.BXKXvX2 O @ $ $ # # X L SXKXKXKXKXKXKXKXKXKXKXJXmXOXm.m.k.h.h.k.n.n.k.h.j.3.m.U.W.<XVXxX1XG.h.h.;.h.m.h.f.;.:.-.;.;.;.&.-.%.%.&.-.&.&.&.&.} ) d 0 1 < < < < < < 0 < 1 < 9 9 0 w w t F z.B.g.                                                                                                                                                                                                                                                                                                                                                                                                                                                                                                                                                                                                                                                                                                                                                                                                                                        ",
"                                                                                                                                                                                                                                                                                                                                                                                                                                                                                                                                                                                                                                                                                                                                                                                                                                                                                                                                                            :XJX6X$ # # X O O O X b ZXKXKXKXKXKXKXKXKXKXKXKXKXBX[.m.v.c.3.h.k.V.m.h.c.3.&.z j 3.tXVXDXxX,XM.j.m.k.3.3.;.:.f.;.;.-.-.;.;.-.&.&.;.%.&.*.&.} ) B t 9 < < < 1 < < 1 < < < 0 0 3 3 3 t S g.B.n.M.                                                                                                                                                                                                                                                                                                                                                                                                                                                                                                                                                                                                                                                                                                                                                                                                                                    ",
"                                                                                                                                                                                                                                                                                                                                                                                                                                                                                                                                                                                                                                                                                                                                                                                                                                                                                                                                                            q.lXs.O # # O O O O $ a BXKXKXKXKXKXKXKXKXKXKXKXKXKXBX=Xj.j.3.h.k.C.m.h.k.1.' 9 9 z H. X3XZXDXsX/.F.j.3.3.;.h.h.h.h.c.h.;.1.*.&.&.-.-.&.*.*.&.&.&.A h 9 1 1 < 1 0 0 1 0 < 9 < 3 3 3 w i z g.B.B.C.                                                                                                                                                                                                                                                                                                                                                                                                                                                                                                                                                                                                                                                                                                                                                                                                                                  ",
"                                                                                                                                                                                                                                                                                                                                                                                                                                                                                                                                                                                                                                                                                                                                                                                                                                                                                                                                                              p.f O O # # # # # $ 4 bXKXKXKXKXKXKXKXKXKXKXKXKXKXKXBX,Xm.h.m.m.m.f.h.c.w.' = * k >.} P K.kXFXjX[.c.3.3.;.k.h.h.h.h.-.;.1.-.&.;.-.f.-.&.&.&.*.&.{ { h 9 < < < < < < < < 9 9 3 3 w w w t j =.B.Z.V.                                                                                                                                                                                                                                                                                                                                                                                                                                                                                                                                                                                                                                                                                                                                                                                                                                ",
"                                                                                                                                                                                                                                                                                                                                                                                                                                                                                                                                                                                                                                                                                                                                                                                                                                                                                                                                                                < % O # # # # # # 2 bXKXKXKXKXKXKXKXKXKXKXKXKXKXKXKXDX,Xm.C.l.h.c.c.c.w.) w * 9 Z z t y [ 5XDXBX,Xc.h.j.h.h.h.h.;.;.h.;.;.&.;.;.f.f.%.=.-.=.%.&.&.{ n w 9 < 0 0 < < 0 0 9 1 3 w w w t i j D k.Z.B.N.                                                                                                                                                                                                                                                                                                                                                                                                                                                                                                                                                                                                                                                                                                                                                                                                                            ",
"                                                                                                                                                                                                                                                                                                                                                                                                                                                                                                                                                                                                                                                                                                                                                                                                                                                                                                                                                                        % % % % $ 2 vXKXKXKXKXKXKXKXKXKXKXKXKXKXKXKXKXDX1XF.k.h.h.h.c.w.} B 9 8 z h 9 < 1 I $XBXAXtXQ.M.m.n.h.f.-.:.;.;.;.-.;.h.m.c.f.h.j.-.=.&.*.&.{ N y 9 < 1 0 < 0 0 < 1 1 3 3 w w w t t x k.Z.B.x.                                                                                                                                                                                                                                                                                                                                                                                                                                                                                                                                                                                                                                                                                                                                                                                                                          ",
"                                                                                                                                                                                                                                                                                                                                                                                                                                                                                                                                                                                                                                                                                                                                                                                                                                                                                                                                                                          % % % $ , nXKXKXKXKXKXKXKXKXKXKXJXKXKXKXKXKXKXDXtXY.m.k.k.h.1.;.{ N b.eXaX~.w , < s K.vXFXkXoXF.m.h.f.h.h.;.;.;.;.;.h.n.h.;.f.;.;.h.-.&.{ { &.` k w < 0 0 0 1 0 1 0 1 3 3 e w w t y x g.Z.B.z.                                                                                                                                                                                                                                                                                                                                                                                                                                                                                                                                                                                                                                                                                                                                                                                                                        ",
"                                                                                                                                                                                                                                                                                                                                                                                                                                                                                                                                                                                                                                                                                                                                                                                                                                                                                                                                                                            % % # , lXKXKXKXKXKXKXSX%X%X%X5XKXKXKXKXKXKXKXFXyXE.m.k.h.f.;.;.&.{ e.;XxX5XI < 9 s q.6XHXBX*XM.h.h.h.h.f.;.-.-.-.;.;.h.-.%.;.;.-.;.-.` %.&.{ ` B y 0 0 < < 1 0 0 0 0 w 3 3 w w w t j F g.g.g.x.                                                                                                                                                                                                                                                                                                                                                                                                                                                                                                                                                                                                                                                                                                                                                                                                                    ",
"                                                                                                                                                                                                                                                                                                                                                                                                                                                                                                                                                                                                                                                                                                                                                                                                                                                                                                                                                                                % , uXKXKXKXKXKXKX%X: : : G nXLXKXKXKXKXKXKXHXaXR.l.k.h.h.3.;.*.' >.D.yXcXr.0 < e [ uXFXDX;Xc.h.j.c.c.f.;.h.1.1.-.-.-.-.c.j.&.-.=.&.-.-.&.&.} ) k w 9 < < < 1 0 0 w 3 w w w w w w y z =.g.g.x.                                                                                                                                                                                                                                                                                                                                                                                                                                                                                                                                                                                                                                                                                                                                                                                                                  ",
"                                                                                                                                                                                                                                                                                                                                                                                                                                                                                                                                                                                                                                                                                                                                                                                                                                                                                                                                                                                % , 6XKXKXKXKXKXbXg X $ $ # J nXKXKXKXKXKXKXKXFXpXY.l.m.M.k.c.1.&.N ' 2.1XxX~.w < w I :XZXZX1XG.c.c.h.h.h.h.c.h.&.%.-.;.;.;.=.=.=.-.;.;.;.&.&.} { N y 9 < < 1 1 0 w 0 w w w w w 4 w w h F x.A.B.                                                                                                                                                                                                                                                                                                                                                                                                                                                                                                                                                                                                                                                                                                                                                                                                                ",
"                                                                                                                                                                                                                                                                                                                                                                                                                                                                                                                                                                                                                                                                                                                                                                                                                                                                                                                                                                                % , 4XKXKXKXKXKX4X# O O % % O u.bXKXKXKXKXKXKXKXHXsX^.j.m.m.m.1.*.&.` ` c.=XjX&Xk 9 w V .XZXFXtXQ.v.c.k.k.m.c.-.%.;.;.;.&.%.&.;.;.%.;.;.-.&.&.&.&.} ) h w < 1 1 1 0 0 0 w w w w w e w w u S x.B.B.V.                                                                                                                                                                                                                                                                                                                                                                                                                                                                                                                                                                                                                                                                                                                                                                                                            ",
"                                                                                                                                                                                                                                                                                                                                                                                                                                                                                                                                                                                                                                                                                                                                                                                                                                                                                                                                                                                O , :XKXKXKXKXKXs.X # % % % O , I.LXKXKXKXKXKXKXKXJXcX~.v.m.h.h.;.3.;.A ` c.].sXyXI < w l ~.xXFXkX/.M.k.c.c.1.-.;.c.;.;.;.=.-.;.;.;.;.-.;.;.;.&.{ &.*.} B y < < 1 0 0 0 w 3 w w q w w 4 w t D k.B.N.M.                                                                                                                                                                                                                                                                                                                                                                                                                                                                                                                                                                                                                                                                                                                                                                                                          ",
"                                                                                                                                                                                                                                                                                                                                                                                                                                                                                                                                                                                                                                                                                                                                                                                                                                                                                                                                                                                  % T vXKXKXKXGXT . # o % % % O G SXKXKXKXKXKXKXKXKXJXcXE.h.k.n.c.1.1.*.' S f.W.aXyX .0 q k q.yXFXmX=XG.M.3.-.1.1.c.1.;.-.=.=.-.3.;.;.-.;.;.;.-.&.%.&.;.;.A y 0 0 1 0 0 w 3 3 w w w 0 w 3 w w D =.N.n.n.                                                                                                                                                                                                                                                                                                                                                                                                                                                                                                                                                                                                                                                                                                                                                                                                        ",
"                                                                                                                                                                                                                                                                                                                                                                                                                                                                                                                                                                                                                                                                                                                                                                                                                                                                                                                                                                                  % , I.SXKXKXnX4 $ O % % % % $ 4 nXKXKXKXKXKXKXKXKXKXKXjXQ.h.c.c.c.c.h.3.%.` 3.G.3XmX~.t 1 f +.tXDXAX0XM.-.3.h.h.c.1.;.3.3.3.-.-.-.;.;.;.;.;.;.;.-.-.;.-.&.{ u w < < 9 0 0 w 3 3 w w w w 0 w w j S :.x.x.                                                                                                                                                                                                                                                                                                                                                                                                                                                                                                                                                                                                                                                                                                                                                                                                      ",
"                                                                                                                                                                                                                                                                                                                                                                                                                                                                                                                                                                                                                                                                                                                                                                                                                                                                                                                                                                                  $ % p :XDXKX6X$ $ # # # % % # 2 6XKXKXKXKXKXKXKXKXKXKXJXxX!.c.c.m.n.m.c.&.S D h.M.<XNX$Xa 1 d { ;XZXDXtXE.F.n.c.1.=.3.j.h.c.c.f.;.;.;.;.;.;.1.;.;.&.-.;.&.&.{ k w 9 9 9 0 w w 3 3 w w w w 0 3 w q D %.c.                                                                                                                                                                                                                                                                                                                                                                                                                                                                                                                                                                                                                                                                                                                                                                                                      ",
"                                                                                                                                                                                                                                                                                                                                                                                                                                                                                                                                                                                                                                                                                                                                                                                                                                                                                                                                                                                  # # % d $XSXuX  # # # # % % % < 5XKXKXKXKXKXKXKXKXKXKXKXKXvX$Xv.m.V.n.c.-.&.-.$.f.m.=XkX3X[ < t N ~.BXJXcX=XC.c.;.1.j.3.j.1.;.-.-.-.;.-.3.3.;.3.*.*.%.-.%.&.*.&.Z h 9 9 1 w u t w w w w w w w 0 9 9 N ]                                                                                                                                                                                                                                                                                                                                                                                                                                                                                                                                                                                                                                                                                                                                                                                                       ",
"                                                                                                                                                                                                                                                                                                                                                                                                                                                                                                                                                                                                                                                                                                                                                                                                                                                                                                                                                                                    $ % @ k :X      O # # % % % < 4XKXKXKXKXKXKXKXKXKXKXKXKXKXBX&Xm.R.m.h.k.n.n.-.#.#.j.W.aXaX,.w w m I.cXJXBX,XM.m.m.h.j.n.h.;.;.&.&.;.;.;.;.;.1.*.*.&.-.-.;.&.&.3.%.z t < < w w w w 3 3 w w 3 < * 0 B I                                                                                                                                                                                                                                                                                                                                                                                                                                                                                                                                                                                                                                                                                                                                                                                                       ",
"                                                                                                                                                                                                                                                                                                                                                                                                                                                                                                                                                                                                                                                                                                                                                                                                                                                                                                                                                                                        % % f         # % % % % , :XKXKXKXKXKXKXKXKXKXKXKXKXKXKXBXoXv.c.m.n.V.m.c.;.` =.j.U.yXcXp.4 w z F.aXFXSX,XU.V.n.c.n.k.h.3.*.&.;.;.;.;.;.;.;.-.;.;.-.-.&.;.1.*.{ N y 9 9 w 9 w 3 3 w 0 , = * k ) )                                                                                                                                                                                                                                                                                                                                                                                                                                                                                                                                                                                                                                                                                                                                                                                                       ",
"                                                                                                                                                                                                                                                                                                                                                                                                                                                                                                                                                                                                                                                                                                                                                                                                                                                                                                                                                                                          %               % % % > %XKXKXKXKXKXKXKXKXKXKXKXKXKXKXKXBX Xv.m.k.n.V.n.;.;.` ` 2.F.3XBX&Xr 9 z e.yXFXDXtXU.C.h.f.h.k.M.1.-.;.*.;.1.;.3.h.3.;.-.;.-.;.1.1.*.} { V h w 9 w 1 1 < < < & & w V ) '                                                                                                                                                                                                                                                                                                                                                                                                                                                                                                                                                                                                                                                                                                                                                                                                       ",
"                                                                                                                                                                                                                                                                                                                                                                                                                                                                                                                                                                                                                                                                                                                                                                                                                                                                                                                                                                                                          % % % > %XKXKXKXKXKXKXKXKXKXKXKXKXKXKXKXKXBX,Xm.j.M.n.n.h.c.c.&.` 3.m. XjX;Xy 0 k +.,XAXFXpX].m.c.3.m.f.h.;.;.*.*.;.;.;.h.h.;.-.;.-.-.1.3.*.&.{ } } N q 9 1 < , % % % = n B Z Z N                                                                                                                                                                                                                                                                                                                                                                                                                                                                                                                                                                                                                                                                                                                                                                                                     ",
"                                                                                                                                                                                                                                                                                                                                                                                                                                                                                                                                                                                                                                                                                                                                                                                                                                                                                                                                                                                                              % % %XKXKXKXKXKXKXKXKXbXbXKXKXKXKXKXKXKXAX1XF.c.c.n.B.k.k.3.' ` *.3.W.jX:XI w z ` =XBXJXxX=XF.c.c.n.n.;.;.;.;.;.;.;.-.-.;.-.&.;.;.;.;.*.{ { &.&.{ Z t < < % % % % y B A Z Z Z                                                                                                                                                                                                                                                                                                                                                                                                                                                                                                                                                                                                                                                                                                                                                                                                     ",
"                                                                                                                                                                                                                                                                                                                                                                                                                                                                                                                                                                                                                                                                                                                                                                                                                                                                                                                                                                                                              % > :XKXKXKXKXKXKXLX%XW ..:XvXKXKXKXKXKXKXDXtXG.c.m.n.V.c.1.%.` S *.c.E.aXlXX.9 h A ~.xXHXVX,XF.V.n.c.;.;.;.-.;.1.1.-.-.;.;.&.;.1.;.&.&.} { *.&.&.{ z < % % % % 9 N B ` ` Z B                                                                                                                                                                                                                                                                                                                                                                                                                                                                                                                                                                                                                                                                                                                                                                                                     ",
"                                                                                                                                                                                                                                                                                                                                                                                                                                                                                                                                                                                                                                                                                                                                                                                                                                                                                                                                                                                                              % , 4XKXKXKXKXKXKXbX4 o # 5 W vXKXKXKXKXKXKXFXyXU.m.C.C.c.;.-.f.;.{ &.3.P.yXcXJ.1 r ' G.kXJXZX0XT.m.c.n.c.;.h.1.1.1.1.1.1.;.;.;.-.-.&.&.&.&.&.%.%.&.` w % % % * h Z Z ` 3.Z N n                                                                                                                                                                                                                                                                                                                                                                                                                                                                                                                                                                                                                                                                                                                                                                                                   ",
"                                                                                                                                                                                                                                                                                                                                                                                                                                                                                                                                                                                                                                                                                                                                                                                                                                                                                                                                                                                                                < 5XKXKXKXKXKXKX4X> % % # % I.GXKXKXKXKXKXKXHXpXT.M.M.1.;.k.m.3.;.A A &.M.3XxXs.w y N v.yXFXDX1XU.m.n.;.f.h.h.;.;.1.1.1.;.1.c.;.&.&.*.*.&.&.%.&.%.*.V = % % 0 Z D D 3.c.' B m                                                                                                                                                                                                                                                                                                                                                                                                                                                                                                                                                                                                                                                                                                                                                                                                   ",
"                                                                                                                                                                                                                                                                                                                                                                                                                                                                                                                                                                                                                                                                                                                                                                                                                                                                                                                                                                                                                4 6XKXKXKXKXKXGX8.o % % % % 5 uXKXKXKXKXKXKXKXFXsXW.-.;.h.m.h.k.3.{ A ` 3.2.&XvXI.d w N w.,XAXDXdX^.c.c.h.h.c.c.h.c.c.;.;.;.-.-.-.&.*.*.&.%.-.-.-.*.} < % % k A D S S ` A B V M                                                                                                                                                                                                                                                                                                                                                                                                                                                                                                                                                                                                                                                                                                                                                                                                 ",
"                                                                                                                                                                                                                                                                                                                                                                                                                                                                                                                                                                                                                                                                                                                                                                                                                                                                                                                                                                                                                5 uXKXKXKXKXKXbXg % % % % % $ 9.SXKXKXKXKXKXKXKXJXyXU.n.M.m.c.h.:.;.{ ` ` *.e.=XmX3Xn w N &.,XBXJXjXQ.m.m.n.m.C.n.n.c.1.1.1.-.-.-.*.&.&.*.%.-.-.;.&.{ t * w B A S S S D Z Z V V                                                                                                                                                                                                                                                                                                                                                                                                                                                                                                                                                                                                                                                                                                                                                                                                 ",
"                                                                                                                                                                                                                                                                                                                                                                                                                                                                                                                                                                                                                                                                                                                                                                                                                                                                                                                                                                                                                < 4XSXKXKXKXKXvX4 % % % % # $ 6 nXKXKXKXKXKXKXKXKXJXjX].n.n.c.;.h.1.;.;.*.` 3.c.^.jXyXM w k {  XNXJXMX*XM.m.V.Z.V.n.c.1.;.;.-.%.&.*.&.&.;.-.%.-.&.` ) k = n A Z A D D D Z Z B B                                                                                                                                                                                                                                                                                                                                                                                                                                                                                                                                                                                                                                                                                                                                                                                                 ",
"                                                                                                                                                                                                                                                                                                                                                                                                                                                                                                                                                                                                                                                                                                                                                                                                                                                                                                                                                                                                                , T uXKXKXKXKX6X> % % % % $ $ 2 6XKXKXKXKXKXKXKXKXKXJXjXT.k.h.;.c.c.m.h.*.&.S #.h.^.aXuXp.w u { /.jXJXBX1XU.V.V.C.n.f.;.;.;.;.;.-.;.&.%.&.*.;.-.%.` ` V u B B Z A Z D A D Z A A B                                                                                                                                                                                                                                                                                                                                                                                                                                                                                                                                                                                                                                                                                                                                                                                               ",
"                                                                                                                                                                                                                                                                                                                                                                                                                                                                                                                                                                                                                                                                                                                                                                                                                                                                                                                                                                                                                < , [ nXKXKXKX4X% % % % $ $ $ : 5XKXKXKXKXKXKXKXKXKXKXJXxXW.k.h.h.m.C.h.;.3.$.S %.k.F.tXMXI.u d ] P.yXGXDXtX`.R.V.h.c.;.*.-.-.;.-.;.:.-.&.*.;.&.%.%.{ { A B B Z B Z ` A A A A A B                                                                                                                                                                                                                                                                                                                                                                                                                                                                                                                                                                                                                                                                                                                                                                                               ",
"                                                                                                                                                                                                                                                                                                                                                                                                                                                                                                                                                                                                                                                                                                                                                                                                                                                                                                                                                                                                                  < , J lXKXJXI.$ % % # $ $ $ $ :XKXKXKXKXKXKXKXKXKXKXKXKXmX[.m.c.m.C.n.n.h.1.` ` S -.v.,XNX$Xd u A e.:XZXFXaXW.m.h.;.;.c.c.c.*.%.;.-.-.;.&.&.&.#.%.;.*.A B A A A Z A A A A Z B B M                                                                                                                                                                                                                                                                                                                                                                                                                                                                                                                                                                                                                                                                                                                                                                                             ",
"                                                                                                                                                                                                                                                                                                                                                                                                                                                                                                                                                                                                                                                                                                                                                                                                                                                                                                                                                                                                                    > > L nXPXX.# % % $ # # $ X %XKXKXKXKXKXKXKXKXKXKXKXKXJXBX=XR.V.V.V.k.k.1.1.*.` D &.1.oXMX3XB t V 3.=XBXFXxX].n.f.f.n.c.;.;.*.&.| &.h.;.%.%.%.&.*.*.` B B A A Z Z A A A B B B V V                                                                                                                                                                                                                                                                                                                                                                                                                                                                                                                                                                                                                                                                                                                                                                                           ",
"                                                                                                                                                                                                                                                                                                                                                                                                                                                                                                                                                                                                                                                                                                                                                                                                                                                                                                                                                                                                                      , > W uXR # # % $ # # # X I.KXKXKXKXKXKXKXKXKXKXKXKXKXKXBX1XR.B.k.k.h.c.1.1.-.#.S %.1.oXjXtX} t z } ~.vXJXBX=XV.Z.n.-.-.;.;.&.&.;.f.3.;.%.*.&.%.&.&.) A A Z A A Z Z Z B B B B I B                                                                                                                                                                                                                                                                                                                                                                                                                                                                                                                                                                                                                                                                                                                                                                                         ",
"                                                                                                                                                                                                                                                                                                                                                                                                                                                                                                                                                                                                                                                                                                                                                                                                                                                                                                                                                                                                                        > , 8.      % # # # # O s.LXKXKXKXKXKXKXKXKXKXKXKXKXKXKXDX<XV.h.f.f.g.h.h.h.;.#.S &.w.W.sXkX0.3 d ' /.xXJXZXeX`.k.h.1.;.*.&.;.;.*.1.3.;.&.&.&.&.1.&.) Z A A A A A A A B B B A B n                                                                                                                                                                                                                                                                                                                                                                                                                                                                                                                                                                                                                                                                                                                                                                                       ",
"                                                                                                                                                                                                                                                                                                                                                                                                                                                                                                                                                                                                                                                                                                                                                                                                                                                                                                                                                                                                                          , <         # # # # O a.PXKXKXKXKXKXKXKXKXKXKXKXKXKXKXKXVX1Xj.f.:.n.N.m.h.h.;.%.` %.3.U.aXvXq.w y ) Y.yXDXFXtXR.m.c.1.;.;.;.*.&.1.;.;.&.*.;.1.1.*.A Z A Z Z A A A A A A A B N N n                                                                                                                                                                                                                                                                                                                                                                                                                                                                                                                                                                                                                                                                                                                                                                                     ",
"                                                                                                                                                                                                                                                                                                                                                                                                                                                                                                                                                                                                                                                                                                                                                                                                                                                                                                                                                                                                                                        # # # X o.GXKXKXKXKXKXKXKXKXJXLXKXKXKXKXKXKXDX1Xm.h.V.m.m.n.m.c.;.=.#.S h.P.3XvX;Xa y D h.3XGXFXaXW.M.c.c.f.;.-.-.1.1.;.*.1.1.3.;.;.*.' Z Z Z Z Z Z A A Z Z B B B B B                                                                                                                                                                                                                                                                                                                                                                                                                                                                                                                                                                                                                                                                                                                                                                                   ",
"                                                                                                                                                                                                                                                                                                                                                                                                                                                                                                                                                                                                                                                                                                                                                                                                                                                                                                                                                                                                                                          # # X L SXKXKXKXKXKXKXKXBX%XI.uXGXKXKXKXKXKXDX3XR.m.m.m.k.k.g.f.h.&.%.%.k.P.,XBX:Xm 9 z >.;XZXFXjX+XC.M.;.;.c.c.;.-.3.3.3.h.-.h.c.3.` D A A A A A ) A Z Z N N B B B B                                                                                                                                                                                                                                                                                                                                                                                                                                                                                                                                                                                                                                                                                                                                                                                 ",
"                                                                                                                                                                                                                                                                                                                                                                                                                                                                                                                                                                                                                                                                                                                                                                                                                                                                                                                                                                                                                                            # X J SXKXKXKXKXKXPX6XW % % f I.uXGXKXLXKXKXGXtXD.3.k.k.n.g.h.h.-.-.%.S ;.b.&XMX5X) w k } &XcXJXMX1XM.;.h.c.f.;.;.3.h.3.3.j.1.;.&.%.` S A A A A A Z B Z N N B B B B m                                                                                                                                                                                                                                                                                                                                                                                                                                                                                                                                                                                                                                                                                                                                                                               ",
"                                                                                                                                                                                                                                                                                                                                                                                                                                                                                                                                                                                                                                                                                                                                                                                                                                                                                                                                                                                                                                              X L SXKXKXKXKXKXvX, X % % % # a 4XKXKXKXKXKXGXtXG.3.h.k.n.N.n.c.;.;.%.D %.v.E.yXkXr.w z ' ~.cXFXAX,XU.M.m.h.-.-.h.j.;.3.c.h.-.-.1.-.` A A A A A Z B N N N B N B B B B                                                                                                                                                                                                                                                                                                                                                                                                                                                                                                                                                                                                                                                                                                                                                                             ",
"                                                                                                                                                                                                                                                                                                                                                                                                                                                                                                                                                                                                                                                                                                                                                                                                                                                                                                                                                                                                                                              o W SXKXKXKXKXKX:X# # % % % $ $ U SXKXKXKXKXKXHXyXH.3.k.n.n.n.m.c.h.&.` S %.1.G.yXMXL.t d ' D.yXFXAXtXU.m.h.h.h.h.3.;.j.j.;.;.;.h.3.` A ' A A A A A B N N B B B B B B m                                                                                                                                                                                                                                                                                                                                                                                                                                                                                                                                                                                                                                                                                                                                                                           ",
"                                                                                                                                                                                                                                                                                                                                                                                                                                                                                                                                                                                                                                                                                                                                                                                                                                                                                                                                                                                                                                                8.GXKXKXKXKXKXI.$ # # % O $ . 4 cXKXKXKXKXKXKXHXaXL.k.h.n.n.n.h.h.-.;.%.D #.h.m.1XMX.Xc u B D.tXDXFXaXY.j.m.k.h.-.c.j.;.3.j.1.;.-.=.A ` A A ) A A A B B Z B N B B B V V                                                                                                                                                                                                                                                                                                                                                                                                                                                                                                                                                                                                                                                                                                                                                                         ",
"                                                                                                                                                                                                                                                                                                                                                                                                                                                                                                                                                                                                                                                                                                                                                                                                                                                                                                                                                                                                                                                s.DXKXKXKXKXLXu.X $ # # # # o , 6XKXKXKXKXKXKXKXJXcX/.V.n.n.n.h.h.h.f.-.{ S S ;.2.&XMX5XM d ) 2.;XBXFXkX(.U.m.h.;.M.j.;.j.m.h.3.-.3.` D A A A A ) A B B B N N N B B B V I                                                                                                                                                                                                                                                                                                                                                                                                                                                                                                                                                                                                                                                                                                                                                                       ",
"                                                                                                                                                                                                                                                                                                                                                                                                                                                                                                                                                                                                                                                                                                                                                                                                                                                                                                                                                                                                                                                U 4XGXKXKXKXSXT X % # $ # o O : 6XKXKXKXKXKXKXKXKXJXMX*XC.k.B.k.g.h.h.;.&.%.S Z &.w./.mXyX] u k } (.kXJXNX=XU.m.k.j.1.j.h.c.f.;.-.;.%.D S S Z A ) ) A B N N N N N B B B V I                                                                                                                                                                                                                                                                                                                                                                                                                                                                                                                                                                                                                                                                                                                                                                     ",
"                                                                                                                                                                                                                                                                                                                                                                                                                                                                                                                                                                                                                                                                                                                                                                                                                                                                                                                                                                                                                                                  K 5XKXKXKXbXJ # % # % # O X : 4XKXKXKXKXKXKXKXKXKXKXBX=Xl.k.g.f.f.;.h.-.-.-.$.S *.1.W.jXkXq.w u ) D.kXFXBX1XT.c.h.k.c.h.c.;.;.;.:.:.-.#.S S A A ' A N N N B N N Z Z Z B V B                                                                                                                                                                                                                                                                                                                                                                                                                                                                                                                                                                                                                                                                                                                                                                   ",
"                                                                                                                                                                                                                                                                                                                                                                                                                                                                                                                                                                                                                                                                                                                                                                                                                                                                                                                                                                                                                                                  % @.BXKXKXnXe % % # % $ # X $ 4XKXKXKXKXKXKXKXKXKXKXKXBX=Xl.h.f.c.f.f.f.h.;.=.` S S h.U.tXjXI.e u n w.yXFXDXeXU.V.C.n.h.c.f.c.;.;.f.;.-.S A A A A B B Z B Z A B B Z A Z A B m                                                                                                                                                                                                                                                                                                                                                                                                                                                                                                                                                                                                                                                                                                                                                                 ",
"                                                                                                                                                                                                                                                                                                                                                                                                                                                                                                                                                                                                                                                                                                                                                                                                                                                                                                                                                                                                                                                    < a.vXSX6X, % % % % # # X # :XKXKXKXKXKXKXKXKXKXKXKXKXBX=Xj.k.c.g.k.k.k.;.*.*.%.D S 3.M.eXvX.Xr y N 2.3XDXDXpX{.Z.h.c.h.j.h.-.*.1.-.;.&.) ) A B B B Z B B ' ' Z A A Z B n k m                                                                                                                                                                                                                                                                                                                                                                                                                                                                                                                                                                                                                                                                                                                                                               ",
"                                                                                                                                                                                                                                                                                                                                                                                                                                                                                                                                                                                                                                                                                                                                                                                                                                                                                                                                                                                                                                                      , 8.bX4X% > % % # # $ X X %XKXKXKXKXKXKXKXKXKXKXKXKXKXZX;Xj.k.g.k.n.c.c.c.;.-.%.A A 3.c.,XMX:Xk t N *.-XBXFXjX'.B.f.j.j.h.f.;.1.*.,.*.*.` A Z B N N N Z ' ) Z Z ) A N k k N I                                                                                                                                                                                                                                                                                                                                                                                                                                                                                                                                                                                                                                                                                                                                                             ",
"                                                                                                                                                                                                                                                                                                                                                                                                                                                                                                                                                                                                                                                                                                                                                                                                                                                                                                                                                                                                                                                        , s.uX    % % $ X X X X %XKXKXKXKXKXKXKXKXKXKXLXKXKXKXBX=Xl.k.m.c.h.c.c.f.h.%.{ { ` k.m.>XmXtX[ w N {  XMXJXNXOXC.M.c.h.h.k.2.,.,.1.;.&.A Z Z N Z Z A A A A A A Z N N N B B I                                                                                                                                                                                                                                                                                                                                                                                                                                                                                                                                                                                                                                                                                                                                                           ",
"                                                                                                                                                                                                                                                                                                                                                                                                                                                                                                                                                                                                                                                                                                                                                                                                                                                                                                                                                                                                                                                                    % % # X X X %XKXKXKXKXKXKXKXKXKXKXKXKXKXKXKXVX<XF.M.k.h.n.k.h.h.1.*.*.S S =.C.{.jXlX@.w h A L.kXFXBX<XT.C.m.h.j.1.1.1.1.*.&.%.` Z Z A ) A A A A A Z N N N N B N B B                                                                                                                                                                                                                                                                                                                                                                                                                                                                                                                                                                                                                                                                                                                                                         ",
"                                                                                                                                                                                                                                                                                                                                                                                                                                                                                                                                                                                                                                                                                                                                                                                                                                                                                                                                                                                                                                                                      % # X X . $XKXKXKXKXKXKXKXKXKXKXKXKXKXKXKXKXDXtXG.j.n.k.g.n.m.m.h.h.;.%.S f.M.W.aXcXp.t y A P.yXFXDXiX'.M.j.j.h.h.h.3.*.&.&.&.` D A A A A A A A B N N N B B N B Z B )                                                                                                                                                                                                                                                                                                                                                                                                                                                                                                                                                                                                                                                                                                                                                     ",
"                                                                                                                                                                                                                                                                                                                                                                                                                                                                                                                                                                                                                                                                                                                                                                                                                                                                                                                                                                                                                                                                        # X X X XXKXKXKXKXKXKXKXKXBX6XuX6XGXKXKXKXKXGXyXU.k.h.f.n.m.M.n.n.c.;.&.` =.c.U.1XxXXXt j A D.5XDXFXiXW.M.M.k.k.f.h.;.&.*.*.;.&.S A Z Z A A B N B B N Z Z Z Z Z Z B                                                                                                                                                                                                                                                                                                                                                                                                                                                                                                                                                                                                                                                                                                                                                     ",
"                                                                                                                                                                                                                                                                                                                                                                                                                                                                                                                                                                                                                                                                                                                                                                                                                                                                                                                                                                                                                                                                          % X X s.KXKXKXKXKXKXKXlXL a a a s.bXKXKXKXKXHXyXU.l.h.m.m.M.m.n.c.1.;.&.A S h.C.1XmX:Xn y N 2.;XBXFXjX].U.l.k.k.k.h.&.*.3.3.c.&.` Z A A Z N N B B Z Z Z A A N Z B B N                                                                                                                                                                                                                                                                                                                                                                                                                                                                                                                                                                                                                                                                                                                                                 ",
"                                                                                                                                                                                                                                                                                                                                                                                                                                                                                                                                                                                                                                                                                                                                                                                                                                                                                                                                                                                                                                                                              . s.JXKXKXKXKXKXKXI.. O o O $ I.GXKXKXKXKXHXyXG.l.m.n.M.M.c.n.c.h.;.{ ` #.k.M.=XvX5XV t N &.;XBXHXNX,XT.m.n.k.f.;.1.h.h.j.j.*.A Z Z B Z Z Z A ' A A A A Z A B N V                                                                                                                                                                                                                                                                                                                                                                                                                                                                                                                                                                                                                                                                                                                                                 ",
"                                                                                                                                                                                                                                                                                                                                                                                                                                                                                                                                                                                                                                                                                                                                                                                                                                                                                                                                                                                                                                                                                s.PXKXKXKXKXKXSXL X X # O X 1 6XKXKXKXKXKXHXaXY.k.M.M.c.c.h.k.h.;.;.%.&.S *.c./.kXuX] i k &.~.kXFXBX1XR.k.h.;.;.h.j.j.j.c.;.` Z N N Z Z Z Z A A A ' B B B B B B B V                                                                                                                                                                                                                                                                                                                                                                                                                                                                                                                                                                                                                                                                                                                                             ",
"                                                                                                                                                                                                                                                                                                                                                                                                                                                                                                                                                                                                                                                                                                                                                                                                                                                                                                                                                                                                                                                                                a.PXKXKXKXKXKXuX, X $ # % % O I.LXKXKXKXKXKXJXjX/.c.n.c.c.f.h.f.h.f.f.h.-.A %.c.H.tXaXp.t n ' D.yXFXDXeXU.j.c.f.k.k.3.j.3.*.&.` A B Z Z A A A Z A A ) A B B B A A N N                                                                                                                                                                                                                                                                                                                                                                                                                                                                                                                                                                                                                                                                                                                                           ",
"                                                                                                                                                                                                                                                                                                                                                                                                                                                                                                                                                                                                                                                                                                                                                                                                                                                                                                                                                                                                                                                                                u.GXKXKXKXKXKX%X% X $ $ # # # L SXKXKXKXKXKXKXJXmXoXn.n.h.1.c.h.c.n.N.h.;.*.` S h.m.eXMXI.r r V ,.3XZXGXyXY.m.n.m.h.h.k.;.-.-.2.{ A A ' ) ' A B B A A V B B A Z A N B B                                                                                                                                                                                                                                                                                                                                                                                                                                                                                                                                                                                                                                                                                                                                         ",
"                                                                                                                                                                                                                                                                                                                                                                                                                                                                                                                                                                                                                                                                                                                                                                                                                                                                                                                                                                                                                                                                                o.SXKXKXKXKXKX$XO # $ $ # % # 5 vXKXKXKXKXKXKXKXKXMX&Xm.h.h.1.w.h.n.n.f.1.1.&.S %.h.m.1XMX&Xc y k [ &XBXFXkX].F.k.;.h.h.-.-.-.j.3.&.) ' ` ' ' B N Z B N B Z Z N Z Z Z B V                                                                                                                                                                                                                                                                                                                                                                                                                                                                                                                                                                                                                                                                                                                                       ",
"                                                                                                                                                                                                                                                                                                                                                                                                                                                                                                                                                                                                                                                                                                                                                                                                                                                                                                                                                                                                                                                                                a vXKXKXKXKXLXs.X $ # # # # # , 6XKXKXKXKXKXKXKXKXKXBX=XM.j.c.c.c.c.c.;.;.h.;.-.%.%.h.c.&XxX5XM w d } .XMXFXMX=XM.M.c.;.;.;.f.h.j.2.&.` A ` ' Z Z ' Z Z Z Z Z Z Z Z N N Z B n                                                                                                                                                                                                                                                                                                                                                                                                                                                                                                                                                                                                                                                                                                                                   ",
"                                                                                                                                                                                                                                                                                                                                                                                                                                                                                                                                                                                                                                                                                                                                                                                                                                                                                                                                                                                                                                                                                $ o.bXKXKXKXPXo.X $ # # # % O > 4XKXKXKXKXKXKXKXKXKXKXZX;XG.m.n.M.M.c.c.c.c.h.1.;.#.S -.e. XxXaX[ 0 k | ~.pXFXZX1XR.k.c.1.h.h.h.c.h.h.-.` ' ' ' ' A Z Z N Z Z Z Z N N Z B B m M                                                                                                                                                                                                                                                                                                                                                                                                                                                                                                                                                                                                                                                                                                                                 ",
"                                                                                                                                                                                                                                                                                                                                                                                                                                                                                                                                                                                                                                                                                                                                                                                                                                                                                                                                                                                                                                                                                  # ~ nXKXKXSXL O $ # $ $ # $ > :XKXKXKXKXKXKXKXKXKXKXKXDX1XU.C.m.m.c.c.c.n.c.;.-.-.-.=.-.2.L.yXkXX.0 k ' S.tXGXDXeXF.h.k.c.1.c.n.n.k.;.-.&.' ` ' Z B Z Z Z Z Z A Z Z Z N N B B V                                                                                                                                                                                                                                                                                                                                                                                                                                                                                                                                                                                                                                                                                                                               ",
"                                                                                                                                                                                                                                                                                                                                                                                                                                                                                                                                                                                                                                                                                                                                                                                                                                                                                                                                                                                                                                                                                  $ $ L uXKXnX1 O $ # $ % % $ ; %XKXKXKXKXKXKXKXKXKXKXKXKXDX1XU.M.m.m.c.n.n.c.m.c.c.c.-.#.#.3.G.tXuXK.y y B >.3XZXDXtXW.V.m.1.c.n.k.g.f.h.&.` A A Z Z A A A A Z Z A ' A B B B B m m                                                                                                                                                                                                                                                                                                                                                                                                                                                                                                                                                                                                                                                                                                                             ",
"                                                                                                                                                                                                                                                                                                                                                                                                                                                                                                                                                                                                                                                                                                                                                                                                                                                                                                                                                                                                                                                                                      $ g 6X6X% O $ $ # # % $ $ %XKXKXKXKXKXKXKXKXKXKXKXKXKXDXtXF.m.m.m.c.c.c.c.m.M.m.c.-.S ` 1.v.1XNX&Xu w n | ;XBXFXsXOXF.m.m.c.g.h.c.h.-.-.&.` ' Z Z A A Z Z Z A ' Z Z Z Z N N B V V                                                                                                                                                                                                                                                                                                                                                                                                                                                                                                                                                                                                                                                                                                                         ",
"                                                                                                                                                                                                                                                                                                                                                                                                                                                                                                                                                                                                                                                                                                                                                                                                                                                                                                                                                                                                                                                                                      $ $ g X.  O $ # # # $ % $ $XKXKXKXKXKXKXKXKXKXKXKXKXKXKXFXtXG.M.m.c.n.n.c.c.M.c.c.;.-.#.` -.c.=XNX:Xc 3 n 3.=XMXHXNX<XR.R.m.h.c.h.:.;.-.;.&.' Z Z Z Z N B A A A Z ' ) B N B N N N m                                                                                                                                                                                                                                                                                                                                                                                                                                                                                                                                                                                                                                                                                                                       ",
"                                                                                                                                                                                                                                                                                                                                                                                                                                                                                                                                                                                                                                                                                                                                                                                                                                                                                                                                                                                                                                                                                        > X       % # # % % % O XXKXKXKXKXKXKXKXKXKXKXKXKXKXKXKXFXyXQ.m.c.C.V.m.n.m.c.c.c.;.-.{ A 3.k.oXvX5X] w k &.L.kXJXDX1XR.m.j.c.h.-.;.-.3.*.{ A Z N N Z Z A Z Z Z ) A Z Z Z N Z N B V                                                                                                                                                                                                                                                                                                                                                                                                                                                                                                                                                                                                                                                                                                                     ",
"                                                                                                                                                                                                                                                                                                                                                                                                                                                                                                                                                                                                                                                                                                                                                                                                                                                                                                                                                                                                                                                                                                    # # % % % # I.KXKXKXKXKXKXKXKXKXKXKXKXKXKXKXKXHXaXE.m.V.V.C.k.n.c.c.c.;.h.;.%.` -.j.!.kXcXq.w h A S.kXGXDXtX^.U.c.h.3.h.h.-.&.&.&.` N N Z B Z A Z B B Z Z N N Z A A ) I V                                                                                                                                                                                                                                                                                                                                                                                                                                                                                                                                                                                                                                                                                                                   ",
"                                                                                                                                                                                                                                                                                                                                                                                                                                                                                                                                                                                                                                                                                                                                                                                                                                                                                                                                                                                                                                                                                                      % % % % $ s.KXKXKXKXKXKXKXKXKXKXKXKXKXKXKXKXKXHXyXY.k.m.k.k.n.m.M.c.c.c.h.f.&.Z { v.P.yXMXK.r u B e.1XDXHXaXY.l.j.j.j.j.&.-.3.c.3.` Z Z Z B Z ) Z N Z A Z N N Z A ) B B V V                                                                                                                                                                                                                                                                                                                                                                                                                                                                                                                                                                                                                                                                                                               ",
"                                                                                                                                                                                                                                                                                                                                                                                                                                                                                                                                                                                                                                                                                                                                                                                                                                                                                                                                                                                                                                                                                                        % % % $ s.KXKXKXKXKXKXKXKXKXKXKXKXKXKXKXKXKXKXHXaXE.c.m.V.n.c.M.M.M.n.B.k.;.&.) { 1.c.1XjX$Xy t z ,.;XZXHXsX[.v.2.2.3.;.;.h.c.m.*.` Z Z Z A ' A Z Z Z Z Z z N Z B B N N B V                                                                                                                                                                                                                                                                                                                                                                                                                                                                                                                                                                                                                                                                                                             ",
"                                                                                                                                                                                                                                                                                                                                                                                                                                                                                                                                                                                                                                                                                                                                                                                                                                                                                                                                                                                                                                                                                                          % % $ s.KXKXKXKXKXKXKXKXKXKXKXKXKXKXKXKXKXKXKXHXkX!.M.C.k.h.m.M.c.n.Z.n.;.;.{ A A -.;.=XMX3XN t k } ~.vXJXMXoXv.3.j.3.-.;.c.j.;.&.' Z Z A Z B A A Z B B N N B B N N n B V V                                                                                                                                                                                                                                                                                                                                                                                                                                                                                                                                                                                                                                                                                                           ",
"                                                                                                                                                                                                                                                                                                                                                                                                                                                                                                                                                                                                                                                                                                                                                                                                                                                                                                                                                                                                                                                                                                          % % $ s.KXKXKXKXKXKXKXKXKXKXKXKXKXKXKXKXKXKXKXKXJXxX[.M.n.n.M.n.m.n.k.m.m.h.-.%.A A ;.m.+XjXtX) 9 y Z L.xXJXBX;XF.1.1.;.h.c.;.=.3.*.{ ) B B Z A ' ' B B B B N N N n n N B V V n                                                                                                                                                                                                                                                                                                                                                                                                                                                                                                                                                                                                                                                                                                       ",
"                                                                                                                                                                                                                                                                                                                                                                                                                                                                                                                                                                                                                                                                                                                                                                                                                                                                                                                                                                                                                                                                                                            % # s.KXKXKXKXKXKXKXKXKXKXKXKXKXKXKXKXKXKXKXKXKXJXMX[.k.m.m.m.C.V.n.C.n.k.f.-.3.&.A &.M./.kXkX} 9 y V D.yXFXDXtXH.c.n.k.h.;.&.1.&.&.&.A V A Z A A B B B B B N N N N B B B m m m                                                                                                                                                                                                                                                                                                                                                                                                                                                                                                                                                                                                                                                                                                     ",
"                                                                                                                                                                                                                                                                                                                                                                                                                                                                                                                                                                                                                                                                                                                                                                                                                                                                                                                                                                                                                                                                                                              # s.KXKXKXKXKXKXKXKXKXKXKXKXKXKXKXKXKXKXKXKXKXKXKXNXoXm.C.V.V.B.Z.C.n.k.h.3.j.3.&.` 1.m.P.yXkXK.w y V S.,XDXFXtX^.l.l.h.;.w.1.&.:.;.;.] ) ' D A B B A B B N N N N B B n k n m m                                                                                                                                                                                                                                                                                                                                                                                                                                                                                                                                                                                                                                                                                                   ",
"                                                                                                                                                                                                                                                                                                                                                                                                                                                                                                                                                                                                                                                                                                                                                                                                                                                                                                                                                                                                                                                                                                              # s.KXKXKXKXKXKXKXKXKXKXKXKXKXKXKXKXKXKXKXKXKXKXKXKXBX=XF.m.C.V.V.n.k.k.k.j.3.;.;.*.#.%.1.b.3XNX$Xy 9 l >.;XBXJXcX^.l.n.h.c.1.;.f.f.f.&.` ' Z Z B A A B N N N N B B m k k n N m n                                                                                                                                                                                                                                                                                                                                                                                                                                                                                                                                                                                                                                                                                                 ",
"                                                                                                                                                                                                                                                                                                                                                                                                                                                                                                                                                                                                                                                                                                                                                                                                                                                                                                                                                                                                                                                                                                              % K 6XKXKXKXKXKXKXKXKXKXKXKXKXKXKXKXKXKXKXKXKXKXKXKXKXAX,Xv.M.k.c.h.k.V.m.k.1.j.h.f.;.S %.3.w.;XMX;XB t n '  XvXHXxX*Xm.m.n.3.;.;.;.k.f.$.` M B A Z A A B N B B N n n n n N B m n m m                                                                                                                                                                                                                                                                                                                                                                                                                                                                                                                                                                                                                                                                                             ",
"                                                                                                                                                                                                                                                                                                                                                                                                                                                                                                                                                                                                                                                                                                                                                                                                                                                                                                                                                                                                                                                                                                              % $ b 5XLXKXKXKXKXKXKXKXKXKXKXKXKXKXKXKXKXKXKXKXKXKXKXKXZX3XG.j.c.c.c.M.m.h.f.k.n.n.h.;.#.` &.2.oXkXuX' w y A H.yXFXBX<XF.k.h.h.k.h.f.:.%.{ ) A Z Z A Z N B Z B N N k n B B N n n m m M                                                                                                                                                                                                                                                                                                                                                                                                                                                                                                                                                                                                                                                                                           ",
"                                                                                                                                                                                                                                                                                                                                                                                                                                                                                                                                                                                                                                                                                                                                                                                                                                                                                                                                                                                                                                                                                                              % % > a %XSXKXKXKXKXKXKXKXKXKXKXKXKXKXKXKXKXKXKXKXKXKXKXKXGX1Xv.j.c.c.m.n.n.k.B.m.M.m.f.-.` A ` e.E.jXkX| w y B i.5XDXDX1XR.m.m.k.k.h.%.{ &.&.{ A N Z B Z A ) B N N k N Z B k n n n B V V                                                                                                                                                                                                                                                                                                                                                                                                                                                                                                                                                                                                                                                                                         ",
"                                                                                                                                                                                                                                                                                                                                                                                                                                                                                                                                                                                                                                                                                                                                                                                                                                                                                                                                                                                                                                                                                                              , % % $ , s.BXKXKXKXKXKXKXKXKXKXKXKXKXKXKXKXKXKXKXKXKXKXKXKXDXtXR.k.m.c.c.c.N.C.C.M.m.f.h.1.%.` &.1.v.eXkXq.9 h z >.:XGXFXdX].R.k.3.>.&.&.-.&.&.{ A N Z ' ' ) N l z N B B N N N N k n V V B                                                                                                                                                                                                                                                                                                                                                                                                                                                                                                                                                                                                                                                                                       ",
"                                                                                                                                                                                                                                                                                                                                                                                                                                                                                                                                                                                                                                                                                                                                                                                                                                                                                                                                                                                                                                                                                                                % % % $ > a.bXKXKXKXKXKXKXKXKXKXKXKXKXKXKXKXKXKXKXKXKXKXKXKXDX0XR.m.m.C.C.N.C.C.n.n.h.k.j.3.&.D S =.c.3XkXL.s q l [ :XZXFXjX`.l.h.3.*.*.-.:.-.&.%.` Z A ' Z N N N B B N N N N N N B B B B V B                                                                                                                                                                                                                                                                                                                                                                                                                                                                                                                                                                                                                                                                                   ",
"                                                                                                                                                                                                                                                                                                                                                                                                                                                                                                                                                                                                                                                                                                                                                                                                                                                                                                                                                                                                                                                                                                                    % % # $ X.nXKXKXKXKXKXKXKXKXKXKXKXKXKXKXKXKXKXKXKXKXKXKXKXFXtXT.V.Z.C.M.C.C.n.n.m.m.c.3.=.%.S S j.S.1XMX:Xd 1 d ' (.BXFXjX*XV.k.3.1.1.f.:.-.-.*.` ' A Z N N B Z N N N B B N N B N B B B B m                                                                                                                                                                                                                                                                                                                                                                                                                                                                                                                                                                                                                                                                                 ",
"                                                                                                                                                                                                                                                                                                                                                                                                                                                                                                                                                                                                                                                                                                                                                                                                                                                                                                                                                                                                                                                                                                                      % % # $ L 6XPXKXKXKXKXKXKXKXKXKXKXKXKXKXKXKXKXKXKXKXKXKXKXDXtXT.V.V.Z.T.m.k.m.m.m.n.h.-.3.-.-.#.3.j.oXMX3Xm w h Z ~.xXJXBX=XV.k.v.1.;.-.-.3.;.&.` Z N N N Z Z N N N B B B B N B N N B B B m                                                                                                                                                                                                                                                                                                                                                                                                                                                                                                                                                                                                                                                                               ",
"                                                                                                                                                                                                                                                                                                                                                                                                                                                                                                                                                                                                                                                                                                                                                                                                                                                                                                                                                                                                                                                                                                                        # % # X 6 I.uX6X4XvXGXJXKXKXKXKXKXKXKXKXKXKXKXKXKXKXKXKXKXFXpXT.V.V.V.k.m.C.m.k.h.h.k.k.k.h.$.) 1.j.[.jXaX,.w h A !.aXGXVXeXT.k.3.;.h.3.3.3.&.=.` Z Z A Z Z B B N N B Z B N N N N B B V k m k                                                                                                                                                                                                                                                                                                                                                                                                                                                                                                                                                                                                                                                                           ",
"                                                                                                                                                                                                                                                                                                                                                                                                                                                                                                                                                                                                                                                                                                                                                                                                                                                                                                                                                                                                                                                                                                                          # # # $ > 4 2 , f X.$X5X:X5XbXDXPXLXGXJXKXKXKXKXKXKXKXKXKXHXaX{.V.B.h.m.R.C.m.h.k.k.n.m.k.3.} ' -.l.].sXvXp.t u ' G.3XDXDXyXU.k.k.3.h.h.;.-.&.%.%.S Z Z N B B B B B Z B B N N N N B B N n n B                                                                                                                                                                                                                                                                                                                                                                                                                                                                                                                                                                                                                                                                         ",
"                                                                                                                                                                                                                                                                                                                                                                                                                                                                                                                                                                                                                                                                                                                                                                                                                                                                                                                                                                                                                                                                                                                            # % O # $ % O O $ > , > > v @.$X%XI.5XSXSXSXGXGXKXKXKXKXKXJXxXW.m.m.n.C.M.h.h.h.m.c.m.n.c.;.*.S #.k.R.tXNXI.d d ) 1.,XZXFXsXW.j.h.f.f.;.-.-.;.;.-.` Z N B B B B B Z B Z B B N N B B B n N n m                                                                                                                                                                                                                                                                                                                                                                                                                                                                                                                                                                                                                                                                       ",
"                                                                                                                                                                                                                                                                                                                                                                                                                                                                                                                                                                                                                                                                                                                                                                                                                                                                                                                                                                                                                                                                                                                              % % $ O % % % % # O % $ # $ $ O O 2 ! o.a.I.s.6XbXvXBXSXSXKXcX~.C.Z.n.k.h.h.n.C.M.n.n.n.N.n.;.` =.l.T.,XxX:XV y Z &.[.MXJXxX&Xm.c.f.:.-.;.h.h.3.-.` N B V ) A B A A B Z ) B B B N N B B N N B B                                                                                                                                                                                                                                                                                                                                                                                                                                                                                                                                                                                                                                                                   ",
"                                                                                                                                                                                                                                                                                                                                                                                                                                                                                                                                                                                                                                                                                                                                                                                                                                                                                                                                                                                                                                                                                                                                % O $ % @ O % % % % $ $ $ $ $ $ # X O X X X p U Y o.9.u.4XuX~.c.m.k.h.k.n.m.C.m.n.m.h.V.n.c.1.%.$.h.m.&XMXtX) q z $.[.jXJXZX1XF.-.*.;.;.h.h.;.-.=.` A A ' ) A A Z B A B B Z N N N B N N N B V V                                                                                                                                                                                                                                                                                                                                                                                                                                                                                                                                                                                                                                                                 ",
"                                                                                                                                                                                                                                                                                                                                                                                                                                                                                                                                                                                                                                                                                                                                                                                                                                                                                                                                                                                                                                                                                                                                      $ # $ % $ $ $ $ $ $ $ $ $ $ # $ X # # O X X X o o < f t N *.h.c.c.m.V.V.n.k.C.R.m.m.m.m.h.$.S h.k./.aXuX} t z ` F.tXDXDXeXG.v.j.;.f.f.f.:.;.-.' ' ) ' A ' A B A B Z Z A Z N B Z B Z B V B V m                                                                                                                                                                                                                                                                                                                                                                                                                                                                                                                                                                                                                                                             ",
"                                                                                                                                                                                                                                                                                                                                                                                                                                                                                                                                                                                                                                                                                                                                                                                                                                                                                                                                                                                                                                                                                                                                            # $ $ $ $ # # $ $ $ $ $ X X # # # $ $ $ # # # o % = y ` c.M.M.m.n.n.n.C.C.V.m.m.n.c.1.#.S #.3.E.aXaX>.y d V >.3XFXFXsX{.F.h.;.;.h.-.;.3.;.&.` A ) A A ' A A A A ' A N B Z B Z B Z V B B m                                                                                                                                                                                                                                                                                                                                                                                                                                                                                                                                                                                                                                                           ",
"                                                                                                                                                                                                                                                                                                                                                                                                                                                                                                                                                                                                                                                                                                                                                                                                                                                                                                                                                                                                                                                                                                                                                $ $ $ # # $ $ $ $ # $ # O # # $ $ $ # # % % % @ % 9 ) w.b.c.h.h.m.V.C.V.C.m.m.c.h.%.` #.-.j.G.eXMX.Xe 4 m 3.,XZXHXjX].h.j.h.-.3.1.3.-.f.h.*.' ) ` A A A Z Z Z A B B B B B B A Z N B M m                                                                                                                                                                                                                                                                                                                                                                                                                                                                                                                                                                                                                                                         ",
"                                                                                                                                                                                                                                                                                                                                                                                                                                                                                                                                                                                                                                                                                                                                                                                                                                                                                                                                                                                                                                                                                                                                                    $ $ $ # # # # # # $ O # # $ $ $ # # # # % % % % % n { ;.h.k.n.V.n.n.C.C.M.c.;.;.;.&.S #.3.m.1XMX$Xa w N 3.oXcXJXvX*Xk.k.3.2.j.;.;.h.k.M.&.) ' ` A Z Z Z Z Z Z B Z ) B Z A B B Z B N B                                                                                                                                                                                                                                                                                                                                                                                                                                                                                                                                                                                                                                                       ",
"                                                                                                                                                                                                                                                                                                                                                                                                                                                                                                                                                                                                                                                                                                                                                                                                                                                                                                                                                                                                                                                                                                                                                        $ # # # # O # # # # # $ $ # # # # % # # # $ # % 9 A M.M.C.m.m.m.m.m.M.c.;.;.1.1.&.` S 3.2.*XmX:XV r k ' K.kXFXAX=XM.F.j.j.h.h.h.;.c.h.&.` ` ' Z A A Z A A B B B A ) Z B A ' N B N B B                                                                                                                                                                                                                                                                                                                                                                                                                                                                                                                                                                                                                                                   ",
"                                                                                                                                                                                                                                                                                                                                                                                                                                                                                                                                                                                                                                                                                                                                                                                                                                                                                                                                                                                                                                                                                                                                                            # # # O # # # # # $ # # # # # # # # # $ $ # % 9 ' F.M.M.m.N.n.m.n.h.;.;.h.c.&.{ A A #.k.+XsXuXX.4 y B e.5XGXZXtX^.F.m.n.h.f.h.h.:.h.%.A A A A A A A A A ) V V V B B A Z Z Z Z N N N                                                                                                                                                                                                                                                                                                                                                                                                                                                                                                                                                                                                                                                 ",
"                                                                                                                                                                                                                                                                                                                                                                                                                                                                                                                                                                                                                                                                                                                                                                                                                                                                                                                                                                                                                                                                                                                                                                  O O O # # $ $ O # # # # # # # $ $ # # % % * z &.v.m.m.n.m.h.h.h.h.c.h.-.&.{ { A ` k.E.aXcXq.< y Z 1.1XDXFXkX^.C.m.c.1.h.f.f.f.%.{ A ' ) A A A A A ) ) B B N V Z B Z ' A N N N V B                                                                                                                                                                                                                                                                                                                                                                                                                                                                                                                                                                                                                                             ",
"                                                                                                                                                                                                                                                                                                                                                                                                                                                                                                                                                                                                                                                                                                                                                                                                                                                                                                                                                                                                                                                                                                                                                                      # O O O O # # # # # # # # # # # # # % @ @ 9 n *.m.M.c.h.n.m.h.;.;.%.-.&.;.*.` *.3.v.eXxXXXt y Z 3.$XMXJXkX[.C.m.h.k.k.n.%.%.&.&.` A Z Z A ' A A ) V B V A B Z ' ' N N N N B B V                                                                                                                                                                                                                                                                                                                                                                                                                                                                                                                                                                                                                                           ",
"                                                                                                                                                                                                                                                                                                                                                                                                                                                                                                                                                                                                                                                                                                                                                                                                                                                                                                                                                                                                                                                                                                                                                                          O $ $ # # $ # # # # # # $ $ # # # % % % < N &.j.c.c.c.m.m.h.=.%.-.;.c.*.{ B A 1.m.0XBX;Xk w k ' /.BXJXNXOXM.m.m.c.h.-.;.-.&.%.` A A ` ' ' ) ' V V V B B A ' A N N N Z Z B B P                                                                                                                                                                                                                                                                                                                                                                                                                                                                                                                                                                                                                                         ",
"                                                                                                                                                                                                                                                                                                                                                                                                                                                                                                                                                                                                                                                                                                                                                                                                                                                                                                                                                                                                                                                                                                                                                                              $ # # # # # # # $ # $ O # # # # # % # % s { 1.2.c.c.m.c.;.-.;.;.h.&.} ) A =.m.R.<XBX4XP w z ` /.jXGXBX<XR.l.M.;.c.h.;.%.&.*.&.` ` ` ' ) ' A V A A A A Z Z B B B A Z B ) I I                                                                                                                                                                                                                                                                                                                                                                                                                                                                                                                                                                                                                                       ",
"                                                                                                                                                                                                                                                                                                                                                                                                                                                                                                                                                                                                                                                                                                                                                                                                                                                                                                                                                                                                                                                                                                                                                                                  # O O O O $ $ $ O O # # # # O % % % % d ) &.2.c.c.h.;.c.M.c.f.-.&.{ } ` #.h.R.=XcX5XI y z ' b.yXHXAX1XU.k.;.c.c.f.-.-.3.;.&.` ' ` ' Z A A A ) ` ' Z Z A B Z ' A Z ) ) V B M                                                                                                                                                                                                                                                                                                                                                                                                                                                                                                                                                                                                                                   ",
"                                                                                                                                                                                                                                                                                                                                                                                                                                                                                                                                                                                                                                                                                                                                                                                                                                                                                                                                                                                                                                                                                                                                                                                        @ @ O $ $ O # # $ $ $ $ O @ % O % < B ' *.;.-.c.n.m.n.f.-.%.;.-.&.{ ` h.c./.sXaXK.u k A v.3XDXDXeXU.n.h.c.f.;.h.j.1.3.*.{ { ` ) ' A A ' ' ` Z Z A B A ) A Z Z Z N V m n                                                                         K m n M A V m                                                                                                                                                                                                                                                                                                                                                                                                                                                                                                                                           ",
"                                                                                                                                                                                                                                                                                                                                                                                                                                                                                                                                                                                                                                                                                                                                                                                                                                                                                                                                                                                                                                                                                                                                                                                            O O O O O # $ # $ $ O O O $ # % * y ' ` ;.c.c.B.f.;.-.%.;.;.2.*.` ` h.m.`.pXNX~.k k Z 3.;XBXDXaX^.V.h.;.c.m.m.h.3.3.&.` A ' Z Z ` ' ' A Z Z Z A ) A Z ' A A Z N N V A B                                                                     V M M V Z B n m M m c                                                                                                                                                                                                                                                                                                                                                                                                                                                                                                                                   ",
"                                                                                                                                                                                                                                                                                                                                                                                                                                                                                                                                                                                                                                                                                                                                                                                                                                                                                                                                                                                                                                                                                                                                                                                                O O # # # # O # # # O $ $ # % % w } { ;.m.m.h.f.f.f.h.3.c.3.&.&.%.=.T.`.tXBX$XB z S &.&XBXFXjX].l.h.h.n.h.h.1.-.-.%.{ ' Z ' ' ' ` Z A Z N A A ) Z A ' Z Z N N A A V V                                                                   I V V ) B B B A V V n c                                                                                                                                                                                                                                                                                                                                                                                                                                                                                                                                 ",
"                                                                                                                                                                                                                                                                                                                                                                                                                                                                                                                                                                                                                                                                                                                                                                                                                                                                                                                                                                                                                                                                                                                                                                                                # # # # O O # # # # # % $ $ # # % w N ,.2.c.h.f.h.c.h.h.3.3.1.3.k.=.k.V.T.<XjX3X{ z N *.E.jXFXmX=Xm.m.n.h.n.h.f.3.-.&.*.' ' } ' A A ' A B A ) ) Z Z A A Z N B B B B A V                                                           < n V A V ) ) V ) | S.L.,.M M m                                                                                                                                         8.8.q.@.+.X. .8.I.p.                                                                                                                                                                                                                                                                                                                                                                  ",
"                                                                                                                                                                                                                                                                                                                                                                                                                                                                                                                                                                                                                                                                                                                                                                                                                                                                                                                                                                                                                                                                                                                                                                                                  # # # O O # # # # # % $ $ # # % % 9 ) 3.;.1.;.f.h.h.h.f.h.m.+XeX1XT.g.R.V.].jXaX| u N -.T.pXFXZX1XW.m.m.m.h.f.h.1.;.c.-.` ' ' ' ' ) A A A A ) ) Z A A Z N B B A A Z A B m                                                     3 w B ) A A A V M B V e.~.J.$Xr.M m                                                                                                                           q.a.p.K.r.r.q.8.8.@.,.| +.+.r.J.p.K.                                                                                                                                                                                                                                                                                                                                                              ",
"                                                                                                                                                                                                                                                                                                                                                                                                                                                                                                                                                                                                                                                                                                                                                                                                                                                                                                                                                                                                                                                                                                                                                                                                    # # O O # # # # # % $ # # # # % @ * ' ` *.1.c.c.c.c.h.V.eXBXNXpXpX3Xc.l.V.].kXkXK.h z ` D.3XAXGXyXQ.U.h.1.1.h.3.c.k.%.{ S Z ' ) A A A A V V B Z A A B B B B A A Z Z N B M                                                 , 3 k V ) ) ) A V M u % @ o 0 .XaXK.M M m                                                                                                                 r.r.r.q.q.r.q.} } | ,.+.q.e.,.,.,.| 0.0.r.a.[                                                                                                                                                                                                                                                                                                                                                           ",
"                                                                                                                                                                                                                                                                                                                                                                                                                                                                                                                                                                                                                                                                                                                                                                                                                                                                                                                                                                                                                                                                                                                                                                                                      # # # # # # # # $ # # # # # % % % * k v.2.m.1.h.h.k.R.MXcX;X(.iXAXaXF.k.M.(.tXmX Xs k N >.&XMXFXjX].j.1.;.-.k.m.h.=.%.&.` A Z Z Z B V V V B A A B B B B B A A A A Z B V V m                                             , r V ) A A A A V B u # # # O % p.uXI.B M R b                                                                                                         s.a.r.q.<.,.r.S.e.e.,.0.,.,.p.e.2.e.e.D.b.2.| X.[  .                                                                                                                                                                                                                                                                                                                                                        ",
"                                                                                                                                                                                                                                                                                                                                                                                                                                                                                                                                                                                                                                                                                                                                                                                                                                                                                                                                                                                                                                                                                                                                                                                                        # # # # # # O O # # # $ X O % % % * y ) 2.w.j.k.C.T.jXGXSXDXDXDXJXaXM.m.U.M.eXBX&Xd u N { ~.MXFXmX[.k.m.3.U.n.:.%.%.;.%.A A A Z B V A A A ' A B B V V V A A A Z Z A A B B m                                         & < n ) ) A A ) A ) ) u % # o X $ # I.cX~.B m v 9.                                                                                            8.[ q.p.r.@.q.r.i.<.e.S.e.2.,.>.*.} ,.S.v.e.e.w.v.v.w.>.} } } [ 9.                                                                                                                                                                                                                                                                                                                                                    ",
"                                                                                                                                                                                                                                                                                                                                                                                                                                                                                                                                                                                                                                                                                                                                                                                                                                                                                                                                                                                                                                                                                                                                                                                                          # # # # # O O # # # # O $ $ $ # % % 0 ) 2.c.M.R.R.tXJXJXKXsX3XSXDXsXg.=.g.U.;XMX:Xn w k ' S.yXFXVX<XC.C.T.h.-.%.-.&.%.-.&.` Z Z A Z A A A B V V ) A A A A ' N N Z B Z V B M                                     % = t B ) ) A ` ` A A ) B < o $ X X X < $XaX>.V M 8.                                                    4 6 a a 6 e a c M             P +.} +.| I | @.0.q.<.q.i.D.2.2.S.e.D.&Xb.} >. XtX;Xe.v.E.^.Q.v.2.,.&.,.| +.r.                                                                                                                                                                                                                                                                                                                                                  ",
"                                                                                                                                                                                                                                                                                                                                                                                                                                                                                                                                                                                                                                                                                                                                                                                                                                                                                                                                                                                                                                                                                                                                                                                                            $ $ # # # # # # O O O $ $ $ # # # % 9 *.*.c.U.V.OXBXvXGXsX*XSXBXmXOX=.#.n.m.].jX3X[ w d Z F.aXFXAXeX}.V.3.#.%.-.%.-.-.;.&.' ' A Z ) A Z Z ) ) ) V V V A A B Z A B A A B V M n                                 = < k B A A A ` ` A A ' ) k % X X # # X a 1X&X) B V ]                                       r p c p 4 5 4 p a c a a a e a c M T R X.I  .q.e.[  .) +.X.,.r.<.q.e.2.D.e.2.H.eX1X,.*.e.1X-Xv.e.b.1XpX*Xv.2.w.1.v.,. .| J.L.                                                                                                                                                                                                                                                                                                                                              ",
"                                                                                                                                                                                                                                                                                                                                                                                                                                                                                                                                                                                                                                                                                                                                                                                                                                                                                                                                                                                                                                                                                                                                                                                                              # # # # # # # $ O O $ $ $ # # # # % 0 B v.m.m.F.tXxXyXAXvXGXmXpXpXc.:.=.g.g.W.sXkXq.w s ` S.yXGXFXsXW.h.h.-.&.-.;.-.;.;.&.` Z Z A Z A A A A ) A A V V B B A A B B B B B A n M                             & < y B B Z A ` ` ` A A ` ) V y > X $ $ $ o +.3X*.D Z N                             4 3 5 4 e e e r c p < 3 4 e d a r r 4 w d d c R @.I } } S.} +.} X.| <.q.<.q.2.E. Xe.e.L.;Xe.*.,.*.| >.e.b.v.E.H.2.e.v.G./.^.,.} } *.e.q.                                                                                                                                                                                                                                                                                                                                            ",
"                                                                                                                                                                                                                                                                                                                                                                                                                                                                                                                                                                                                                                                                                                                                                                                                                                                                                                                                                                                                                                                                                                                                                                                                              # # # # # # # $ O $ $ $ $ # # # O O % < B *.M.v.H.eXsXsXDXKXNXiXsXc.h.#.#.g.k.U.yXmXJ.w y Z c.1XDXJXjX^.m.h.%.-.;.;.;.1.{ *.&.A A Z Z A A V A Z B ) A V A A V B A A B B B B ) M m                         , < k B B Z A ` ` ` A { S A ) V s > o $ $ $ % r.1.D D Z V                     , 2 e e 4 e e 4 < < r d 4 < e a c c a w w e a m d d m X.I ) | v.} } [ +.q.i.<.,.,.e.!.D.2.e.e.L.&X| } 2.&X3X~.e.v.v.oXE.e.w.m.W.F.&.[ | ,.*.| 9.                                                                                                                                                                                                                                                                                                                                          ",
"                                                                                                                                                                                                                                                                                                                                                                                                                                                                                                                                                                                                                                                                                                                                                                                                                                                                                                                                                                                                                                                                                                                                                                                                                $ $ # # $ # # # # # # # # # # # # % @ % N w.e.v.M.<XmXmXJXDXxXzXM.U.U.-.` h.m.C.eXvX.Xd y D $.*XMXJXMX,X1.*.-.3.-.h.;.%.v.*.` D N A A A A A Z ) A Z Z A A B A A A B Z B N V V M m                     , < w N B A A A ` ` ) A ` A A A V m a < # # # o w ) S D D V V               5 5 , 2 e e d d 4 < 2 e p a d a p e 4 e d a a d c m m M I q.V P | >.| [ } } q.q.a.q.,.,.,.v.e.e.p.3XtX| ,.eXBXyXD.e.&XjXMX/.*.>.1.M.G.2.,.w.v.w.>.[  .+.                                                                                                                                                                                                                                                                                                                                      ",
"                                                                                                                                                                                                                                                                                                                                                                                                                                                                                                                                                                                                                                                                                                                                                                                                                                                                                                                                                                                                                                                                                                                                                                                                                  $ # # $ $ # # # # # # # # # # # X # % < y { c.U.T.9XmXZXBXkXeXk.tXeXG.c.` =.n.W.1XNX:Xm t z $.oXcXJXBXoXM.c.;.-.h.-.h.c.*.{ %.A Z ' ) A A Z Z Z Z Z A A A A A V V V N Z Z Z B V M                   < 0 m A B A A A ` ` A A A A A Z A ) N d 0 % % % w A A D A A )         5 < 4 3 , , 2 4 1 a w < 3 4 4 , < p e 2 < 2 5 a p 4 4 5 4 m f d >.I m I O.e.} >.I ,.i.i.@.<.>.S.-Xv.e.-XaX.X,.} -X X2.>.| 1XsX1Xw.} F.tXVX1XF.w.2./.G.,.| ] ] +.                                                                                                                                                                                                                                                                                                                                    ",
"                                                                                                                                                                                                                                                                                                                                                                                                                                                                                                                                                                                                                                                                                                                                                                                                                                                                                                                                                                                                                                                                                                                                                                                                                    $ $ $ $ # # % % # # # % # X # $ $ # % % h g.`.T.`.R.E.=XU.V.OXAXNXmX/.%.%.;.n.C.OXNXtXI 0 k } G.aXFXAXeXY.1.-.:.-.c.1.-.-.3.&.A Z ' A ' Z Z Z A A Z A A A A A V B A A Z Z Z B B B               , w V ) A A S A A ` A A A A A A A A ` Z N N k a a n B B N A A A B   4 5 < e 4 , , < 2 1 4 e e 5 5 2 2 , 2 p 5 , 2 2 5 e 5 5 4 4 4 d r y I [ k f m J.>.[ I I r.+.X.<.q.&X1Xv.e.-XL.e.,.*.&.,.,.2.&.*.3.w.v.>./.VXmXOXv.e.1.M.G.2.| | [ ]  .                                                                                                                                                                                                                                                                                                                                  ",
"                                                                                                                                                                                                                                                                                                                                                                                                                                                                                                                                                                                                                                                                                                                                                                                                                                                                                                                                                                                                                                                                                                                                                                                                                      # $ $ # $ # # # # # # # # # # # % # % * z M.T.R.V.R.V.m.V.rXAXBXZX,XT.c.%.%.g.h.].jXyX| t k N e.tXGXFXaXQ.-.:.c.c.;.-.;.1.;.&.` D A ) ) ) ' ' A B Z A A A Z A V ) Z B N Z Z B N             < r B ) ' A A { ` ` ` A A A A A A A A Z Z Z B B V B m B B A ) B k y 1 p p p p < < , , 2 2 e e 2 4 5 2 , , 2 4 2 , < 5 a a 5 2 5 5 a a w a O.q.k r m ] [ } +.I [ i.r.q.K.;XL.e.e.e.~.D.w.>.P.tX X&.&.L.;X(.D.v.H.,XOXU.v.G.;XtX<Xv.,.,.,.[ +.9.+.                                                                                                                                                                                                                                                                                                                              ",
"                                                                                                                                                                                                                                                                                                                                                                                                                                                                                                                                                                                                                                                                                                                                                                                                                                                                                                                                                                                                                                                                                                                                                                                                                        % # # # # $ # # # # # # # # # # $ % % % k 1.M.R.V.R.Z.B.+X>X+XaXaXpXM.f.%.F g.f.Q.sXcXI.y y A b.;XBXFXkXQ.V.C.h.;.;.;.1.;.-.=.#.D A V ) ) ) A B A A A A N Z A A B B B N B B n           w u A ) ` A A A { A ` ` A A A A A A A A Z A A A V V B V B ) ) m a w < < e 5 e p 4 5 , , 2 4 4 < , , 2 , , 2 4 6 4 5 5 4 e a p p a d d d r a ,.~.M f P [ } [ +.I l p.J.p.K.S.e.e.<.P.yX~.w.(.xXNX&X2.-XMXFXtXv.v.v./.*XoXG.H.kXNX>Xm.,.1.v.+.[ I [ X.                                                                                                                                                                                                                                                                                                                            ",
"                                                                                                                                                                                                                                                                                                                                                                                                                                                                                                                                                                                                                                                                                                                                                                                                                                                                                                                                                                                                                                                                                                                                                                                                                        % % # $ $ $ # # # # O # # # # # $ % % % = h *.m.V.V.n.n.n.m.U.yXFXyXh.h.:.=.F %.M.W.1XxX.Xy y Z } (.cXHXMX=XR.g.;.1.w.;.f.;.;.*.{ z Z ) ) ) A B A A Z Z N Z A B B B B B V V n n     < w n A ) A A A ` ` { A A S A S A A ) A ) Z A A A V M n n k k m a e 4 < < 5 < , e p 5 < > , 2 4 < > > , , , , 5 5 5 4 4 5 , , 4 d f d d e d d M +.| k a m ) [ q.+.) ) P O.i.<.P.~.,.e.,XtXH.D.=XyX,XW.v.1XZXcXOXm.;XvXBXBX&XM.m.~.<XR.;.,.j.m.v.[ ] I I T R                                                                                                                                                                                                                                                                                                                         ",
"                                                                                                                                                                                                                                                                                                                                                                                                                                                                                                                                                                                                                                                                                                                                                                                                                                                                                                                                                                                                                                                                                                                                                                                                                            % # $ # $ # # # O # # # # # $ $ % % * < q U.^.n.n.m.V.n.k.eXzXU.k.>X1Xc.-.%.-.k.3.oXNX XN t z ) D.kXHXAX,Xk.f.;.h.;.;.;.;.*.*.{ A ` ) A B V A A A Z B A Z N N B B B m B u w   < d B ] ) A ) ` A ) ` ` ` A ` ` S S A A A ` Z A ) V u t w % & w d w w , , 4 2 , < 4 , > , % < 5 < , , > < < , < 2 , , 2 2 , , , < a a 1 2 < 4 d f V O.V r d M ) )  .I [ ) k } S.,X~.,.L. XS.v.S.S.H.G.+XE.D.L.&X>XU.3XDXNXtXF.v.U./.@XW.c.b.,X>XOX,.[ } ' V K K                                                                                                                                                                                                                                                                                                                       ",
"                                                                                                                                                                                                                                                                                                                                                                                                                                                                                                                                                                                                                                                                                                                                                                                                                                                                                                                                                                                                                                                                                                                                                                                                                              $ # # $ $ # # # O # # # # $ $ % % % * * y N 1.m.m.m.k.m.T.T.C.rXVXDX&Xc.k.$.` &.h.*XmXyX' t k B H.yXGXDX3XG.f.h.h.;.w.*.%.%.;.-.S A A A A ) A Z A A ' B B B N N n d t = = w k I ) ) ] A ` ) A ) { { { ` ` S D A S A ' A Z A A u = % % % % 3 3 e , , 4 2 , 2 2 , $ , 2 2 4 < , , > , < 2 < < , , , 2 2 , , , 2 a e < < < 5 a e y ,.| a a a I } q.[ I [ l l ~.&Xe.>.,.>.>.e.2.v.(.K.D.v.D.L.!.*X`.G. X>X{.m.*XNXAXjXOXv.1.,XeXc.[ [ ] } [ K K T               R b K                                                                                                                                                                                                                                                                                                 ",
"                                                                                                                                                                                                                                                                                                                                                                                                                                                                                                                                                                                                                                                                                                                                                                                                                                                                                                                                                                                                                                                                                                                                                                                                                                $ $ $ $ # # # # # # # # # $ % % % % % = 9 ) 1.m.m.m.C.n.k.+XpX0XNX&XU.W.-.S S ;.h.G.kXaX,.t k B ,.:XDXFXyX].k.h.c.w.*.;.-.c.;.{ { S A A A A A Z Z B B B N B N u 9 = 3 r n ) ) ' ) ` A A A A ) { { { ` ` A A S ` ` ` A ' ) n < % % # & , 3 r < , e 5 , , 5 2 , $ > 2 2 4 2 , > > , % > < , , , , 2 , , , , < e 1 < < 2 4 e w w ) +.k r y M I [ r.,._ O.) k ' >.>.*.L.~.2.v.1XBXyXe.S.1XmXtXE.F.G. XOX9X`./.ZXBX>Xc.2.1.M.`.n.} | | *.} K K X.X.T         I a 2 , & 5 a 6                                                                                                                                                                                                                                                                                         ",
"                                                                                                                                                                                                                                                                                                                                                                                                                                                                                                                                                                                                                                                                                                                                                                                                                                                                                                                                                                                                                                                                                                                                                                                                                                  $ $ % # # # # # # # # # $ % % % % % % % * y A =.h.m.M.n.B.n.R.mXjXMXjXm.g.#.F %.3.E.yXcXH.y t n &.,XZXJXcX/.c.m.h.;.f.c.c.:.=.*.*.*.%.) A ' A A B B B n n y < 9 9 k I ] ) A ) ) ) A A A ) A ` { ` ' A A S S ` ` ` ' ) B w % # $ , 4 4 4 a 4 e a 2 > , 5 , % $ $ > > , 2 > % , > $ $ , , , , , < 2 , , , 4 e < < < < e e 1 y V ,.I a a n I [ I [ [ q.r.m y ) >.P.aXaX2.oXmXmX;Xe.,XjXjXtXH.J.yXBXaXOX^.v.1XkX@Xk.Q.1XeXiX{.;.*.v.c.v. .M M R R R   p < 2 , , , , , , : , 5 5                                                                                                                                                                                                                                                                                   ",
"                                                                                                                                                                                                                                                                                                                                                                                                                                                                                                                                                                                                                                                                                                                                                                                                                                                                                                                                                                                                                                                                                                                                                                                                                                    $ $ $ $ # $ # # # # # # % % % $ % % % % * 9 t z ` 1.n.n.f.T.mXVXBXVXW.k.f.F S ` 3.F.1XMX$Xr w N %.oXvXJXcX XM.k.h.c.M.c.:.*.;.;.;.*.{ { ` ' ' B B n w w = 9 y N ] ] ` A ) A A A A B A ) A ) ` ` A A A S ` ` ` ` ' ' k * # $ # 5 p e < a a 4 e 2 , 4 2 % $ % $ $ $ , 2 > , , % $ $ , , , > 2 4 4 , , 4 a d 4 < 1 e a e 1 e ) r.} d a m m  .[ V ) I +.} m k B ;XyX X>.!.&X XL.e.~.,X>X=Xv.3XFXDXvXE.v.H.1X0XqXR.].pXpX9XT.;.&.W.].v.} ) M M v K a 4 4 , , , , , , , , , , , , ,                                                                                                                                                                                                                                                                               ",
"                                                                                                                                                                                                                                                                                                                                                                                                                                                                                                                                                                                                                                                                                                                                                                                                                                                                                                                                                                                                                                                                                                                                                                                                                                      $ # $ $ $ # # O # # # $ $ $ $ $ $ # % % * * * 0 B ;.c.h.M.[.^.<XjXC.`.T.g.=.S *.2.c.,XNX:Xd y z ` H.cXJXZX<XV.C.U.M.-.;.;.;.;.-.*.*.1.} ` Z N y w = t u k A ` { ` { ` { ` ) ` A B A ) A A ' A A A A A ` ` { ` ` ) N % % # , 5 4 , < e 1 , e e e e , % $ $ $ $ $ , 2 < , > $ $ $ , > $ , < 4 e e 4 e 4 a d e a a p d r 0 ) I.q.d r a a M ) [ ,.) k ) I ) u M >.,.r.<.>.| v.p.q.v.W.0X/. XaXBXaXG.3XZXDXNX0X{.V.0XzX`.h.;.w.].OX&.' ' ) I M c d a e 3 , , , , , , , , , , , , ,                                                                                                                                                                                                                                                                             ",
"                                                                                                                                                                                                                                                                                                                                                                                                                                                                                                                                                                                                                                                                                                                                                                                                                                                                                                                                                                                                                                                                                                                                                                                                                                          % $ # $ # # # # # $ O $ $ $ $ # # % % % % = = *.-.M.M.m.-.>XpXk.M.tXB.g.:.` ` *.h.+XjX3XV 0 s B D.yXFXAXeX`.T.n.:.*.;.-.%.-.&.;.3.&.{ { &.] M M ) A ) { { { { ` ` { ` ) ) A A ) ) ) ' A Z B Z Z A ' ` ` ` ` ' B * % > 2 5 , , w 1 > > w w 1 4 , : $ $ $ $ $ , 2 < , $ $ $ $ , 2 , 2 , , < p 4 2 > < a a e 4 2 e d d ) ~.q.m r a e d M [  .X.m V ) +.] r w I +.} q.q.+.X.,.D.M.OX<Xv.G.1XMX/.1XDXjXeX`.G.G.=XmXrXc.;XjXmXaXp.[ } ` ' M c c d a e 3 2 , , , , , , , , , : , , 3                                                                                                                                                                                                                                                                         ",
"                                                                                                                                                                                                                                                                                                                                                                                                                                                                                                                                                                                                                                                                                                                                                                                                                                                                                                                                                                                                                                                                                                                                                                                                                                          $ $ $ # # # # # # $ $ $ $ $ $ # # # % % $ $ % y ) h.M.c.-.W.>Xm.[.mX>XC.n.;.S S ;.c.E.jX5XX.4 u D w.3XDXFXaXOXh.-.;.;.;.=.;.;.c.;.%.&.&.*.} { | } { &.&.%.{ { A ` A A A A A A ) A ) A B Z A Z A A ' ` ` ` ) ) V 1 % 5 2 2 , < 4 , > < < , > 2 , > > $ $ $ > > > > > $ # # $ , < < , % > > 2 , > , , < 4 < < < 2 d d V K.e.m a c a d f M  .} ) k [ [ [ m w w m @.3X;XX.,.!.pXoXS.e.H.(.E.jXiXU.1XBXyXF.OXkXGXNXjXE.L.>X>X;XD.} &.c.&.] m v c a a 4 < 2 , , , , , , , > , , , , 3                                                                                                                                                                                                                                                                       ",
"                                                                                                                                                                                                                                                                                                                                                                                                                                                                                                                                                                                                                                                                                                                                                                                                                                                                                                                                                                                                                                                                                                                                                                                                                                              $ # $ # # # # # # # # # # $ # # # # # # # % t ' m.;.;.h.n.{.gXAXVXsXeXf.=.=.%.*.2.Y.pXcXp.t y N ,.;XMXJXxXW.m.c.*.*.;.-.h.c.;.-.-.&.*.&.&.} { ' { &.&.&.` ` { A S A A A ) ) ) ) A B A ) A ) ) ) ' ` ) ` ' ] d < < 2 , > 2 , > > < , > % 2 2 > > $ $ $ > > ; $ % $ $ $ > % > , > % > > 2 , , , , < < < , < , r w w ' q.m f m d d f f m  . .m +.,.) I B k y [ ~.I.q.(.iXsXoX2.K.uXAX,X*X*Xj.v.3XMX/.1XZXcXtXeX/.v.0XiXc.} ` #.Q.;.N n m m d r 4 5 2 2 , , , , , > , % , , , , ,                                                                                                                                                                                                                                                                     ",
"                                                                                                                                                                                                                                                                                                                                                                                                                                                                                                                                                                                                                                                                                                                                                                                                                                                                                                                                                                                                                                                                                                                                                                                                                                                $ # $ $ # # # # # # # % % # # # # % % % % % z ;.1.;.n.k.n.{.sXNXeXOXM.n.;.%.D ` j.U.tXmX~.y y z ' I.vXJXmXOXm.f.;.f.;.n.;.1.;.-.;.;.&.&.#.` ` &.&.{ { ` { { A A ) A A ) ) ) ) ' ) A A ) ' ) ) ] ` ) ` { ] B 1 < 2 , , 2 , > > < > % $ , > > ; $ O $ > > ; $ % $ X $ % $ $ > > % % > 2 , > > , < , , < 2 < r 1 y } e.I d v c c f f y m } } B q.} | } q.+.k y N ) ~.=X0X*X*.tXvXtX=X1.H.;XyX;XBX0X`.1X,XU.v.e.E.iXmX^.| G.m.+XY.Z n c c c a e 4 5 2 , , , , , , , , , , , , $                                                                                                                                                                                                                                                                     ",
"                                                                                                                                                                                                                                                                                                                                                                                                                                                                                                                                                                                                                                                                                                                                                                                                                                                                                                                                                                                                                                                                                                                                                                                                                                                  $ $ $ # # # # # # % % % % # # % @ # # % @ h *.1.w.f.h.h.k.W.pXM.=.>X<X-.=.=.S %.n.V.<XmX%Xm t k ) I.xXJXBX<XV.k.f.h.c.-.;.;.%.-.-.=.-.#.` ` &.&.{ } A { A A A ) A A { ] ) ' ' ) ) A ' } ] ) ) ) A ) ) ] I r < , , 4 , > % , , $ $ : , ; $ $ $ O O ; ; $ $ % % $ $ $ $ $ > % $ % , , > > > , 2 , , , 2 4 e 1 y >.e.[ a a m I m n r a [ <.' | e.| | +.p.} k t s I [ E.=Xc.L. XeX*Xi.kXDXFX3X3X0XR.W.jX1Xe.yXBXAXCX3X+.E.W.+X,X| n m M I d r 4 5 2 2 2 , , > , , , , , , , : :                                                                                                                                                                                                                                                                   ",
"                                                                                                                                                                                                                                                                                                                                                                                                                                                                                                                                                                                                                                                                                                                                                                                                                                                                                                                                                                                                                                                                                                                                                                                                                                                    $ $ # % # # # # O % % % # # $ $ $ $ # % , k } ' *.k.n.k.n.OXC.:.<XmXY.=.3.-.#.#.h.k.oXjX5XM y s ' L.yXFXAX<XT.m.M.1.;.;.-.-.%.%.%.&.` #.-.=.%.&.{ S ` A ` A A A A ] { { A ' ) ) ) ` { } [ I ) ) ) I I I b 6 5 5 4 2 > , , % $ $ > , $ # $ $ $ > : $ ; $ % > : $ $ $ $ > ; $ $ < 2 > % , , < , , , , 3 4 < w ] e.>.a a m I m l a e d I | ' V k I ) I m k m y u d B E./.>.>.tXMX~.xXcX1XoX!.^.].*XkXcXY.kXMXyX,XjXb.M.M.2.| I n B m [ c 7 4 w 4 4 , 2 , < > : : , , , > , , :                                                                                                                                                                                                                                                                 ",
"                                                                                                                                                                                                                                                                                                                                                                                                                                                                                                                                                                                                                                                                                                                                                                                                                                                                                                                                                                                                                                                                                                                                                                                                                                                      # # % % % % % O % % % $ O O $ $ $ O @ % % 1 0 z *.c.n.h.f.f.c.,XDXjX XE.M.l.$.=.1.m.+XMXuX{ y k B &.1XAXFXsX{.M.;.-.;.;.;.%.%.&.{ ` #.=.-.-.%.` { ` ` { S D A { { { A A ) ) ) ` ` { &.} ) I I I I T ..o.W E H 7 2 2 5 < % % $ , > $ # $ $ $ ; ; # O O $ $ $ $ $ O O ; $ O > < 4 < > , 2 4 , % , 3 e 4 2 e [ S.S.e a M ) V m f a s d I ) ] I +.I [ V ) ,.[ m u d B >.e.D.~.BX3XD.$XZX;X/.NXFXDX1XmX[.b.L. XM.e.2.Q.1XS.I M V } 3.N f 7 e u w 4 5 , , < < : : , , , , , , , >                                                                                                                                                                                                                                                               ",
"                                                                                                                                                                                                                                                                                                                                                                                                                                                                                                                                                                                                                                                                                                                                                                                                                                                                                                                                                                                                                                                                                                                                                                                                                                                        $ % # % % % # % $ $ $ O O $ O O O % % % % % * Z 3.h.f.:.f.m.,XDXFXFXsXR.k.h.=.` h.m.W.aXkXJ.u d B } -XBXFXjXW.h.;.&.1.;.%.{ { ` ` =.=.-.-.{ S { ` ` { S A ) { { ` A ) ) A A ` &.} *.} [ [ T T ..X...Q o.o.6.o.G 5 2 2 % % $ & $ $ O $ $ # $ $ $ $ $ $ X X $ $ X O > > $ , , < 4 , 2 , 5 4 , < e e p 4 < d e.H.f p m P ) I I m r r d M ,.r.[ [ <.) ) +.p.K.) k k k _ .Xq.:X3XS.L.BXaX~.BXBXkX&X<XW.Q.tXmXH.E.3XxXVX1X' ] ,.W.OXA k d a m r 4 5 5 < < , , , , , , , , % , , $                                                                                                                                                                                                                                                             ",
"                                                                                                                                                                                                                                                                                                                                                                                                                                                                                                                                                                                                                                                                                                                                                                                                                                                                                                                                                                                                                                                                                                                                                                                                                                                            # % % O # $ $ $ O O O O O O O % # % % % % * h &.;.;.m.c.W.pXaX3XU.m.k.n.m.-.#.f.V.T.yXMX.Xu y k I L.vXJXmX+Xh.;.3.*.&.*.*.{ ` =.#.=.&.` ` { ` A { A A { { { { A ' ' A A ` &.*.| [ [ T U U T T L L E W o.t.Q 7 : , > # % % # O O O # X O $ $ O $ $ X X $ O O $ > , , , % % < 2 , % , 4 4 4 4 < r a 4 l | S.m r B P _ }  .P r a u a I q.I ) } d k l ) J.[ I ,.) l l V } } &X;XyXBXoX,X1X-XF.v.OXkXyXBX,X,XNXcXjXpX| R ,.c.@X2.k k k I d 4 5 5 w < , , , , , , , $ > % , > ,                                                                                                                                                                                                                                                           ",
"                                                                                                                                                                                                                                                                                                                                                                                                                                                                                                                                                                                                                                                                                                                                                                                                                                                                                                                                                                                                                                                                                                                                                                                                                                                              $ % $ # $ $ $ O O O $ O X O # % # % # # % * y ` c.C.h.f.M.c.*.j.<X[.m.n.f.f.=.$.C.C.=XmX&Xn t a m J.lXJXMXoXU.j.&.} &.%.%.&.-.%.-.-.{ { { { S ` A ` { { &.%.` A A A ` &.&.>.| [ I v v v G v G G L L W Q t.~ 2 > , > , , $ # # # O X O # O # $ # # O O O O $ $ > , % % $ , , $ % $ , 4 < , , < e a [ +.v.I w k B } <.+.I c d e a n [ I @.[ k ) ' B V I I e.K.e.I n m B D.E.(.mX,XG.3XNXH.3XAXJXxXNXaXG.W.].^.~.[ I !.Q.%.' n } } m d 4 4 w e 4 , , , , , , , , > > $ > $ ,                                                                                                                                                                                                                                                         ",
"                                                                                                                                                                                                                                                                                                                                                                                                                                                                                                                                                                                                                                                                                                                                                                                                                                                                                                                                                                                                                                                                                                                                                                                                                                                                # $ $ $ $ # O $ $ $ O X O X # # # # # # % = N w.n.f.f.h.;.;.h.].eXT.m.m.l.k.$.#.:.h.@XmX5XV w r k e.kXFXZX3Xj.&.*.&.{ %.;.;.%.-.*.%.} { { { S A { &.%.&.%.{ ' ) ) { *.&.>.| I f d d v v v G Y L L ~ W Q o.G , > > , , # # # # O X X # $ : $ O X O O O O $ O $ > # % % > > % % % , 2 > > , 2 4 e I i.&X[ 1 s m } q.+. .U M a d p m M ) } | *.} >.B [ } I 0.K.] M ,.} N B { S.L.&X:XZX:X=XaX&XoX1X~.e.OXsXS.' } *.<X>XZ B B &.v.f r p a a e 4 2 < , , , , , , $ % $ > > , >                                                                                                                                                                                                                                                       ",
"                                                                                                                                                                                                                                                                                                                                                                                                                                                                                                                                                                                                                                                                                                                                                                                                                                                                                                                                                                                                                                                                                                                                                                                                                                                                  $ # $ $ # # $ $ O X X O # # # # # # # # % h &.c.f.f.h.;.;.c.m.T.U.rXpX+Xm.-.` %.f.n.+XmXaX[ 3 w k ,.5XDXDXtXM.3.&.%.%.-.;.-.-.&.*.&.{ A S A A { %.{ { %.&.{ { { { &.&.>.| m r d d c c c m P P K L E W o.W 7 : $ $ $ $ $ # # O O X O $ $ $ O X O $ $ O $ $ $ % # # $ > > $ % $ , , % > , , 4 2 d i.yXp.1 r m [ <.>.>.O.[ c d a r f m I e.b.' _ O.) [ V V ] ] V ,.L.e.{ A A ) } p.3XaXv.F.3X/.Y.~.:XjXBX1X2.0X9XrXiX} M ] ;.W.V a a a k e 5 5 < < 2 2 , , > > $ % $ > > , $                                                                                                                                                                                                                                                     ",
"                                                                                                                                                                                                                                                                                                                                                                                                                                                                                                                                                                                                                                                                                                                                                                                                                                                                                                                                                                                                                                                                                                                                                                                                                                                                    $ $ # X X # X X X X # # # # # # # # # % 9 { 1.f.g.n.;.h.k.V.V.0XZXpXmX`.-.-.%.S 1.m.W.aXkX0.w w k [ .XZXFXpXQ.;.&.;.-.;.h.-.%.;.&.{ A A A S %.%.%.` %.&.&.} { { } } &.[ r a d f c c c m M M I K L L ! Q H : O # $ $ $ # # O X X O O O # O X O $ $ $ $ O $ $ # # $ > % $ % % , , > > , 2 4 < e ,.mX.X< e f m } ,.,.2.+.I m m r a y m ) } | I B B V [ ] ) V V V *.e.{ A ,.v.&.` ` v.3.P.kXtXoXMXGXMXMXuX2.>X8X9X1X[ m } } P.[ a d d I f 5 5 1 1 2 , , , , > % $ $ > > > > &                                                                                                                                                                                                                                                   ",
"                                                                                                                                                                                                                                                                                                                                                                                                                                                                                                                                                                                                                                                                                                                                                                                                                                                                                                                                                                                                                                                                                                                                                                                                                                                                      $ # # # # X X o o # # # $ $ # $ $ O @ * B *.c.h.h.c.n.V.Z.B.rXaX/.NX<X=.;.1.%.%.-.m.U.aXxXK.a 0 y V .XBXFXaXM.1.1.;.;.;.%.%.&.{ { ` A A { %.%.%.{ S %.*.{ { { { } } B r d d d c n n m m m M P K L W Q W 7 O O $ $ # # O O X O O O O # O O $ # # # O X $ $ $ $ $ % $ % $ % , > > > , 5 5 2 1 [ MX:X< 5 a f I { 1.D.,.[ I m a u u k k ) [ +.I ) d m | q.m u V A ) } { w.~.b.&.' | ] | K.;XL.:X3X,XeX3Xw.U.`.m.r.I B { { V m c m I P m 4 5 4 4 5 2 , , , , % % % > > > $ $ $                                                                                                                                                                                                                                                 ",
"                                                                                                                                                                                                                                                                                                                                                                                                                                                                                                                                                                                                                                                                                                                                                                                                                                                                                                                                                                                                                                                                                                                                                                                                                                                                            # # X X X X # # # # $ # O $ O @ % 0 k A ` 3.c.c.m.k.f.@XjXaXNX^.j.M.1.;.%.S %.c.Q.tXMX;Xa 0 y z ~.BXFXaX(.2.1.;.&.#.%.%.` { { A { %.%.%.%.&.` ` &.&.&.&.{ } ) u r d d d n n n m m m m M P K T W Q L ; O X $ O # # O O # # O X O O O $ O O O X X # $ # # $ > % % $ % > % > > > 5 2 2 < [ cX:X1 4 p d m ) { >.[ ] I M m f a d r d m I m } m V I ,.M n 0.b.0.,.} ) ] ] [ [ +.0.0.0.I )  .) >.2.+.+.,XzXp.R ] >.].D.V m n I ,.k r e 4 p e 4 < 2 , , > $ $ % > > > $ $ $ ,                                                                                                                                                                                                                                               ",
"                                                                                                                                                                                                                                                                                                                                                                                                                                                                                                                                                                                                                                                                                                                                                                                                                                                                                                                                                                                                                                                                                                                                                                                                                                                                              # # O X X # # # X O O O O X O % % % * 9 Z 3.m.c.h.n.V.<XjXeXm.1XjX].3.&.{ A %.m.M.=XNX3Xk 9 y Z P.kXJXcXE.2.1.&.%.%.%.` { ` A ` ;.h.%.S %.&.` ` } } } } { Z w r a a f n n n m M m m m M P K L W W 6 # O $ O O O O # # $ O X X O # O O O O X X # $ # # % , > $ % > , > $ > < 4 5 , 2 _ 5X&X0 2 6 a M P ) V V I [ } ) V k r y y u f I  .V | [ +.V B D.P.D.e.A ) ' A ' *.&.{ *.| ) V ] +.q.0.[  .:XmX.XT oX<X>X,XV M [ >.p.M a a e f e 4 2 2 2 , , , > > > > % % % , , ,                                                                                                                                                                                                                                             ",
"                                                                                                                                                                                                                                                                                                                                                                                                                                                                                                                                                                                                                                                                                                                                                                                                                                                                                                                                                                                                                                                                                                                                                                                                                                                                              # # O O O O # # O O O O O X O $ $ # % % 0 Z 1.c.h.c.n.V.T.n.^.NXjXsX,X;.-.%.S S ;.>.!.jX5XV 0 y k J.cXFXsX!.>.{ &.` %.` { A S #.-.;.%.S &.1.&.{ ' } } &.{ n w e r a f n m m M M M m m m M J G H L G ; # # # O O O # # # O X X O O O O O # # X X $ $ # % > , % > > , , > , 4 4 4 2 2 O.3X-X0 < 5 a m V P m f I } +.) M m a r a a f I M k I ] q.) ) e.>.} | z } ^./.E.h.Z ' 2.*.) ] ] I I 9. .m | r.+. .e.j.h.oX[ m V ) e.I a c c m p 4 5 2 < 2 2 2 > > > % % % > % , &                                                                                                                                                                                                                                             ",
"                                                                                                                                                                                                                                                                                                                                                                                                                                                                                                                                                                                                                                                                                                                                                                                                                                                                                                                                                                                                                                                                                                                                                                                                                                                                              # # # # O O # O O # O O O # # # # $ # # # 9 ) c.M.N.N.n.f.f.>XVXVXmXpXh.f.c.%.A N { 1.D.aXuX .1 w n ,.uXHXkXH.&.&.&.%.` ` A ` %.%.%.S ` &.&.{ *.} } &.&.} k e a a d f f m M P K m m m n m m b G H H 5 # # # # O # O O # O X X O # X O O O # O # $ % % $ % > > > % > < < 2 5 < e 4 4 @. X!.k < 2 p m l l f d n B I ] [ I I d a e f n m M n M [ | w.,.} } } ) { | e.&.` } } 3.L.~.w.N n ) ] ) B N m I T M I ) M M v S.2.m m c d f f a 5 4 4 4 4 2 , , > % % % % > % , : :                                                                                                                                                                                                                                           ",
"                                                                                                                                                                                                                                                                                                                                                                                                                                                                                                                                                                                                                                                                                                                                                                                                                                                                                                                                                                                                                                                                                                                                                                                                                                                                                # # # # O # O O # O O O # X $ $ $ # # # % y &.m.n.n.f.;.k.T.sXmXVX,Xh.g.;.%.{ ] A %.,.D.tXkXr.w w N !.mXJXuXb.*.-.%.{ A S %.%.%.-.%.` { { { ;.;.&.{ { ] t 3 r a c d f m K K J m m m B m m v G H H g ; # # O # # O O # O X X O O X # X O O O # $ $ $ # O $ > $ $ % , < < , , 5 4 4 P ~.(.P > 2 4 a f k d d m B I +.+.[ +.I M f d u u f n ] V ,.,.' } >.| } ,.| | { >.,.} *.| [ A B I *.} | ' B B I c a a m m M M e.P.V c c m  .a e 2 4 4 4 p 2 , , , > % % % % > > , : :                                                                                                                                                                                                                                         ",
"                                                                                                                                                                                                                                                                                                                                                                                                                                                                                                                                                                                                                                                                                                                                                                                                                                                                                                                                                                                                                                                                                                                                                                                                                                                                                  @ % O O O O O X X X X # # # $ $ # # # # = ` m.n.n.;.f.c.f.].tX<Xc.c.h.-.%.-.%.` Z { *.2.3XjXI.d r ) oXDXGX3XM.-.{ { S ` -.;.%.&.{ ` ` ` ` &.3.;.%.{ A w 4 a v v v v Y L L Y J m m B B M m J L L H 5 # $ X $ # O O # # O X O O # # O O # # # O O $ O O $ ; $ $ $ > , > , , , e 4 0 I.uX<.< < 1 r a d a m V M V } ' | S.| | ) I m k m M M n V m I [ [ +.) { | *.} ,.2.>.e.>.} >.| } ' B I I B M R I I I m d d a d ,.m f M ) ,.m a 4 4 4 5 4 2 2 , , , % % > > $ $ $ $ $                                                                                                                                                                                                                                         ",
"                                                                                                                                                                                                                                                                                                                                                                                                                                                                                                                                                                                                                                                                                                                                                                                                                                                                                                                                                                                                                                                                                                                                                                                                                                                                                  $ $ $ $ # # O X X o o O O O O X # # # o * Z h.h.f.;.;.f.;.h.c.M.c.c.h.-.-.-.-.%.` Z D ` 2.1XNXI.d N U.NXKXZX+X-.{ { ` #.-.&.%.` { { A ` ` } { &.*.&.B 3 p b v b G L L E E L K J m m V M M P K L ~ G : X X # # O O O # O O O O O O O O # # # O O $ O O $ ; $ $ $ > > > > , < 2 < r $XDXJ.> < 4 e a f k m m f k m k { b.} +.} [ I V I I I I M M m V ) } ] ) } ,.w.2.*.>.>.' ,.b.,.,.+.[ | } I M I [ [ I d f I [ I d r r k m J.[ d a p d r , 2 2 < , , , > > > % % % $ $ $                                                                                                                                                                                                                                       ",
"                                                                                                                                                                                                                                                                                                                                                                                                                                                                                                                                                                                                                                                                                                                                                                                                                                                                                                                                                                                                                                                                                                                                                                                                                                                                                      # # # # # O o X o O O X # X X # X # % ' ;.1.;.f.;.;.h.h.k.m.m.c.;.-.-.;.;.&.{ ` ` S *.,.:XjXL.A W.MXJXJXtXf.&.) %.=.-.&.` ` &.` A ` ` ) ` { *.&.m < a G K L E E ! ! ! W L Y m m M I P P K ~ E E 7 # O O O # X O # # # O X X X O O O O O O # $ # # $ $ $ $ $ > > > > , , 4 < m $XZXJ.< 4 a a a a f d f f m k m V } I ) r.[ I I I V I [ M I ) [ ) I ) ) } } &.} &.*.` ` >.*.} *.} } w.*.I R ) ) ) I V V ) +.[ m y 0 d a n f f a d K v 4 2 2 4 < 2 , > > > % % % % $ & $                                                                                                                                                                                                                                     ",
"                                                                                                                                                                                                                                                                                                                                                                                                                                                                                                                                                                                                                                                                                                                                                                                                                                                                                                                                                                                                                                                                                                                                                                                                                                                                                          X X O O X X X O O X O X X X X o @ 0 &.A { *.c.c.n.h.m.n.M.h.-.;.;.c.;.%.&.%.%.` A ' >.3XMXOX@XzXyXyXtXk.{ A %.&.&.&.` S S ` ` ` ` ) A A &.*.k 3 b L E ! ! E ! Q Q ! W L L m m M I I I W Q E H 5 # O O $ X X # $ # O X X O O O # O O O # $ # O $ $ $ $ $ > > > > > 2 5 < M :XBXr.e e a a a a a a c c m m V V I M M @.I [ [ I I I I V V ) ' ) [ } } } ) ' ' } ` ` e.b.*.&.} A ,.D.&.] [ } &.&.' ) ) ' [ ) B V d f I m r r e d f d e 4 1 4 4 2 , > > > % % % % % $ &                                                                                                                                                                                                                                     ",
"                                                                                                                                                                                                                                                                                                                                                                                                                                                                                                                                                                                                                                                                                                                                                                                                                                                                                                                                                                                                                                                                                                                                                                                                                                                                                              X # # # O X X X O # O o X # % % * = y N *.m.m.f.n.m.h.;.%.;.;.h.-.*.&.&.%.%.` Z Z 2.yXmX@X^.e.} Q.h.S ` %.&.%.%.` S A S ` A Z A ' ` ` ' a 4 G E E ! ! ! ! ^ ^ Q ! E L L J M M I I W Q ^ Q G ; # $ $ O X $ $ # O X O O # O # # O O X # # # $ O $ $ $ > ; > > > 2 < < m .XvXi.e e e d c c d d c c m I I M M M M I I } } P I ) } ) V [ } } +.>.| *.*.&.&.*.3.>.b.;.3.1.*.` v.v.` ' } >.>.&.` ' ' { ) V V I ) [ [ I m w r d e e 4 4 p 4 a < < , , , > > > > > % % $                                                                                                                                                                                                                                   ",
"                                                                                                                                                                                                                                                                                                                                                                                                                                                                                                                                                                                                                                                                                                                                                                                                                                                                                                                                                                                                                                                                                                                                                                                                                                                                                              # # # # # X X # # # X X X o O % % % % = h } c.k.M.m.f.;.;.c.c.;.-.-.;.;.-.&.` ` Z N v.sXk.z y t #.-.` ` -.-.&.%.` S S ` ` { A A A A ' ) e 6 H ~ E ! ! ! / ^ / ! E ! E L L P M M T W Q ^ ^ E 6 ; $ $ $ X $ $ # O O O O # # X X O O X # # # $ O O $ > , > % > , 4 < % a .XMXJ.e r e f M m a c m m n ) ) M I M m m I +.[ V I [ [ ) [ | +.,.>.,.*.*.&.&.} >.v.F.G.-.G.M.c.3.^.M.` =.v.2.*.v.G.v.} } ' ) } ,.+.+.[ I m m I m a e 4 e e e p 2 < < , , , > > > > % % % $                                                                                                                                                                                                                                 ",
"                                                                                                                                                                                                                                                                                                                                                                                                                                                                                                                                                                                                                                                                                                                                                                                                                                                                                                                                                                                                                                                                                                                                                                                                                                                                                                X # # # X X X # O X X X # # # # # # % * z &.h.m.h.;.;.;.c.h.%.%.;.;.;.;.-.%.%.{ ` Z M.Z q 9 t D #.` =.-.-.&.=.{ ` ` { ` ` ` A A ' ' I 4 g ~ E ! ! ! ! / ^ ^ Q ! Q ! W T I M I I W o.Q Q Q H 2 ; $ $ O $ # $ O O O O # # # O X X O $ X O $ ; $ ; : , , % < < 4 5 , 1 I.MXH.y r a k M M f I I M n ) ) I [ I M M I [ V V P ' I I | ,.e.,.>.,.} { &.1.&.c.`.<X{.R.OXW.h.&.U.*.1.^.^.D.w.P.Q.2.] | } &.,.| ] | [ M m M I n c f e < 4 e < 2 4 < < 4 2 , , , & % % % $ $ , , & & , ,                                                                                                                                                                                                                   ",
"                                                                                                                                                                                                                                                                                                                                                                                                                                                                                                                                                                                                                                                                                                                                                                                                                                                                                                                                                                                                                                                                                                                                                                                                                                                                                                  X X X # # X X # X X X # # # # # # % % 9 z ;.h.h.;.;.;.c.;.%.-.h.;.;.-.-.-.;.;.*.` A N h u k S ` =.-.-.-.&.%.%.{ ` ` ` { &.{ A ' ' P 6 G E ! ! ! / ! / ^ ^ / / ^ Q ! W ..I m r v L Q Q Q o.G > O $ O X $ O O O O O # # O # X X $ $ O O $ > ; > $ $ , , < < 2 4 4 < +.pXH.y s k k k k m ) ) V N ] [ I [ V V V I V m I ) [ [ [ } | ,.| ' | ] >.P.v.m.>X@X>XR.l.R.k.k.3.v.3.G.+XQ.*.' { &.Z A ] A ' } A V V ) V n m I V M I m r a a 4 4 4 4 5 4 < , , , , % % % % & & : $ $ $ % & ,                                                                                                                                                                                                               ",
"                                                                                                                                                                                                                                                                                                                                                                                                                                                                                                                                                                                                                                                                                                                                                                                                                                                                                                                                                                                                                                                                                                                                                                                                                                                                                                  $ # # O O X # # X X O # # # $ $ $ # # % t %.-.;.c.;.;.-.%.-.c.;.-.;.-.-.;.;.;.&.{ { { { A { { ` -.-.-.&.%.` %.` ` ` { *.*.&.` A ) m 6 G ! ! / / / ! / ^ ^ ^ ^ ^ Q ! W X.[ _ P e v W ! Q 5.Q g O # $ O # X O O X O X O O O O X O $ $ $ O ; > $ $ $ , < < , , 2 2 M +.(.v.y r a d s d V I I I B ) ) I ) V V V V M V I I [ ) [ [ ) [ } ' | | e.1.&.G.U.3.h.=.$.C.`.>X>XqX0X>XU.3.#.-.2.2.w.,.w.e.w.,.{ ) ) ) m n ] X.I V V M m c d a a e 4 4 4 < < , , , % > % % > > $ $ $ $ % = % $ &                                                                                                                                                                                                           ",
"                                                                                                                                                                                                                                                                                                                                                                                                                                                                                                                                                                                                                                                                                                                                                                                                                                                                                                                                                                                                                                                                                                                                                                                                                                                                                                  # $ # O O O X # X X O O O # $ O X $ # % 9 A ;.*.1.;.;.%.%.-.c.;.-.%.-.h.;.-.-.&.-.;.*.*.%.&.{ { &.-.-.&.` ` { ` ` &.&.&.&.%.&.{ ' m 6 H E ! / / ! ! ^ 5.^ 5.t.^ / Q Q o.a.M m d e K W o.Q o.E 6 # # ; O O # # O O X X O O O # O O $ $ X $ > $ $ $ > , = = , , 4 M } ;X~.y s d d d d m V N ) V V I V I B I m k m M V P [ ) ' I B ) ) [ } } ) ` *.c.-.-.%.-.].9X@X@X@X@X{.W.&.>.m.W.W.*.w.1.&.1.H.P.v.e.e.0.) I } [ M V m m M c d a e e e e < 2 < < 2 , , , > % > > % % % % % % % , $ &                                                                                                                                                                                                         ",
"                                                                                                                                                                                                                                                                                                                                                                                                                                                                                                                                                                                                                                                                                                                                                                                                                                                                                                                                                                                                                                                                                                                                                                                                                                                                                                  # $ X # # # O O o O # O O O O # # $ $ # % N *.1.3.w.;.-.-.;.h.;.;.%.;.;.;.;.;.;.-.-.c.c.-.%.` %.&.3.3.{ ` ` ` { ` { &.` &.&.&.&.&.P p L Q / ! Q Q ! Q ^ t.t.y.t./ Q W o.U l l a e f U Q o.o.Q L 2 O O O $ # # # # X X X # # # O O $ $ O O $ $ $ $ > , % , , 2 < M } yX;X0 w a m m k d k N ) I V ) I I I ) m f m M M m I V I m V ) ) ) B ] ' &.j.-.W.].m.>XrX{.U.k.G.c.3.-.' b.v.j.h.c.M.h.3.3.} *.{ } } I ' +.+.) m m k n m f a a d d d d e 4 , < < 2 2 , , , > > % % % % % % $ % $ $ : $                                                                                                                                                                                                     ",
"                                                                                                                                                                                                                                                                                                                                                                                                                                                                                                                                                                                                                                                                                                                                                                                                                                                                                                                                                                                                                                                                                                                                                                                                                                                                                                          O # # X X O # # O O O O $ $ X # # k w.1.1.*.&.%.;.c.;.%.-.&.;.;.-.-.%.;.;.f.m.m.f.%.%.*.&.-.*.{ ` ` ` { { %.&.S ` #.%.` } P a E ! ! ! Q Q Q Q ^ y.t.y.( ( Q Q o.T f m f u u f W o.Q Q ! H : O $ O # # # # X X O # # # O O $ $ $ $ $ O $ $ > > % , , 2 < M } cX:Xe r a m m k d d m ) [ I I I I I I m f M M M m m m V m I I I I ' e.2.v.M.U.>XOXm.<Xn.g.M.3.M.&.&.` 2.E.m.j.W.].OX`.U.v.} *.' ) ) B { | ] ) V M k d u a a d c a d a e p 4 < < , 2 , , , > > $ $ % % $ % % % > : , > : ,                                                                                                                                                                                                 ",
"                                                                                                                                                                                                                                                                                                                                                                                                                                                                                                                                                                                                                                                                                                                                                                                                                                                                                                                                                                                                                                                                                                                                                                                                                                                                                                            O X X X O # # # O O O X X X # # 9 ) B k A { *.h.f.-.&.-.-.-.;.;.-.%.;.-.n.f.k.:.#.&.&.#.=.#.%.` ` { &.*.%.` ` %.3.j.3.} P g E ! ! ! Q ! ! Q t.y.t.y.( ( t.t.Q U d k f u t d L W Q ! E E G : O # # # # # X X # # # # # O O $ X $ $ X $ $ , % % , , , 4 r ) cX;Xe p a c c m M M P I I I I M M M M B m m m V M m m m m V V I ' ,.S.&.1.M.].^.*.3.G.$.k.W.^.M.-.c.>.Y.U.&.M.].@X@X`.j.&.} &.` { } } *.| { ' B V I V M m d d a d d a a a 4 < 4 5 2 2 , , > > > > > > > : > > > : > > > $ :                                                                                                                                                                                               ",
"                                                                                                                                                                                                                                                                                                                                                                                                                                                                                                                                                                                                                                                                                                                                                                                                                                                                                                                                                                                                                                                                                                                                                                                                                                                                                                              O X O O O O O # O O X X X X # # % % % 0 B *.c.f.f.-.;.;.;.1.w.&.1.-.;.h.;.-.%.#.-.-.=.=.=.&.` ` ' { &.#.%.-.1.3.j.-.{ m g E Q Q Q ! ! E Q t.y.y.y.y.y.y.y.Q G d n u y d d a K W W ! E E d.; ; # $ $ $ X $ $ # O O O O O O X $ $ O $ $ > % % > , , 4 1 m cX5Xr e r c m m I I V V I V I M V M V V m m k m M m V m I V ' } >.L.e.` j.].`.c.&.c.j.k.{.>XU.3.k.M.m.].m.M.W.U.M.m.-.=.c.v.c.j.G.M.1.1.*.&.e.>.| ) M m M I M c a d a a r r e r a 4 < , , > > % % > $ % % % > % % % % % $ $ $                                                                                                                                                                                             ",
"                                                                                                                                                                                                                                                                                                                                                                                                                                                                                                                                                                                                                                                                                                                                                                                                                                                                                                                                                                                                                                                                                                                                                                                                                                                                                                                X O X O O # # O O X X X # # # $ $ $ % 1 ) *.-.;.;.;.-.;.;.*.;.;.;.f.=.;.%.%.%.;.3.3.=.*.%.` ' { &.=.3.h.3.1.;.%.` ' m g E ! Q ! E E E Q t.y.y.y.y.y.y.y.t.L a u u u u u y a m ~ ! ! ! E d.; X $ $ $ # $ $ O # # O O O O O $ $ $ $ > < , > > , < 1 f m kXyXs e a d m m l l m P M M M n m V V I V V k m P I V V ) I } &.c.H.*.*.].`.n.h.U.OXW.].@XT.&.3.T.W.{.'.`.0X<XW.W.U.{.[.Q.M.R.[.+XU.c.m.b.{ >.b.w.[ V I M m V I m M m c d f d a r e 4 < < , > > , % > $ % % % % % $ $ $ $ $ $ $                                                                                                                                                                                           ",
"                                                                                                                                                                                                                                                                                                                                                                                                                                                                                                                                                                                                                                                                                                                                                                                                                                                                                                                                                                                                                                                                                                                                                                                                                                                                                                                X $ # O O X # O X X X X # # O $ $ $ # % w A ;.;.;.-.-.;.-.*.;.&.;.-.%.-.%.%.%.-.-.*.{ &.&.` ` { *.-.h.-.-.1.3.&.{ } f g ~ ! Q ! E E ! Q ( t.( y.y.y.y.y.t.H a u y y r u y t e L E ! Q ! E g : O $ # X $ O X # O O O # # # ; $ $ $ > < < > > < 4 1 I I uX5Xy e a d k m m m m I V m V m m I I B I I M I ) ) I [ [ ) [ 3.m.M.2.v.[.m.V.T.@X].Q.@X`.m.` T.>XrXwX>X`.`.@Xk.R.R.`.0X`.T.>X@X].W.k.c.Q.3.>.&.} { | +.) M M M c f f f a a d a a e e < < < , , , % % $ % % % $ $ $ $ % % $ $ : :                                                                                                                                                                                         ",
"                                                                                                                                                                                                                                                                                                                                                                                                                                                                                                                                                                                                                                                                                                                                                                                                                                                                                                                                                                                                                                                                                                                                                                                                                                                                                                                $ # # O X X O X X X X X O O O X $ # # % * N ;.;.f.f.h.;.1.1.;.-.;.=.=.-.%.&.-.-.&.&.&.} %.` ` &.*.;.3.=.%.&.1.-.` ' f g ~ Q ! E E E ! Q ^ ^ ^ y.y.y.y.y.y.L d d u u y y y y w v R o.! Q E E G 2 O O # $ $ X O O O # # # # $ $ $ ; % > 2 < 2 4 e 4 M P 3X5Xe w a m m V m m M M M m M m V I I ) ) I I ) ) I ) [ ) [ ,.Y.{.@XW.H.^.k.'.@X8X`.R.{.{.m.c.9X9XfX}.T.R.-.T.R.'.'.T.>X@XR.{.'.C.].M.M.M.m.2.w.} ' >.} I I _ ) m m m m f c d a r a a e 4 4 2 , , , % $ $ $ $ $ $ $ $ % % $ , $ $ 2                                                                                                                                                                                       ",
"                                                                                                                                                                                                                                                                                                                                                                                                                                                                                                                                                                                                                                                                                                                                                                                                                                                                                                                                                                                                                                                                                                                                                                                                                                                                                                                X $ X $ # # # X X X X # X O O $ $ $ # % % y *.-.;.-.;.;.3.j.;.;.1.;.=.-.%.&.;.-.&.%.{ { %.%.%.*.&.c.h.%.&.*.-.-.;.>.l g E ! E E E E E ! ^ ^ ^ y.y.y.y.y.y.T m d u u u y y t y l d W 9.! E E W G 2 ; O O O O $ # O O # # # # $ : ; $ % < 1 4 < < < a s ~.;Xy w f m m V N B V m M m m M I I m ) I m M I I ) ) } [ } 0.].8X}.m.j.U.R.9X8XwX}.R.{.{.m.eXzXhXqX}.@X{.j.=X>X}.`.C.V.}.{.{.{.C.M.M.Q.m.c.v.F.&.} } ' } | } ] M V M m m m d a d d d d a e 4 < , > > $ $ % % % % % % % % % $ % $ $ 5                                                                                                                                                                                     ",
"                                                                                                                                                                                                                                                                                                                                                                                                                                                                                                                                                                                                                                                                                                                                                                                                                                                                                                                                                                                                                                                                                                                                                                                                                                                                                                                    $ $ $ $ X X X X X O X X X O o # O o % 9 ) *.;.-.h.h.j.j.1.1.;.;.-.%.;.&.;.;.-.%.*.%.%.-.;.;.;.c.3.-.&.2.v.1.3.>.f g ~ E E E E E E ! ^ y.5.y.y.y.y.y.t.W m k y u u y t t y w w a T ! Q ! Q Q L 6 ; # O $ $ # $ $ $ $ O O $ ; $ $ % > < , > , < r s e.L.k r f a n m V V V m M m M V V V I ) I m I [ [ I I } | | F.<X>Xk.g.'.8X9XrX'.wX8X8XqXV.`.zXgXhXhX#X`.C.T.0X9X'.T.'.C.'.@X{.W.M.c.m.j.j.v.v.2.} ) ' ) | +.+.[ I I V M m c d d d d a d a a e 4 < > > > % % % % % % % % % $ $ % $ $ $ 5                                                                                                                                                                                   ",
"                                                                                                                                                                                                                                                                                                                                                                                                                      [ _ M m c m V I                                                                                                                                                                                                                                                                                                                                                                                                                                                                                                                                                                                                                                                                                                                                                                                                                                                                                 $ $ $ X X X X O # X o X O # # X O o w ) ,.;.;.3.-.;.3.1.;.;.-.%.%.;.1.h.f.=.=.-.*.%.%.;.=.;.h.=.&.&.v.c.;.&.&.f g ~ ~ ~ E E Q ! ! ^ y.y.y.y.y.y.t.t.W f u u u u w w y y y a r p K ! 9.t.Q Q E 6 ; O # $ # $ $ $ $ O O $ O $ # % > < > > , < < a q. Xm r d d l d m m n m M m M m M V ) ) ) M I ] [ I ) } } $.T.0X].=.`.fXgXfX9XT.8X8XfXqX'.0XgXhX8XhX@XT.'.9XwX}.}.'.'.'.`.}.W.U.m.v.G.c.c.v.*.' { ] ) I I ) [ ) I V V M M m f c d a d d d d a 4 4 2 , , > % % % % % % % % $ $ # $ $ $ & &                                                                                                                                                                                 ",
"                                                                                                                                                                                                                                                                                                                                      L.L.J.I.!.J.D.!.L.!.H.L.H.S.S.D.,.J.~.                        ] M m m M I } P m B P I [ I V V [ M a d M ] I V m I I K P M I                                                                                                                                                                                                                                                                                                                                                                                                                                                                                                                                                                                                                                                                                                                                                                                                                                                       # # $ o $ O # # X X X O O $ X O o * I | &.3.*.&.&.;.-.-.;.-.%.%.;.1.h.h.f.f.f.f.;.;.;.;.h.c.=.%.1.v.3.1.*.&.l a ~ ~ E ! E E Q / ^ y.y.y.y.y.^ t.t.Q a d t u y t t y u y y y e e v Q Q ! Q ^ ! 6 ; $ $ # $ $ $ $ # # $ O # $ # , , > , , < 1 w q.tXl 4 a c c f m l m m V V k m V I V V I M I I I M | } } =.'.@XH.=.8XzXfXhX'.R.}.qXfXwXhXzXfXfX#X}.9X9XfXgXrX@XqXwX'.`.@X9XW.H.H.2.>.*.*.>.} ) | | ] I I I I I P I I I M m c c c d d c f d a e e 4 < , > % % % % $ $ $ $ % $ $ % $ % & $ ,                                                                                                                                                                               ",
"                                                                                                                                                                                                                                                                                                                                  J.J.K.H.D.P.P.D.H.!.H.E.H.L.H.H.D.e.<.<.2.| ,.} } | X.I M M P I [ [ I I I I [  .[ ' ) [ [ ..O.[ ' [ I c d f V ) ) I M M  .[ I I +.] I [                                                                                                                                                                                                                                                                                                                                                                                                                                                                                                                                                                                                                                                                                                                                                                                                                                                   $ $ o X # # X X O O O X X # O @ * * y N } *.*.;.-.;.;.&.&.-.;.;.h.h.f.f.=.f.c.f.:.;.h.-.%.&.v.v.&.;.&.1.P p H ~ Q Q Q Q Q ! ^ y.y.y.y.^ ^ ^ t.! a u u u u u r t u u y y w w e G W ! E Q Q E 2 $ $ # O O # # # O O O # % % , , % , , < f l q.cX[ 4 p d d f m f m m m m k M m I m N M I I V ) V } ' v.F.'.`.M.M.rXfXfXwX'.>X9XfXfXfXzXgXfXwX}.8XzXCXgXhXqX@X0X>X].OX{.U.c.2.2.,.,.2.*.*.} } } ] I I ) M M V ) ] ) I I I c m m f a d d a a a p 4 < , > > % $ $ $ $ $ $ % % % % % % % % , 2                                                                                                                                                                             ",
"                                                                                                                                                                                                                                                                                                                              K.a.q.>.2.S.H.H.H.H.L.!.H./.!.D.D.S.K.2.>.>.S.} } [ [ I I I I [ ) I V I I ....I I _ } O.2.i.<.+.<._ P V V P f f V ) O.[ I _ } P V ) [ [ ) V V B ) } ,.                                                                                                                                                                                                                                                                                                                                                                                                                                                                                                                                                                                                                                                                                                                                                                                                                                          X o O O # O O O O O X X X O % % % % * k } w.1.&.&.-.-.*.1.;.;.:.:.f.h.f.h.n.c.:.g.:.=.=.&.1.*.&.;.;.1.V g H E ! W ! ! ! / ^ y.y.y.y.^ ^ / 5.Q c d u u d u r w w y u u y w w 4 g W Q Q t.t.H : $ # O O O O O X O O O % % , > % > , < f s >.vXT 4 a a d c c f m m f m m M m V V V V V V I } I >.&.2.U.`.R.U.`.qXfXwX'.}.fXgXCXgXgXgXfXfX8X}.iXAXCXgXfX8X`.Y.M.G.U.j.3.v.,.*.e.>.,.>.>.*.| ] I M I  .I I V I B M m M M m M n f d d d a a a p 4 4 4 < , % $ $ $ $ $ % % % $ $ % % % > % &                                                                                                                                                                             ",
"                                                                                                                                                                                                                                                                                                                        p.K.K.r.+.O.>.S.D.D.D.H.L.H.L.H.(.L.H.S.,.,.| } } >.I | } V V I M M [ I ) _ [ O.O.O.[ ..} } } 2.i.i.@.i.K.} I M M I I I } O.[ _ _ [ } [ ' ) } | } [ ' ) >.} ] ,.X. .                                                                                                                                                                                                                                                                                                                                                                                                                                                                                                                                                                                                                                                                                                                                                                                                                                    $ # O # O O # O X o X O # % # % % @ < B ,.*.&.&.%.#.;.&.%.&.-.f.k.R.m.c.M.k.h.k.f.%.%.*.3.*.1.;.;.*.V p H E W W ! ! ! / ^ y.y.y.t.^ ( ^ 5.o.v u y u u u u w w y u k u y y t e g W o.Q o.Q g # # O O O O O $ $ $ O O % > % > > , , p e O.vXX.4 a d d c f f m k k V M M m m I I I V ) [ [ ' &.2.3.U.V.T.T.{.qXhX#X#XgXzXCXVXgXgXfXhXfXhXqXgXVXgXCXgX8XT.m.m.m.1.3.1.2.*.| ,.,.,.| } { ] ] I ) [ [ I I I V V M V m m B V m M m m c d d a e e p p 2 , , , % % % $ $ % % % $ % % % > % $ :                                                                                                                                                                           ",
"                                                                                                                                                                                                                                                                                                                      r.J.p.q.>.+.>.D.K.H.J.L.!.H.H.L.v.2.2.S.+.) [ S.D.} )  .} [ ) ) [ } } } +.<.q.i.<.+.p.q.<.<.>.} !.dXcX:X).~.H.I m m I I } | >.+.} [ [ >.e.,.>.*.&.,.>.2.2.,.O.I +.| I )                                                                                                                                                                                                                                                                                                                                                                                                                                                                                                                                                                                                                                                                                                                                                                                                                                     $ # O O O # O X X X O O O % # # # # 9 B { 1.;.&.%.%.&.&.&.j.U.>XsXjXeX].U.T.V.k.;.&.;.;.*.>.;.;.&.I p G E W Q ! ! Q Q ^ 5.y.y.^ / / / 5.o.b d u n u d d u y t u k u y t w y w a T Q Q o.H : O # # O O O $ $ ; $ $ > < > > > , < r 0 } MXI.e c c d f l f n n m m m m M m I I B ) } ' I >.>.G.3.`.{.`.R.@XhXwXwXfXCXgXCXgXfXgXfXqXfXCXgXzXCXfXqX@X{.C.k.n.c.&.>.,.,.*.&.,.>.>.} | *.| ] I ] [ ) ) [ I I M V V m V B n m m m c d c c a e e e 4 2 2 < , > > % % % % $ $ $ $ $ $ $ $ % % &                                                                                                                                                                         ",
"                                                                                                                                                                                                                                                                                                                    r.J.e.,.>.>.,.q.J.J.D.D.H.!.H.D.S.e.2.e.e.} ) +.~.e.|  . .I [ X.,.>.>.>.,.O.<.<.>.<.<.<.I.i.<.,.>.,XDXKXDXtX~.(.>.M I I m B ' e.!.q.,.O.O.v.E.E.Q.M.j.3.>.2.2.2.} I I M ) } e.                                                                                                                                                                                                                                                                                                                                                                                                                                                                                                                                                                                                                                                                                                                                                                                                                                  $ O X O # O X X X X X X # X $ # # # w A *.&.&.-.-.%.%.{ *.v.H.3XZXDXNXtX@XV.k.;.*.3.*.*.*.;.;.*._ p G E W Q ! ! Q / ^ y.y.^ ^ ( ^ ( t.t.v r y u y y y y y y t u u y y y i y r a L W W L , $ $ $ $ $ $ O $ > ; % > , < , , < e r < _ vXI.4 a c d f k k k m n d m m V V I P N ) [ B ' e.} F.3.{.`.W.R.9XzXhXrXCXgXgXCXfXfXgXgXwXhXgXqXgXfX>XR.W.G.m.j.c.w.{ 0.,.*.>.&.,.>.| } } *.| ) ) [ ) [ [ ) ) [ ) I I V V M B m n f c m m m d d a p p 4 4 2 , , , > % $ $ $ $ $ $ $ $ $ $ $ % ,                                                                                                                                                                         ",
"                                                                                                                                                                                                                                                                                                                @.r.r.+.O.O.O.+.i.!.K.J.K.!.E.L.,.>.D.L.v.,.} I | } >.>.} I M I ) [ | e.H.!./.L.2.2.(.-X!.2.i.i.+.>.,.,XDXKXKXJX5X2.} }  .I n B >.1.(.~.H.H.G.1.v.Y.{.R.U.>X,X*XE.1.e.} I ) I I ] ,.                                                                                                                                                                                                                                                                                                                                                                                                                                                                                                                                                                                                                                                                                                                                                                                                                                  X X O # # X X X $ O O X O $ $ $ # = B &.*.;.;.;.&.` B y 9 , y O.~.uXAXNX=XR.l.3.3.-.*.*.*.&.2.>.4 G L Q Q Q ! Q / ^ y.y.^ ( ( t.t.^ t.L r t t u u y y y t r u y y y t y y y w a L T T 4 $ $ $ $ $ $ O O > > > % % < 4 4 4 1 r a s 3X;X4 a d d f d k k d f f k d m M m V B I [ V } v.&.v.k.W.M.R.@XwX8X'.wXgXhXgXCXgXgXCXfX>X}.wX}.qX@XU.v.D.v.F.m.v.w.&.b.e.>.2.&.,.&.} } } } { ) ) ) V I ) [ [ [ ) ) ) M V B V B f a a f f c c f f d a p e 4 2 < , , % % $ $ $ $ $ $ $ % $ $ % & 4                                                                                                                                                                       ",
"                                                                                                                                                                                                                                                                                                              9.8.X.[ _ } >.<.e.D./.K.J.!.(.L.v.0.0.r.r.0.} ) ,.S.' P _ [ _ ) [ +.,.>.D.^.[.*X*XS.Y.2X2X*X(.2.O...[ } H.BXKXKXKX:X!.Y.O.[ I c V F.T.F.*X*X=XoXj.Y.W.Y.F.[.mXmXpX0X[.2.0.| b.I I m [ 0.                                                                                                                                                                                                                                                                                                                                                                                                                                                                                                                                                                                                                                                                                                                                                                                                                                  X X # X X X O O X X O O # $ X o % k } 1.1.3.-.-.` y % O O O @ @ y K.cXVX0XR.h.f.3.;.*.&.-.v.>.e g L W W E ! Q / ^ ( y.( ( ( t.o.t.9.T K n y u u u u y t t t y y h h z h y y y r v L g $ # $ $ $ $ $ O $ $ $ $ % > 4 4 < > p d m ;X Xe d f f f d k k n d f f f m m c M I I [ V ] ,.*.j.M.M.h.T.qX8X}.}.rXfXhXqXgXgXgXgXwX'.R.>X`.U.F.v.e.2.b.F.F.v.e.w.b.D.v.2.>.>.| } } } [ [ ) I I V V V V I ) ) [ ) V I M M m m k k k f f f a f d a d p e w 4 , , , & % % % # $ $ % % % > > $ , 7                                                                                                                                                                     ",
"                                                                                                                                                                                                                                                                                                            ..@. .[  .O.>.q.D.S.S.D.D.J.i.2.S.v.H.D.P.,.} ) B >.| ' ' } O.>.| } i.2.2.^.<X1X<X*XF.*X0X<X=X*XD.+.X.[ } &.1XBXJXHX;XtXiX2.P P c M !.0XY.Y.[.,X^.H.dXmXsX1XH.tXDXIXCXiXU.w.e.e.) [ m I } 2.                                                                                                                                                                                                                                                                                                                                                                                                                                                                                                                                                                                                                                                                                                                                                                                                                                  $ X X X X # O # O O O $ X X X % u { *.2.3.-.*.A e # X X O O % O O K 6XBXeXR.l.h.;.*.;.-.c.&.w p G L W ! ! ! / ^ y.y.y.( ( ^ Q t.o.W c m u y t u y y t t t y u N N B B N n u t r f g % $ $ O O O $ O $ $ $ $ $ % < , > , a f M ~.L.4 a d f c f k f f a c m c c c M I I ) ) ) } } 1.3.W.W.M.{.8X}.9X>XfXqXqXfXzXzXgXwX}.k.].+XM.M.e.v.w.2.F.v.v.v.P.v.e.H.w.} | } } ' ' ) ' ) ) ) ) m l I m I I [ ) ) I V V I M m m m m n n f m c a a a p r a r 4 2 , , > % % # % % % % % $ $ > $ 5                                                                                                                                                                     ",
"                                                                                                                                                                                                                                                                                                          q.<.O.O.,.q.q.r.p.p.S.L.J.q.q.S.,.j.^.Y.H.v.{ } >.e.>.| } +.} >.e.e.2.e.>.3.G.>X<X{.R.h.Y.1X0X2X(.2.i.q.[ &.1.e.I.;X$XD.pXiXS.M m J I !.pX!.>.1.G.v.=XVXDXKXDXtX!.cXHXVXCXOX2.>.} &.} M V [ &.v.                                                                                                                                                                                                                                                                                                                                                                                                                                                                                                                                                                                                                                                                                                                                                                                                                                  # X X X # # # O O O X X X X # 1 V } 2.3.;.&.Z y % X X O O O o $ @ d 6XDX0XR.m.n.1.;.h.j.1.r e b L W ! ! Q ( ^ y.t.y.( ( ^ ( t.t.o.d d V u u u u w w u u u y k k d u k ) ) m a s p > $ % $ $ $ $ O O O O $ $ % < > , , a d a D.>.e a d f c d d y r a d m a a m I I I I I ) } ' v.-.c.M.R.{.W.T.@X'.9X9X8XfXVXzXgX@X}.F.^.Q.v.c.3.M.c.v.v.m.v.v.L.v.w.S.,.} } } } ' } [ [ I ) _ V k m I I V V I I I I I ) V I M M M m m m f m f d f a a a d a e 4 < , , % % $ % % % % $ $ $ % % , 4                                                                                                                                                                   ",
"                                                                                                                                                                                                                                                                                                        q.r.<.2.2.q.q.r.a.p.r.!.L.q.| ,.H.2.H.>XW.H.,.) >.E.oXe.>.| ' } } ' 1.2.2.U.W.R.l.F.R.`.{.Y.F.*X^.F.>.J.+.[ } i.O.>.q.<.2.2X0XS.P c P I !.tXH.(.>X{.F.[.NXHXKXKXFX7X-XUXmXsX*Xj.j.2.2.' I M [ } >.D.                                                                                                                                                                                                                                                                                                                                                                                                                                                                                                                                                                                                                                                                                                                                                                                                                                  X X O # O O X X X X X X o o % 0 k B ' &.} ' d % o X X X X # # O X J lXBX{.V.k.h.f.h.c.2.u 4 g L W W Q ^ t.5.5.u.y.t.^ ^ ( ( t.9.m m B h t j u t y y t t u k w = 3 w d ) } V s s < % % $ $ $ $ O O O O $ $ > < > < % e e d  XJ.4 d f f d d d d a a r a r n M m I I I I ) [ | b.&.j.U.{.U.} ^.>XV.@X@X{.gXCXfXrX'.{.M.v.w.v.1.c.M.j.M.c.U.F.F.G.v.>.b.0.| | +.+.[ +.[ ) V [ } V k V I V m k m V I I I I I _ I V V m n n m n c m m f f a a a a a 4 , , % > % $ $ $ $ $ $ $ $ & & ,                                                                                                                                                                   ",
"                                                                                                                                                                                                                                                                                                      a.a.q.,.<.<.q.q.q.q.r.r.2.&.| 1.Y.E.E.H.Y.m.>.I ' ,.(.2.>.>.' } >.<.1.{ v.W.{.>X>X{.F.qX0XiX<XF.1.1.1.>.e.| R T X.+.1XsXMX1XY.,XD.I m K I } S.e.yXzXfX9XT.1XGXKXKXKXsX).I.J.J.F.Y.H.>.p.I M I ) } | ,.e.                                                                                                                                                                                                                                                                                                                                                                                                                                                                                                                                                                                                                                                                                                                                                                                                                                  X # # O X X X X X X o X # # % * * w Z { } N * o O X X X $ O # # $ 9.MXsX'.k.c.g.h.c.1.k 1 a G L W Q Q ( 5.5.u.u.y.^ ( ( / t.t.K M n N N h i y u y w t u u < , e t t y ' q.B s w % % O $ $ $ O O O $ # # > < % > , % < k 1X~.e e d d d d d f a e r f f M M m I I I V I V | b.*.v.W.`.c.] =XqX`.}.U.R.gXpX@X{.`.W.2.*.>.e.>.v.c.j.G.c.H.v.v.v.v.*.e.,.>.,.| [ [ } [ I I >.) m V I ) m V V V V I I M I I I M M V m m n m n m m m m l f a a a a e 4 < , , % % % $ $ $ $ $ % $ & , 5                                                                                                                                                                 ",
"                                                                                                                                                                                                                                                                                                    8.q...X.@.+.q.q.<.e.v.2.} e.>.&.M.Y.^./.G.1.,.+.I | >.L.&.} 2.,.>.,.e.e.} E.W.OX>X9X{.`.gXqXiX0XY.1.G.H.e.} [ K I I +.cXHXVXmXH.D.S.I m P I 3.j.S.pXgXfXgX9X^.yXSXHXDX:XI.lX5X-XY.Y.p.X.q.B f M [  .[ [ | D.                                                                                                                                                                                                                                                                                                                                                                                                                                                                                                                                                                                                                                                                                                                                                                                                                                  # # # # O X X O O $ $ # # # % O % t ) { ) 0 @ O X X X $ # $ X X % $XAXiXR.n.n.m.c.1.B 1 a G L W Q ^ y.5.y.u.u.y.y.y.( ^ ( t.X.m u N N h h h t y y y u y = < e r t w y B e.) y % % % $ $ $ O O # $ $ # > , % % , , < k yX&X< a d a c d f f r e d m m m m M I I I P ) V [ ,.e.v.U.].3.>.oX0X>XOXk.].zX<XC.[.].G.2.e.2.e.2.1.c.v.E.M.1.>.e.w.3.&.*.| *.*.} ) ' _ I I } >.I V I [ _ I I I I I ) M I ) V V P V V M M M M m m m m m n m n n f a d d e 4 < , , % % $ $ $ $ % $ & , , 6                                                                                                                                                               ",
"                                                                                                                                                                                                                                                                                                   .q.X.X.@.@.@.q.O.q.D.e.{ 2.c.1.M.W.W.^.G.v.>.O.I I >.~.v.} } 2.e.>.,.e.2.&.^.OX>X>X>XR.*XgXqXqX<XF.j.E.H.G.*.} M M M <.mXDXCXgX(.} } P m I I G.<X!.0XgXfXfXgX^.Y.-X3X:XL.;XJXKXDXdXF.r.K c m a m [ [  .) ] >.v.P.                                                                                                                                                                                                                                                                                                                                                                                                                                                                                                                                                                                                                                                                                                                                                                                                                              # # $ # # O X O O $ $ # $ # $ $ # % u N ) k * O O X X X X X $ # X 4 5XAX@XZ.T.T.c.1.) 0 a G L W Q t.y.y.y.u.s.y.y.y.^ ( ( t.a.[ y h N u k u y u y y u d 1 3 r u w < = B P.} M < % % $ $ $ O # $ $ O % , < > % , 4 a d tX&X4 a d a c a a a r f m m f n m m m V I I ) V [ +.2.>.U.].3.E.W.{.<X].j.>XiXT.h.W.M.*.;.v.2.w.>.>.m.H.P.v.>.2.v.v.>.2.w.w.>.} } ' ) ) ) } ' I B I I I V m m m I } ) m ) I ) ) I I I I I m m m m m m m n m m m m f f f d a e < , , > % % % % % > & , , 5                                                                                                                                                               ",
"                                                                                                                                                                                                                                                                                                X.X.X.O.X.X.@.q.q.@.@.r.q.e.F.k.@X+XG.G.F.j.e.O.I I I J.H.>.{ &.,.S.e.q.+.O.| v.^.*X{.R.l.W.0X0X>X[.1.v.P.b.e.0.{ ' I P 2.pXCXgXiXE.' I P K I I F.0XoXW.0X9X0XiXY.F.F.F.2.2.yXKXHXDXmXY.&.I R m a m X.[  . .| | >.D.^.                                                                                                                                                                                                                                                                                                                                                                                                                                                                                                                                                                                                                                                                                                                                                                                                                              $ $ # # # # o o X $ $ # $ $ # # # % 9 B ' y @ O X X $ $ O @ # $ # R bXeXZ.C.C.c.c.} w r v L W Q t.y.y.y.u.s.s.u.y.y.( ( t.o.U [ B d u u t h j h u y u t < a f u w 9 n .XB +.d % % % $ O O # % > $ % , 2 < > % e I a 3X;X4 d s r a r r r a m M f f m V V V m P I I K [ } >.} S.W.k.OXW.W.].v.j.OX`.h.m.v.3.*.2.v.1.w.} &.v.D.v.>.b.v.w.w.&.2.2.2.1.{ ' } ' [ ) ' _ ) B ) ) [ m l V m V ) I ) ) ) [ ) ) I V V I m m k m f m I V M m m m n m f c d d a 4 < 2 , % % % % > > , , , 6                                                                                                                                                             ",
"                                                                                                                                                                                                                                                                                              X. . ...X.X.X.@.q.<.X.X.[ X.>.U.T.rX=X,.,.3.j.2.[ T ,.,.K.2.,.>.} { >.q.+.[ } ,.} 3.M.m.k.U.j.m.{.[.F.' e.D.e.w.,.) ' V M { [.qX0X[.1._ ..T I M P 1.>X,Xl.R.^.*X!.h.0XgXgXiX^.tXDXDXCXfX].{ M R M d M [ [  .| | } } >.v.E.                                                                                                                                                                                                                                                                                                                                                                                                                                                                                                                                                                                                                                                                                                                                                                                                                              # # # # # o X X O $ # # # $ $ # % % d _ P < @ X X X X @ @ O $ $ % .XcXC.g.f.h.c.&.y w c L W 5.^ y.y.y.u.s.s.s.u.y.( ( t.t.o.XX.Xa d r y h y y h h u u < y I m d y w d u I ) % % # $ $ $ # $ > > $ % , < < < e c a /.~.4 a r a r r y f f f f f m M m M M I I I I M I ) >.} 1.U.W.>XR.M.m.3.c.l.k.M.M.2.1.2.v.v.v.e.&.*.b.w.>.*.e.,.1.2.&.2.v.v.m.2.{ } &.} B ) } P } _ ) V l I I V I V I _ I I I [ O.I V I V m n I V m M I I m m M m m n m c M m f a w 1 < , , > % % > , , , 5                                                                                                                                                             ",
"                                                                                                                                                                                                                                                                                            X.@.[  ...X.X. ...[ I } +.>.2.F.^.].>XH.e.e.v.2.,. .@.>.G.<.<.O.>.<.>.[ } | +.q.i.e.*.-.m.[.>XW.j.h.3.} } >.,.,.,.} ) ) m m P &.^.].v.) _ I m M M V &.^.oXj.-.} ,.} G.qXfXfXfX9XW.iXmXfX0XG.) M m P c K [  . .[ [ [ [ ' } w.v.                                                                                                                                                                                                                                                                                                                                                                                                                                                                                                                                                                                                                                                                                                                                                                                                                              # # # X X X X X $ # # # # O O # @ < m _ k % O o X X @ @ # # $ % I cX+Xg.:.;.*.&.k 0 d G ! t.5.t.5.6.a.).I.s.t.t.y.y.y.t.o.a.:Xd e p a u k k h u k k y 9 n p.I d t < w y m 0 % # $ $ $ # O $ $ $ $ > 4 1 4 4 e a S.H.e a r r a d a a f d f m M m m m m I M M P m I I O.} } Y.`.@XV.c.3.m.c.k.G.Q.1.} &.2.w.v.v.,.&.>.w.>.,.,.>.} v.1.3.M.F.v.b.e.} &.,.>.} } } ) >.+.[ m m V V I [ [ [ [  .I ) [ _ [ [ I m M I I m M m m m m M m k m M k f d f M c d e 4 1 < > > % , , , , , 6                                                                                                                                                           ",
"                                                                                                                                                                                                                                                                                          ..X.[  .O.[ [ U I T T [ e.3.U.*X].^.v.>.2.G.H.v.w.} ) [ ,.!.<.<.<.e.e.,.>.' q.e.e.e.D.v.3.W.].+X].F.} >.>.} ' ] | | [ I I c c m I ,.,.' M M f a l m m [ e.e.` j.w.} } v.[.>XwX9X9XF.G.>X<X[.$.) l k M c I  .}  .I I ) ) ) ) { v.E.                                                                                                                                                                                                                                                                                                                                                                                                                                                                                                                                                                                                                                                                                                                                                                                                                            # # # o X X X # # # O # # O O X % % 0 I ) d % O X @ O X $ # @ % , ;X{.f.=.;.*.,.B 1 r G W t.5.u.u.u.s.$X$X|.u.t.^ y.y.t.o.t.u.W J v d u k k k k y y u w = q..Xm u u t t n a % % # O # # O $ $ $ % % , 4 % < % d E.D.4 e y a d f y e a a m M m m m m m K M c c m U [ _ } 2.W.T.R.T.U.3.c.M.M.m.G.' ) | 2.*.2.*.} e.e.e.w.r.1.} 1.v.w.v.M.M.v.2.e.,.>.>.[ | ,.>.} | } m I } I V [ } P V I  .I V [ [ X.[ V I I V V M I m m M m I m d m m k f a d f n f f a e 1 < , > > , , , , 5 v                                                                                                                                                         ",
"                                                                                                                                                                                                                                                                                          @. .[ ..[ [ [ [ T [ [ [ ,.j.>X>Xm.1.,.e.F.^.].S.,.] I | G.S.+.q.J.r.r.e.,.' p.p.2.2.H.D.*.E.Q.W.U.v.} +.X.[ ) ) ) I V I m d d m M m m m m d a a a d c m } ) ) v.2.} ) { v.U.W.].{.G.$.=.1.,.) I N k a c I [ } [ I ) I V ) ] ] } ,.D.                                                                                                                                                                                                                                                                                                                                                                                                                                                                                                                                                                                                                                                                                                                                                                                                                            o # o $ $ # O # # # % % # $ X O % % w +.[ y @ o o X X X O @ @ % >.'.f.-.*.*.w.) w 4 v W o.t.u.u.).).2X7XUXI.6.^ y.( 5.^ t.t.Q u.o.m k >.A y h h h y u < t r.m u u y w t r % O # O # # # $ O O % % < < % % < s  XS.1 w d c d d r a f f m m f m f f m m K c c K T _ ) O.v.[.T.-.U.G.v.Y.G.v.2.>.` | | 0.} *.>.&.,.1.e.w.*.' 3.v.m.M.M.1.v.v.1.>.,.| ' [ e.v.e.,.[ I V V I m m I ) m m I V m I [ I [ I V V V I [ I m M M r k +.V d } } k m I V k M M I M f a 4 , , > , , , , , 4                                                                                                                                                         ",
"                                                                                                                                                                                                                                                                                        @...U  .O.O.[ U [ X. .' | e.H.!.v.>.3.v.F.W.{.>XG.[ I  .>.L.J.X.p.~.D.i.e.,.} q.S.e.e.D.2.&.M.G.M.c.>.[ +.R R V V I V K M k u d f m ) X.I m a e e r a v c m c I { B ) I I I +.w.v.c.} } e.&.) K c K d r m I [ } ) ) ) I I I ] ] ) [ >.D.                                                                                                                                                                                                                                                                                                                                                                                                                                                                                                                                                                                                                                                                                                                                                                                                                            $ $ $ $ O O O # # % % # X X O O @ % r.&X) k , X X $ X O % % % ` C.g.;.;.;.1.&.u 4 c T u.u.6.).|.).7XBXIXlXI.u.y.y.^ ^ ^ ^ Q Q o.X.K ,.~.k y y y u u u w 1 t k d y t 0 0 > % O O # # # $ O O $ % < < % < a y ,XD., r d a e a a a m l m m f m d f c f m v g K U I I O.S.R.l.=.E.M.2.W.v.*.} ' >.,.] ,.} ' w.,.*.e.D.2.{ &.D.G.3.j.2.*.v.e.>.| | ' [ } ,.2.&.) ) I ) V m m V P M m m V m V I V B ) V I V [ I M y m | [ a V +.) I [ [ m m I I M I [ V I  .I c e 1 , , , , , 2 2 7                                                                                                                                                       ",
"                                                                                                                                                                                                                                                                                      @...U [  ..... .X.[ [ [ e.e.e.e.>.| ,.v.Y.T.{.@X>XS.I T +.S.!.p.X.q.J.K.J.,.| | >.,.e.,.| *.>.1.v.e.1.' [ @.I V V m I I I I f a a a c I [ M c a w e e e v c m c M k k n m M m M I ] ) M } q.,.[ P d m a r m I } } ) I I I I I [ ) I I ) +.e.                                                                                                                                                                                                                                                                                                                                                                                                                                                                                                                                                                                                                                                                                                                                                                                                                            # O # X # # # O # O O X X X X # O e ~.O.) k 0 # o X O o % % B 1.-.;.;.;.1.>.I 1 g W 6.u.s.).|.|.1XCXsXBXuXI.s.u.6.5.^ Q Q 5.t.t.W T K.[ k h h y u d d < < w r m r 1 w < $ O O O O # $ $ $ $ % > , , < a y =XL.< a r e 4 a s f m f f c m m c m m d f f c m M I P } >.&.v.e.v.2.*.G.2.| } } ,.} ) [ I ' e.0.| D.e.' *.2.v.e.' ' } >.e.,.} _ >.| ) ) | | ' ) ' [ ) B I I ) [ ) } [ ) V ) } B P V M I K M [ +.k B [ I m [ ,.r.} ) V u u k d a n m u m [ ) m f f w < , 2 2 2 2 4                                                                                                                                                       ",
"                                                                                                                                                                                                                                                                                      8.U I  . .[ .. .I ) [ } ,.>.} ' } +.,.G.{.>X{.`.W.>.[ [ D.H.H.<.@.O.O.<.>.| | >.) ) } } ] *.*.*.>.>.} A [ ] m m m m I m m m c a r a c m d r d r 4 4 4 e d a c f f r a d d k m f d d k I I M I m c a e p a m ] [  .I I I I I [ ) I I I I _ } v.                                                                                                                                                                                                                                                                                                                                                                                                                                                                                                                                                                                                                                                                                                                                                                                                                          # # # # # O O O # X O O X O O O O % 0 m ' { Z y < % % # % t V { %.;.;.;.;.*._ 1 a L 6.s.).|.-X-X2X2X7XdX-X|.I.a.u.6.5.Q Q 5.t.5.^ ! ~ I f d k d u d u u w < < 4 , % e p > O O O O # $ $ $ $ % , % % , r y [.L.4 e e e p a r f f d d c c d f m m a f c m m M I I O.} O.S.2.e.,.&.w.0.] ] | ,.}  . .I +.p.| ' &.) ) >.0.>.| ' ' | } [ _ _ ) } } _ _ } [ } >.} I V ) ) ) } } } r.} ) [ | _ ) ) m I m a a q.} B ) ' V m m m k y k k u n n V I ] ) ] I m k u n m m f 1 2 2 2 < < 3                                                                                                                                                     ",
"                                                                                                                                                                                                                                                                                    @.[ I [ .. .I U [ I [ [ } } ' { >.,.>.>.m.>XiX>XR.j.} @.p. X2.2.q.K.L.q.} O.+.,.+.[ ) V [ } >.*.) ] ' ) ] ) I m k k m M d a f f a e a d d r e a r 4 < 4 r a w e a a r r r r a m m m f m m f d f a e d 4 4 d M  . . .) M M I I I [ I I I P M ) } e.                                                                                                                                                                                                                                                                                                                                                                                                                                                                                                                                                                                                                                                                                                                                                                                                                        $ O O O $ # $ $ $ $ $ O O O O $ $ % @ * B *.{ ' B k y y y N ) ` &.;.;.;.-.>.} y e L u.).$X-XdXsX1XtX|.i.a.|.I.I.$Xs.6.o.E Q ^ ^ 5.Q W ! W p.I V d u u u u d w < = < r a > $ $ $ # # $ $ $ $ > 1 , % % 1 e G.S.2 4 s a a f a f f a d v g d f m m f c m m P M M _ ,.} >.O.} e.*.*.>.,.) ] >.,.}  .I I +.,.I [ } } ,.,.>.| [ } } >.O.} | >._ O.O.} } } ' { +.} ) ' } ' [ } ' [ q.' ) [ V ) _ I M k >.e.k I | ) X.[ t w 0 w y u M M M ) ] ] } | 0.,.0.e.,.| ) B B m m e 3 < , 2 5                                                                                                                                                     ",
"                                                                                                                                                                                                                                                                                  @.X.I [  .[ I [ ..I I I I P B ' } >.,.>.3.U.>X9X].v.&.' | 2.!.1.E.*X*X(.L.,.} r.@.} [  .I | | } } ' ) ' ] ] M I M f d n m a a a f c d c d r e 4 e a e 4 e a e 4 4 w a e w r e a f m c m m a r a p a e c r 4 d m M I M n m m M I I I P M P P I I ) | S.                                                                                                                                                                                                                                                                                                                                                                                                                                                                                                                                                                                                                                                                                                                                                                                                                        $ # # # $ $ O $ O O O O O O $ X O % @ * h ) } } ' ) ) ` #.#.%.h.f.f.h.;.3.&.I e f ..I.7X2X7XdX1Xp.).p.@.6.6.).%X$XI.a.6.5.5.5.6.o.o.W 9.9.X.I I u u d y k u d d d k d , % # $ $ $ $ $ $ $ > , 1 , % % w 3.<., 4 s a p d d f f f v v c f m M M I K m c P M M [ O.} +.) _ ,.&.,.*.| } | 0.>.[ I I  .| } ) ) ' } >.,.>.| ' ' } q.>.>.| } ' } >.} } ,.' } } ) I [ >.| } } ' } } _ } ) I } ) k d N ~.,.' >.r.I m t 0 w k B ) ) } ,.+.} } *.*.| } *.&.w.w.v.v.,.,.0.,.) k 9 3 , 5                                                                                                                                                     ",
"                                                                                                                                                                                                                                                                                  X.I I  . .I M [ I I [ I P _ } ,.e.c.c.m.c.U.T.'.F.e.} ' ,.^.^.1.[.2X*X^.H.2.) @.X.[ [ [ I  . .) ) ) I ) I M f m n d f m f r r e d f d d a 4 4 4 4 a e 4 e e 4 4 4 4 r e 4 4 w a a e 4 e d a e e w 4 e e < 4 a M M M c m m M I I I I P P I P I I I ) | e.                                                                                                                                                                                                                                                                                                                                                                                                                                                                                                                                                                                                                                                                                                                                                                                                                      $ $ $ # # # O O O O O O O $ # $ # O o % @ * d ) ) } &.*.-.%.-.h.-.f.h.-.;.*.>.d g L i.2X7X7X-X:XJ.@.@.@.@.W ..u.a.$X$XI.u.6.6.5.5.Q ! Q ( o.....f w t u u u y k n n n 1 # # $ # # O # $ $ % % < < % < e 2.J.2 4 a a p f f f c m c f d d d m K I K m d K M I _ _ ) [ ) O.| ,.*.] } } >.0.} V I [ [ I I m V } >.>.e.>.} ) ' } ,.| q.+.) } _ | | +.2.' | ' B } ,.>.} | } | | P >.>.} | | k P ) y N ' e.,.B w < w B { *.1.e.1.1.v.v.e.w.1.w.b.b.b.D.G.v.b.b.w.v.D.b.v.e.' u 3 , ,                                                                                                                                                   ",
"                                                                                                                                                                                                                                                                                8.T I U O.X.[ I I P I I I ) ,.,.e.P.G.].OX].].`.{.2.} V } ^.>X[.j.[.>X|.Y.F.>.) +. .[ [ ) I  .) I I V B ) I k d d m M M M d e e e a e e e e 4 4 4 4 e < < 4 e < 1 1 < w e 4 4 4 a 4 4 4 < e a 4 4 4 4 3 5 5 4 a d c d c I m I I I I P I P I P P M I I } >.e.                                                                                                                                                                                                                                                                                                                                                                                                                                                                                                                                                                                                                                                                                                                                                                                                                      $ # # $ # O O O O O O O $ # $ O o # % % O # , w k ' } 3.;.3.h.;.h.f.f.;.1.1.P 6 G ..|.-X7X2X|.a.a.o.u.o.........s.I.$X$XI.u.5.Q ^ / / Q ! ..o.T T I d k h u y u y u w % # $ # # O # $ # $ $ % 4 < a a ~.D.2 4 r a a f l f m m c d c f d c m K m c c P I ) I I I I _ +.} ,.} ) } } >.+._ M I [ I M l V [ } >.} 0.+.| [ } } } ,.e.>.' { } | } | e.' } { ) | ,.' ) | } ,.} ) ,.} | _ k B (.2.z } ,.[ k < w m } ,.0.*.&.*.} { } } { *.&.` *.*.&.w.v.1.m.b.v.b.G.H.Y.P.G.e.} m t                                                                                                                                                   ",
"                                                                                                                                                                                                                                                                              [ [ I [ I _ [ I I I M P I } } ,.,.1.H.Q.+X+XOXT.R.U.>.I M &.0X0X>Xh.^.>X[.U.2.} ) ] [ [ I V M R I V M M m ) m d a r c m c c d e w e a 4 4 5 e 4 < < 4 e < < < w 1 < < < 4 e a p a 4 < 5 < 5 5 4 4 < 5 3 2 < < 4 4 r e e f I m P P I I M M K T I I I I ] ) [ >.e.                                                                                                                                                                                                                                                                                                                                                                                                                                                                                                                                                                                                                                                                                                                                                                                                                          $ $ O O O O O X X $ $ $ # # # # $ X X # # = 1 y N ' &.1.1.h.f.h.;.;.1.| a g b ..$X1X$XS.s.u.o.o.W W W W ....@.u.I.I.s.u.6.5.5.t.^ E W o.6.u.@.K a u u u i h y y * % $ # O O $ $ # $ % % < , a r  X>.2 < w a a f l f m m m c I I m m m m m m m I I U M I I I U  .O.[ ) I | ,.+.} [ I P I I M m I } ) [ [ +.} +.>.>.>.,.,.*.} ' ) { | ,.e.,.&.2.{ ) ' ' B | | } ,.} } } ) ) k t S.L.' _ I a 4 w k V } } [ [ { ] { &.*.*.,.1.w.c.w.*.*.%.%.*.{ { { &.*.1.1.m.Y././.Y.m.*.B d                                                                                                                                               ",
"                                                                                                                                                                                                                                                                            [ I U  .[ I ) I I I I I I  .[ } ,.,.w.b.G.U.m.T.W.n.3.} M I e.jX>XF.1.3.l.F.v.>.| } M I ) I I I I M M m m n I f a a e a a e r d e 4 e p 4 < < 4 e 4 4 4 5 , , , 2 2 < , < 4 < 5 3 4 4 2 < < < < 4 r e 4 4 4 < < 4 4 4 4 4 r a f m P I ) I V M I I I [ [  .[ ) [ O.2.                                                                                                                                                                                                                                                                                                                                                                                                                                                                                                                                                                                                                                                                                                                                                                                                                        $ $ # O O O O O $ # # # # # $ # X O $ $ # # % % = t N ' >.;.;.h.f.f.h.>.f 1 p m ..u.u.@.O.4.W W Q Q W W W W W u.u.u.I.).).u.6.o.Q ! ! ^ 5.o.9.o.@.c a u y i h h * @ $ $ O X $ $ $ $ % > < % 4 w e.) , 5 w e a d f c c P I I I M M m m l m m M m P K P I I K I ..[ I I ) +.<.} [ I [ P I I K I I [ I I ) } ) | | ,.*.{ { { ) >.*.,.,.w.b.&.e.} B ' _ ) B } e.>.} | ' B m k k t [ _ ) k 3 < a I I ) A A ) { *.b.G.Y.Y.Y.M.;.c.M.Q.P.G.G.v.v.c.1.w.e.b.2.*.;.w.c.U.U.W.^.b.e.[                                                                                                                                             ",
"                                                                                                                                                                                                                                                                            [ [ [ <.X.[ [ I I [ [ ] ) } } | 2.v.v.m.m.k.n.].{.U.2.) [ X.S.>XF.W.OXY.3.$.1.>.} [ I I ' | _ M m I M k m I I f r p e a e 4 4 a a a a a < < 2 5 4 e p 4 < , , , 2 4 < , < < 2 2 2 5 5 2 < 2 2 < 5 5 4 5 4 2 , 3 4 5 5 5 5 4 e a f P I I P I I I I I _ I [ [ U [ X.O.,.S.                                                                                                                                                                                                                                                                                                                                                                                                                                                                                                                                                                                                                                                                                                                                                                                                                      $ # # O O O O $ # # # # $ $ # O $ # # # # # # # % < y B } 1.;.;.h.;.3.>.) 0 p a H E W 7.@.W E ~ ~ Q W E E E E ! o.o.@.$X|.a.u.o.^ / / ^ Q Q o.9.R a t N h y y 0 % % $ O O $ $ O $ % % , , % < I l 2 4 r p a c m m m I I m m m m m P m m K P P M M M I P I I [ I m U [ O.O.[ [ [ [ _ I I I K I _ I ) I ) ) ' >.>.' } *.>.*.e.,.} ) *.} >.>.' B ) I ) | ,.>.) B } | ' I V q.I e.+.M 4 < r m M ) | *.*.,.1.2.w.b.Y.b.1.w.1.&.;.c.w.*.*.*.w.1.*.*.*.*.e.w.v.b.v.v.c.M.Q.P.^.P.r.]                                                                                                                                         ",
"                                                                                                                                                                                                                                                                          I [ [ [ [ } [ ' [ [  . .+. .} O.,.e.v.2.v.Q.R.k.W.+XQ.1.B } e./.U.`.[.[.].Y.} 2.e.[ I I B ) } V m c m M ) ) V M m r e e a w 4 4 4 d a a p < 2 < 2 4 4 4 4 < , , , 2 4 2 < 2 < , , , 2 2 , , , 2 < 2 , 2 2 2 < , , 2 < 2 < 2 4 4 e f m m P I I I I [ ) _ I [ [ R ..[ [ [ >.i.                                                                                                                                                                                                                                                                                                                                                                                                                                                                                                                                                                                                                                                                                                                                                                                                                      $ # # # X # # # # # # # # # O @ @ % % $ % % % # # % y ) &.3.h.c.3.h.l.3.y , 2 6 g G H L W W L L ~ E E E E E W W X.u.s.a.I.I.a.6.^ 5.^ ^ Q Q t.9.~ [ K.y y s w % @ O O O $ $ O # $ > % % % , P d 2 4 a a a c m m K P m I V V _ I V V I I M M M I I I I I I U J K ..[ _  .O.[ [ _ I I I I I U [ P M I _ +.| ,.' } ,.>.,.w.e.,.{ ' &.' | } ) B [ } [ } >.' ' ' ' [ I N r.r.} q.m , < r k B ] | | ,.,.| } } { A { ,.&.| *.1.b.e.*.,.&.{ *.&.) I ) V A V A { *.&.1.G.b.v.E./.~.H.e.                                                                                                                                      ",
"                                                                                                                                                                                                                                                                        P I  .+.} } } | } } } [ [ ,.| | ,.e.v.F.v.G./.Q.h.m.Y.v.} Z | L.oXj.OX[.].W.E.>.,.,.' V V B ) } V m c f M _ m s a m a r a d 4 4 4 4 a 4 4 e 4 2 < 4 2 < 2 2 < , > , , < < < < , , , , , , , , , , < 2 , , , , < c g < < < < 2 2 4 e e a f M P V I I [ I I I  .U U ..R U [ [ +.r.                                                                                                                                                                                                                                                                                                                                                                                                                                                                                                                                                                                                                                                                                                                                                                                                                      $ # # # # # # # # # O # # @ @ % % % % % % # # $ # < J.,.*.1.1.*.1.k.j.Z 0 % , 4 6 b G L W L L ~ W E E E W T T W W T ..s.$XI.a.6.6.6.t.^ ^ Q Q ! 9.a.d 0 a w % @ @ $ $ % > % # % < < % , 2 m e 2 4 p d c c M m m _ [ [ I _ | P V I [ I I M I U I I I T P P K U T K I [ [ [ I _ I I I _ I I [ I _ I [ +.} ] { { } | e.e.*.*.) } ' { &.e.) ) +.} V V ) B ) ) ' ' k V X.[ I 0 2 3 a I } >.w.0.' B V A ) { &.,.&.*.w.,.,.b.G.e.*.0.0.,.*.| } [ I [ | } ) V A V ) ) { ,.D.P.E././.D.0.                                                                                                                                  ",
"                                                                                                                                                                                                                                                                      T [ X.O.} +.,.>.,.| | | } [ | >.>.2.e.v.M.m.v.v.j.F.Y.F.>.B ' 1.=X*Xv.=X[.W.E.D.| +.>.] V V k I ) m f d f l m d s p f m f f d w 4 4 4 e < < 4 4 , < 4 < < 2 2 , > > , , , , , , , , , , , , , , , , , , , , , , 4 m T K e , , < < 4 4 4 e d f M M I I I P T U [ [ U W U L T [ X.X.q.                                                                                                                                                                                                                                                                                                                                                                                                                                                                                                                                                                                                                                                                                                                                                                                                                      $ # # # # # # # # O # # @ @ % % % % % % # # # O % [ ) ) ) B N ' 2.j.j.3.s % , 2 5 6 g G L L ~ ~ L ~ ~ Q W U W ~ E ! W @.i.p.s.s.u.6.^ 5.t.! W W T L a a e > @ % % $ $ % > % , , 1 , , p f < , p p v c m K m P X.O.O.O.O.} V I ) I M I I I I I I I [ I J K K U U U [ [  .[ O.I I I I P M I M  .[ ) } ] } ,.{ ' >.} { { | ' ' ' } { ,.B } X.I m V ) B N N V V V w m n 1 = a M I >.e.,.{ ] V B A } ,.,.1.b.b.1.*.} { { { ] ) V V ] ) M M M m B B ] | ) V ] ] I [ ] } 1.w.m.P.E.P.D.                                                                                                                                ",
"                                                                                                                                                                                                                                                                      X. . . .+.,.2.v.2.>.>.>.>.| | ,.,.2.e.v.F.G.v.v.v.W.W.F.>.k ` v.].F.v.=X=X^.F.*.| } } { B N V ) I m d d a f V a r r p m m a a r 4 1 4 4 5 < 5 4 5 5 4 2 , , 2 < , , , , , , , , , > > > , , , , , , > > , , , , 2 4 a m [ e , , < < < 4 e e a c M m K P K T U U T U U L L T X.[ T  .q.                                                                                                                                                                                                                                                                                                                                                                                                                                                                                                                                                                                                                                                                                                                                                                                                                      $ # # # # # # # O O # $ # # # # # % $ $ $ $ O @ @ < 0 < * , w V } 3.j.&.' y , , 2 4 p g v L Y L ~ L ~ L W W W W L L L ..<.J.$X%Xs.o.o.5.o.! L Q W T X.T < $ $ > : $ $ > > % % < 1 < g I w , p a m v m I [ P [ O.>.S.e.e.>._ _ P I [ I I I m M I I I J J Y K L I I .. .[ } I I V I M I I K  ._  .} +.} >.{ ) ' I } } } | ) } } ' | [ +.[ M M I I N m k y  .,.d m 1 = r B | | } ] V B V ) } | *.,.*.} } } ) A B V V V ) I B n m n d d u f n u d M n u n m M [ ,.{ &.*.} | w.m.E.K.8.                                                                                                                            ",
"                                                                                                                                                                                                                                                                    9.@.@.+.>.,.,.>.2.2.2.,.>.+.| | >.2.e.e.v.G.E.E././.].H.v.} B 3.+X[.3.3.2.F.F.*.} [ I V ] ) I ) M M c d a r f M a r r r f p w e a 4 1 4 4 < 2 2 4 4 5 < 2 2 , 2 < 2 , , > , > , , , > > > , , > % > , > > > , > , , , < 1 d p , , , , 5 4 4 4 4 p v c m P I K K L L L U U L T T R T ..@.S.                                                                                                                                                                                                                                                                                                                                                                                                                                                                                                                                                                                                                                                                                                                                                                                                                      # # # # # # # O O # # $ $ # # # # # $ $ $ O # % % % % % % % 3 m &.-.3.1.E.) , % , 2 4 p g f Y L G H L W W W L W W U U ..<.I.$X$XI.u.6.o.Q ~ ~ E E o.W 1 $ $ > $ $ $ % $ % % % < < a U 1 4 a d d m I +.r.I } e.i.>.,.e.>.) U I I T I I I m M l m K g g v J U T U [ _ I V ) [ V M m _ I T X.P ) ) I ' ) ' } ) } +.} } | ) ' ' } ' } } } I I V V N B k V .X,.f 1 < r V &.>.' N k V ) ,.w.,.) M ) V N B V B V M B I ) V M M m M M n f d d d u t u u u t t a n m V V } | 0.,.&.>.w.r.r.                                                                                                                          ",
"                                                                                                                                                                                                                                                                   .} ,.q.>.,.>.+.| } } >.| | >.| | | >.2.e.v.v.M.].].[./.S.>.) { F.[.`.l.U.j.3.1.>.} [ I V V ) ) M k f M m y a m m p r e e d e 4 4 e a e e 4 < , 2 4 < 2 2 , , , , , , , , , , , , , , , > , , > > % > > , > $ $ , , , > , , , 2 4 5 2 2 < 2 4 5 5 4 a d v m K L L K L U U T L W ..T T [ T } D.(.                                                                                                                                                                                                                                                                                                                                                                                                                                                                                                                                                                                                                                                                                                                                                                                                                    # # # # # O O O O # $ $ $ $ $ $ # # # # # # # # % % % $ $ % d >.1.3.1.2.2.Z k % % , < 1 p g G G H L ~ ~ W W W L L U W W o.@.u.$X$Xs.@...W H ~ ~ ! Q 7 # # $ $ $ > > % $ % % , , e P < 2 p d c I } >.| ' } >.D.} e.q.I _ [ U I I I K U m m m m m d d f K U [ U [ I I I [ [ P l m I [ [ I ) [ } } } } } *.` ' } ] >.*.] ) =.3.A >.[ ) I I m V I B k +.p.M w % t M ] } ) V B ) } ,.| >.{ m n B M n k B V B ] I I I ] M M I I [ ] M I m c d d f d f d u u d u u u n V } e.0.*.} } 0.r.q.                                                                                                                      ",
"                                                                                                                                                                                                                                                                  | [ >.,.' ' } } } ' [ } [ } >.>.>.+.} ,.2.v.F.G.T.`.W.E.e.) | v.v.[.{.].OX[.v.>.e.>.[ I V m I V f f a f m M I K m a e e e d e 4 4 4 a p e e < < < < , < 2 , > , , , > > , , > , , , , , , , > % % % % > , > % $ > , , > > > , 2 4 4 5 2 2 2 5 2 5 4 p a v v G v L G U U U U T T T L R T U [ } H.~.                                                                                                                                                                                                                                                                                                                                                                                                                                                                                                                                                                                                                                                                                                                                                                                                                  # $ $ $ # O O O @ $ $ $ $ $ $ # # # # # # # # # $ % % $ $ O % } { } ' N B 2. Xm % % % , , 4 a g H L L L E ! ~ L L L W W L W ..s.$X(.J.i.o.L H ~ E ! G : $ % $ ; > > % $ % % , e p I 5 2 6 a c I } >.,.v.D.2.e.} ,.[ I _ [ U I K K I I m M M c f d v m K I T T U K [ _ ) _ m m m I [ I ) ,.| >.} ) | &.1.&.A [ >.2.| ) ' M.3.' S.,.I V P l m B k 0 k m 4 < e M } ) M m B ) | } ) B n n m n B ) ) I n ) ) ] M M M M m m m d n m n M M f r a c c m m m n m m d d k d k ] | | | ,.| | q.q.                                                                                                                    ",
"                                                                                                                                                                                                                                                                [ I I ' ' } } ' ' } ' } | } *.,.>.e.,.+.>.2.m.G.U.T.{.W.L.,.I >.e.&.Y.*X{.{.].F.>.D.>.] I V k I V d a r r f I f a f c e e r a 4 4 4 4 r 1 4 e < < 2 , , < 2 , , , , > % > , , > $ % % , , > > % $ $ $ % , , > % $ > , , > > > , 2 2 , a p 5 < < < 1 5 e a a g g G b L L J J J U K v v P U I [ ) >.L.I.                                                                                                                                                                                                                                                                                                                                                                                                                                                                                                                                                                                                                                                                                                                                                                                                                  # # # # # # # % $ $ $ $ $ # # # O O # # # # # $ % % $ # # O % 0 y 9 9 , d S.!.k a # $ : : 2 4 g G L L E W E L L T E L E W 4.4.@.s.(.I.i.@.4.L E E H : $ % % $ > , > > % > , a p d , 2 p p M V } e.H.G.e.&.,.} } M I U U I I I I I K m m l p g v P J v m I I U I [ _ ) } I P I [ [ I ) >.} } } { | >.&.` } 0.w.>.w.&.&.Q.` } e.] V V P m m k >. .a 1 , r M [ ) m m I I M m m n n n B ] | } [ ] ) B B I I n d u u u t u w t e e e r r 4 4 r r a a d d n I V m M B B n m V V { ,.,.| ]  .                                                                                                                  ",
"                                                                                                                                                                                                                                                              R [ [ ) >.} } ,.,.} | | | ,.,.,.e.,.2.2.2.>.v.v.U.].].{.U.e.[ V >.v.F.F.`.`.`.^.v.} D.,.I I m k I M d a r r f l e r r c d a c d 4 1 1 4 e < 1 e 1 2 2 , , , < < , , , > % > , , > $ $ $ $ % % % % $ % % % > > % > $ > > > > > , , , 2 2 e g v < 1 1 1 2 4 e p a g b b L L K v g P P v J I I [ } ) ) e.~.                                                                                                                                                                                                                                                                                                                                                                                                                                                                                                                                                                                                                                                                                                                                                                                                                      $ # # # # # % $ $ # $ # # # O O # # # # # $ % $ # % $ X # @ % % * % < k L.{ } k % % $ % , 1 6 g G L ~ L L L W L E W ~ ........p.I.$X).7...o.W L , $ % % $ , 2 , % % , , a f e , 4 5 a I V { G.H.v.{ &.| ) _ m T U P K I U U K K m m f g v v c g v v I I R [ I [ ) [ V I _ >.} >.} } | ,.>.>.} } } &.2.2.2.2.w.` U.W.` } ) B m V V m l I ;Xq.r < 3 m M M n k M ] B k k n m V ) [ ] } [ I V m m n d a r r r r r r u d m d a e e r e e e e 4 3 4 < e d c d n I | ] M m k n ) *.| ] ] R                                                                                                                 ",
"                                                                                                                                                                                                                                                            R I ) [ ) >.>.} e.,.| >.,.,.e.,.>.v.v.2.2.2.2.v.M.U.`.T.W.E.e.I B | 2.Y.U.].`.W.G.3.' | +.[ m k m I I d a a e f m e e e a m c c c a 4 < 4 4 < < 1 e 4 2 , , , , , , , > > > > , , > % > % % $ $ $ $ $ > , > $ $ % % % % > > % % > , , , < < p v p < < < 2 2 5 4 a v a g b G v p p v P m c K K I ) I  .+.H.~.                                                                                                                                                                                                                                                                                                                                                                                                                                                                                                                                                                                                                                                                                                                                                                                                                    $ $ # # $ $ % % % % $ # # O O O # # # $ $ % % $ # X X $ # % % % > % # , ' ) >.S.P 9 > % % , , 5 g H H L W W L H L Q Q ~ U 4.......J.~.(.).7...U 1 ; % > > , 4 2 < < < , 1 p r < a e d I ) } 1.v.!.v.e.} I I K R L I I T U I P K m m m v v g g c v v P J K T I  .) I I  .} +.} >.} } } ,.>.e.&.>.&.&.*.3.v.H.*.h.].2.} w.) ) V ) m m s J.I.w % , a m c n B N I [ B d k M ] ) ) ] ) ] V m k f d d a f n m c a a f f m I m c d a d e e e r e r r e 4 3 e r w a I [ I ] V V n V ]  .[ M R X.                                                                                                            ",
"                                                                                                                                                                                                                                                          I I [ [ [ [ +.,.>.D.e.,.,.>.,.e.2.e.v.v.e.2.2.v.v.G.U.{.W.G.D.>.M ) e.F.E.Y.].^.F.3.} ' ) } ) M I ) ) I m a r r f m e e w e c a e e d e < 4 2 , , < 4 2 < , > , , > , , > % > > , > > > > % > $ $ > % % > > > % % % % % % > % % % $ $ , , & 2 5 4 m I e 1 5 < 2 5 e p p 6 a g a e 4 d K M m P I P  .I I } *.~.                                                                                                                                                                                                                                                                                                                                                                                                                                                                                                                                                                                                                                                                                                                                                                                                                        # # $ $ % % % % $ # # O O O # # # $ $ $ % $ # X O $ $ O > > # $ # % q.<.S.D.e.>.} p % % % , 5 a b G H H L W W E ~ L W U U T [ [ <.I.-X$Xi...p $ $ : % > < 4 2 , , , , d a , e g d I ' { >.3.!.e.>._ I K P L G I I I K J J m v K K J v v v v v v J m m I I ) I ) I  . .} [ | } | ' >.v.2.{ >.} { -.c.j.v.#.R.[.` &.e.) I ) I B m d K.I , < e c c d I } ) V B k d M ] ) n m m k m d d d f m m M m c m c r r a a a d a a a a a w 4 4 4 a e a a a e r r e 4 w f n m M | | ) B m I [ I M I                                                                                                           ",
"                                                                                                                                                                                                                                                        [ I [  .} ,.+.>.>.2.v.>.,.>.| >.2.>.w.2.v.v.v.e.2.v.U.R.W.].F.e.} V | v.F.&.&.&.3.1.} } } I I I [ [ I d m M m a f m m e e e e d e 4 4 e a e 4 5 , , 2 < , , , > , > % > , > > % % > % % $ % % > % > > > > $ $ > % > % % % % % % % > $ $ , , , % 2 1 w M I 1 < < < < 2 4 6 p 6 a a 4 4 a K m m m P M T P ) ] ' ,.L.                                                                                                                                                                                                                                                                                                                                                                                                                                                                                                                                                                                                                                                                                                                                                                                                                        # $ $ % % % % % O # O O O O # # $ $ $ % $ O O O X $ $ % % % $ $ # w m P P k k P _ P 0 % % > , 4 a g G H H L H E W ~ T U I P R ..i.H.*X*XD.l $ $ $ $ $ > 2 > > > < e a 1 , , 2 e I [ } 2.>.H.,.} ) [ K K K K I K K K m J g f m m v v c m J v c m J m [ [ I I [ I I } +.| } &.>.{ 1.G.3.&.,.} >.c.h.#.M.h.@XW.` ,.' N B } I m m e e < % r d c a m [ +.} V k m I [ ) m d n n d k k m m M m r e e e r a r e e a w w 4 1 4 4 < < 1 < < 4 < 4 4 4 r 4 a c d e r d c n B [ | ] M n m I I M I                                                                                                         ",
"                                                                                                                                                                                                                                                       . .I [ [ [ | >.,.} >.e.>.>.>.| &.,.2.w.2.v.v.v.b.v.U.Q.W.`.Q.E.e.) ) e.>.e.&.&.} &.>.>.} [ ) V m ] m d a r f M M M m f r w 4 w a e 4 2 4 a a e 4 , , < , , , , , > % > > > > > % % % % % % % > > % , , % $ $ > > > % $ % % % % % % $ $ , , , , , 2 < 1 r I f 4 2 < 2 2 2 5 4 p p a 4 4 a K M c M I M I I ) ) ' } S.                                                                                                                                                                                                                                                                                                                                                                                                                                                                                                                                                                                                                                                                                                                                                                                                                            % # % # # $ # # O O $ # # $ $ $ % $ # O O O $ O % % % $ O X # % % % $ % % < B 2.2.Z q % % > 2 6 b G L E W W E W W R R K R W ..<.!.-X(.<.% $ $ $ $ > , > % % < c d % , < , 4 f V } v.O.,.[ [ [ [ I T I U U K P P v c g v v f d v c K v v v m P I I ) I V ) I I ) [ } ) ,.v.&.2.!.2.&.>.} 0.U.h.-.M.M.9XM.Z } N N ) ) V m p.I s % 4 c d d m ] ] V V B B ] | ] B n d d m I V M m f a w 3 3 < < 1 1 3 1 < w 1 < < < , < , , < < , < , < 3 < 4 < 3 r a a e d c n d d M ) ] I V n M M M M K                                                                                                     ",
"                                                                                                                                                                                                                                                  I [ X.+.) X.} } } | ,.} &.,.2.2.>.,.,.,.e.v.v.v.v.c.b.m.G.U.W.U.c.D.>.) ,.,.>.L.e.v.>.} 2.,.[ I I M k I m u a r r m M d r r d 4 4 e a 4 4 5 4 e 4 4 4 , < < > > , , , > > % > , > > % % $ $ % % > , , > % % $ % % > , , % % % $ $ % > > % > , , , , 2 , < < 1 a m d 4 2 2 < 2 2 5 4 p r 5 4 a P m m M m m M V ) ) I [ 2.H.                                                                                                                                                                                                                                                                                                                                                                                                                                                                                                                                                                                                                                                                                                                                                                                                                                  # # $ # X $ # # # $ $ % % # # X O O $ % % % $ $ X O # # $ # $ % % % 9 ) 2.v.&.y * % > : 2 6 G L E E W ~ L L T R U U T ..O.<.I.p.% $ $ $ $ > > > > > 2 m f w < 4 p p e m ' <.[ [ [ U I M I _ P I I J J J v c v v f f c c c m c v m P I I I P B V I I ) I ' ' ) 2.v.&.1.E.2.' ' V } E.U.2.E.G.M.` z N N N ) B k a.$XI < < r d d m ) ] m u n ) ] ] ] m u n m M m M m f u w 3 < , , , < < 1 < < < 1 1 4 < < < < < , < 4 2 , , , , , < , 3 3 4 r 4 e c c n n d d m I ] M d d M V R M                                                                                                   ",
"                                                                                                                                                                                                                                                T R [ [ +.) ,.} ' } | >.| >.,.e.2.2.>.e.2.e.S.F.c.j.c.M.F.F.G.U.M.v.,.] } q.&.e.L.e.e.2.} ,.+.[ I m m m I n a r a r f k w w 4 a a r d a 5 < < 4 w < < 4 < < < > > > , , > > > > > % $ > , % % , > % $ $ $ $ $ $ > $ > > > $ $ % $ $ $ > , , , > > , , , , , , 1 4 e v d < , < 2 2 2 < 4 5 5 4 c m c M m m P M m ) ) I ] } v.                                                                                                                                                                                                                                                                                                                                                                                                                                                                                                                                                                                                                                                                                                                                                                                                                                      # $ $ $ $ # # $ $ % $ # X X O % % % % % $ O X O # $ $ $ $ % % % @ , N 3.e.e.I < % > , , 2 6 G L L ~ ~ T K R ..Y W ..@...@.[ % % % $ $ % % > , , 2 p w e a 2 p p 4 f I [ I M I K P I I ) I I K m v v J J v g d c m m m m c v m P P I I I ) [ I m M V ) } _ 2.e.v.3.F.v.>.| } } 1.v.2.G.M.G.%.Z B V m V m m .Xq.1 % r r u M ] V m k n } 0.] B k d n m m M M c r w 4 3 3 3 < 4 4 4 4 4 1 4 e < < 4 < 4 4 < 5 4 5 e < < < 4 3 3 4 < < < 3 4 < < r r c m n n d d m I M n c c M M v                                                                                                 ",
"                                                                                                                                                                                                                                              I I I [  .} ) +.} ) ' } | >.>.>.,.e.e.>.e.e.e.v.E.M.c.v.v.F.H.G.W.G.v.w.) ' e.2.2.2.,.e.2.} 2.O.I M m m m ) k u r r r f f t e 4 e d c c a e < < 4 4 < < 1 1 1 < > > > > > > % > % > , % > , % % % $ $ % % % % $ $ > % $ $ $ $ % % $ $ $ > , , , $ % , > % , , , , 2 2 e v a 3 < 2 2 2 2 5 5 4 p v v c M m I I m V V I I I ] ,.L.                                                                                                                                                                                                                                                                                                                                                                                                                                                                                                                                                                                                                                                                                                                                                                                                                                    $ $ $ $ $ # $ $ $ % # # X X O % # # % $ $ O X $ $ $ # $ % % @ % % $ , k ) _ O.[ w < % % > , 6 g b G L L T W K U U U W ..W X.e % % $ $ $ % , > > , e I < 4 < 4 e 4 4 m ] ) P I M I I I I m I M K v c J J v a g v m m m J m P P P m M m I ) [ P c d l N ) ) } ' &.1.1.1.Z N k k N ' &.#.%.&.' B m P N m a d [ p < < a n I [ ] m n m I | ,.) k n B m m n n d r e 4 w e 4 4 5 4 4 4 < < < 4 4 < , < 2 < 4 2 < 4 < 4 < 2 2 < 4 4 e 5 < 4 3 4 4 3 4 e e r c M m n d c n m n d c M M a                                                                                               ",
"                                                                                                                                                                                                                                            I  .[ ) ]  .+.} +.,.| ' &.} } ,.,.>.e.e.2.e.v.S.e.v.M.G.G.M.v.F.c.M.H.2.*.V ' 2.e.v.2.,.2.>.>.>.| } I m I ) ) I k a e e n f w w w 4 d d e 4 e < < 1 1 < < < < < , > > > % > > > , > , < > % $ $ $ $ $ $ % % % % $ % % % $ $ $ $ % % $ $ $ , , > % % % > > $ , , , % > 2 , 4 m d < , , 2 < 2 2 5 p a a a f m I I M M M P M R ] } D.                                                                                                                                                                                                                                                                                                                                                                                                                                                                                                                                                                                                                                                                                                                                                                                                                                      X $ $ $ $ $ $ $ % # # O O # # # $ $ # O X X $ # # $ % % % % $ # $ % % < 1 1 r U  .s , % $ , 2 6 g G T L K U L L W ....U T < # $ $ $ $ $ > , 2 4 g [ 1 , 4 4 e < 4 m M I I I I I m I I M M M m f v K v v v v m m m M P I K K P c m m I P I m m m I I | } | &.&.*.&.*.2.} B B ) } ` &.' A B A B m V m M w d < % 4 n I [ ] V n n M M m m k k m V m n n d e e a a e e 4 4 < < , 2 , , , 2 2 < < 2 2 < 2 , < 2 , , , , , < 1 4 4 < < e 3 4 e 4 e d e 3 r d c M m d d d n m d r c v v                                                                                             ",
"                                                                                                                                                                                                                                          P I } <.} I [ } +.| ,.,.{ 2.,.} >.>.2.e.e.e.e.v.v.D.j.j.c.M.Y.H.G.F.c.v.e.] B } >.H.D.e.2.>.>.&.' ) ) [ [ ) m a m M a r a m f w 4 w 4 d w 5 < e 4 4 e < < < < < > , > > > > % > , , > > > % $ $ $ % % $ $ $ $ % $ $ % % $ $ $ % % % % % % % > % % $ % > > > , , 2 , , , 2 < < a d 4 < , 2 2 2 2 2 4 e p a f m I I I M P P I R I I ,.P.                                                                                                                                                                                                                                                                                                                                                                                                                                                                                                                                                                                                                                                                                                                                                                                                                                      $ $ $ $ $ $ $ $ # X X O # # # $ $ $ $ $ $ $ O % % % $ $ X $ $ $ % % % % , % e V <.B < % % , 2 6 6 6 b b L U L Y 4...X...4 $ $ $ $ $ $ > 1 e J d w r w a 2 p 4 c c c I V V K I P I I P m m K J J P g v v c m M M K M I M m M f m m P M m m M P [ [ >.} ' e.3.3.1.2. X,.A } +.e.} v.&.I ] } ) m k I J.M r % < a V ) V n m B V ) V m k k B B V m u e t r a r e e 4 2 < , < , , , > , , , , < < < , , , , , , % % & % , , , < , , 3 < < 4 4 4 a d e 4 e r m m m c r u M n u r d c b                                                                                           ",
"                                                                                                                                                                                                                                        [ _ [ O.e.>.[ }  .+.} O.>.} >.e.>.&.>.2.2.v.v.v.F.F./.W.U.M.c.v.H.Y.Q.M.w.w.) V &.3.oX2.,.,.} | ' ' B m I ) k d a a n m m m l m r 4 w 4 a 4 1 < e a e e 4 , , , , > , > > > > , > % % % > > % $ $ $ > % $ $ $ $ % % $ $ $ $ $ $ $ $ % % % % % % $ $ $ % % % , , , , , , , 2 < 5 2 4 a d 2 2 < , < 5 4 5 4 a d f M [ I P P M I I M M ) w.                                                                                                                                                                                                                                                                                                                                                                                                                                                                                                                                                                                                                                                                                                                                                                                                                                        $ $ $ # $ $ $ $ $ $ $ $ # # % $ # X X $ $ % % % $ $ # # $ $ $ # # % % % % % < } q.| d % % > 2 2 4 a a f Y Y Y ....o.W 2 # $ O $ $ $ > < 1 K f 1 r r a 4 e e a e M ) B m M M M I m m M K I P I J c J m g v K K M m P K P I m m f m l f K I I [ } | } | v.&.D.v.v.(.| l V I [ ) ' } | +.| } m f p.I.a > = a M M V n y n } [ M V m m I I B n d t t u a e 4 < < < , , % % % % > % > > % > > , , > , , % > , % % , % % , , , , , , 2 2 4 < < e d a r d r r d m m f r d c m u r d v                                                                                           ",
"                                                                                                                                                                                                                                      [ O.} +.<.q.+._ } X.O.[ O.>.} _ ,.e.>.&.e.e.2.v.m.Q.Y.W.^.[.^.F.c.v.c.U.M.3.,.) } w.e.H.' ) *.,.} [ V m m I I d a a u y m m a r f f e w e d 4 1 < 4 e 4 4 4 , , , , > , , , % > , > $ $ % % % $ $ $ $ % % % % $ $ % % % % % $ $ $ $ $ $ $ % $ % $ $ $ $ $ $ $ > > , , > , , , , 2 , 5 p v d 4 , , < 3 < < 4 p a f P P m m M m I I I I ] | H.                                                                                                                                                                                                                                                                                                                                                                                                                                                                                                                                                                                                                                                                                                                                                                                                                                                    $ $ $ # # # % % # O O O # # $ $ $ $ # # # # # $ $ $ % $ $ $ # % 0 &XD.2.A < % % > , 2 4 p J Y G Y U W X.4 # $ @ $ $ $ > , 1 d I w a r e r a r e a I ) I V M m m m c m K I m m K c c m m d f M M m c m M M I m v g d d f I [ [ ) } | } } ,.} e.2.G.L.} I m M  .| ] 0.} } | ' d k I. ., % 3 d m n u d n ) } V y u n M M M m a a a u a e 1 < , , , , , , % % > , , , > > , , 2 , , 2 , , , , , , < , , , < , < 5 < < < 1 < , 5 p r r a c a a a a m d w r c d a e d c                                                                                         ",
"                                                                                                                                                                                                                                   .[ +.0.e.e.<.e.>._ O.+. .) } >.} ) | e.r.,.e.2.e.v.v.Q.Y.U.U.^.+XQ.G.v.v.j.c.1.} ) *.,.*.&.| } *.b.} I V m l V I k d u y r f a w w r f a a f f 1 < < 4 1 , < 2 , , , > , , > > , , $ $ $ $ $ $ $ $ $ $ $ % % % % % % $ % % > > $ $ $ $ $ $ $ $ $ % % $ $ $ $ $ $ $ % % % % $ > , , , , 2 , , a v e , < < < 4 < 4 p g J m c m m M I V V M I } 2.~.                                                                                                                                                                                                                                                                                                                                                                                                                                                                                                                                                                                                                                                                                                                                                                                                                                                    # % % % % % $ # X O # # # $ $ $ $ # # # # # $ $ $ $ $ $ $ # % % O.D.,.v.| y * @ % % , 4 a p b G L W ..4 $ $ O $ $ $ $ > < M X.1 e a 1 , e a < e P I I M m M M M I I M m c v c g v c f c m I K m d M P m M m v v f m M I I [ ) | } ' | [ ' 2.2.D.e.' O.P m ) [ ] ,.B V { B y 1 f e , , a n d u w d ) [ I d u n I ] m k n a a d a r 1 , < < < 4 1 1 < , , , , , , > > , , 2 , > < , , , , , , 2 2 > , 2 , 4 e 5 4 1 4 e 5 2 4 3 4 4 c c d a r m c a r e r d e e a c                                                                                       ",
"                                                                                                                                                                                                                                  +.+.,.e.e.v.e.e.e.2.<.<.+.) } O.} ) } +.q.r.>.,.e.v.v.H.U.Y.G.F.W./.U.G.E.F.v.} B ) >.v.F.2.1.| | e.| I I m k V I l d a y r m s w w w r f f a p 4 < < 4 1 , , < 2 < < > > % $ > , > $ $ % % $ $ $ $ % $ % $ % % % $ $ $ $ $ > > % % > % % $ $ $ % % % $ $ $ % > > > > > % > > $ , $ > , , > , < 4 4 4 r 3 < , 5 5 4 p c m M M M I V m m m m I &.D.                                                                                                                                                                                                                                                                                                                                                                                                                                                                                                                                                                                                                                                                                                                                                                                                                                                      % % % $ $ $ # O O # # # $ % $ $ # # # # # $ $ % $ $ $ # % O % % 0 B ,.v.2.B 9 % % % > 2 2 6 a b W W p X % % $ $ $ $ % w I _ 1 a M e 4 e e 4 , r m V m M I M I I m f d v J c g m m c m K I M c c P I M I I c m f m M P M ) } | >.' >.| | ,.&.e.{ } ,._ ) V m ) V k B ) N a 0 a < % e M M d t d M ) M k u m ] M m d a f f d r w 3 1 1 4 4 4 w 4 4 , , , , , , > > > , , , , > , , , , % % % , > $ > > > 2 < < < < 4 a 4 3 4 4 e 4 e r r d d a a c c e e e a 4 4 p a                                                                                     ",
"                                                                                                                                                                                                                              X.,.,.e.S.S.v.e.2.2.e.v.,.q.+.) [ } | _ } } X.+.+.,.q.e.2.v.H.Y.Y.U.G.F.U.G.L.L.L.,.N | e.G.2.3.v.w.>.w.e.} ) I I I I V d u u a m a w w 4 r d r 1 w e < < 1 < , , , 2 , , > % $ % , > % $ $ $ $ $ $ % % % $ $ $ % % % $ $ $ % > > > $ % > % % $ $ $ $ % % $ $ $ % > > > , , % > > $ > , , , , , , , , e P  .I 4 5 < 5 4 4 a v P P I M m M M I M I } e.L.                                                                                                                                                                                                                                                                                                                                                                                                                                                                                                                                                                                                                                                                                                                                                                                                                                                      % % $ $ # X $ # # # # $ % $ # # # # # $ $ % % $ $ # O $ % @ % % * k &.F.v.` y < % % % , 2 6 b T T 4 $ % > > > $ # < m  .P 1 4 c a m a a e e r n n m I P m I M f a f m c f v K K m m m m f d c M I M I I c m d P M M M ] } } | | J.,.' | &.} &.} _ ) +.) m ) m n m k y X.[ r % 4 m M m d u M [ I u u m ] ] d t w r d c a w < < 3 w e 4 < < < < % , % > > > > > > , , > % % % % % > $ $ $ % $ % % % % % , < , % < 4 < 4 e a a r r e e r c c d r c d e 3 e r 4 4 p r                                                                                   ",
"                                                                                                                                                                                                                            X.,.e.S.S.D.v.v.2.e.2.2.e.>.<.>.' [ } +.>.X. .X.X.[ X.>.S.e.e.H.S.G.U.U.F.v.v.2.2.r.,.I >.D.=X^.G.c.&.{ ' { [ [ ] I m l I M f f m M f r r 4 e a 1 1 4 e < < 4 < , , , , > > > % % > , % $ $ $ $ $ $ $ % % % $ $ $ $ % % % $ > > % % $ $ $ $ % $ $ $ % % % % $ $ $ $ % % > > % $ % > % $ > , , % , , > , < a U 8.d < 3 < 3 4 p a d m I M M M I I I I ) } D.v.                                                                                                                                                                                                                                                                                                                                                                                                                                                                                                                                                                                                                                                                                                                                                                                                                                                      # $ $ # # X # # # $ $ $ $ # # # # # $ $ % % % $ # $ $ O O # % % % y ` 3.2.2.) w * % % , , 6 v K e O % % % % $ $ < I I a e < d d a e d e d m m m m M I I M f n m m c d m m K f d f m l f c c m V m I c f f d P M I I ) ] | ) } p.,.) } &.' ) ' [ ) q.+.m m f M I d @.L.P < % r m u w d n M ] m u d m M n u u f f a f r w w e r e 4 < % , % , % % % % % % % % % % % % % % % % % % % % % > > , , > , , , < < = , < < < 3 e r d c u r e d m c 4 r c r 4 3 3 4 4 4 r 4                                                                                 ",
"                                                                                                                                                                                                                          | +.w.b.H.D.b.v.w.2.v.w.2.e.2.,.>.>.+.} | q.@. .X.<. .+.>.e.e.e.D.G.S.G.Q.U.v.e.q.,.} ) ) >.D.oXoXc.&.&.&.} ) V ) I f a a f M M m f l m p w 4 e a 1 1 4 e e e e , , , , > > > , , > % > $ $ $ $ $ % $ $ $ $ $ $ $ $ $ % % % $ % % % $ $ $ $ $ % $ $ $ % % % % $ $ $ $ % > % % $ $ $ , , % $ > , > , , > , < 2 a c a e 5 < 3 5 4 p a M M M M V I M I I ) ] 2.D.&.'                                                                                                                                                                                                                                                                                                                                                                                                                                                                                                                                                                                                                                                                                                                                                              . .+.[ ' ' } >.&.} >.v.S.E.E.E.E.E./.~.E.H.v.e.9.[ m                                   $ $ # # $ $ $ # $ $ $ # # # # # # $ $ % % % $ # # O # X # # % % @ 9 z ' ,.w.} ' B * % % , 4 d 1 $ % % $ > > % 4 m M r e < a c 4 4 d a d a k m I [ [ I M f m M M m m K m c a g f f f f c c M m f m f m m K I I U I I [ [ ] } [ ) I } } ) ' ' V ) ,.} m d a m m d q.[ 0 % < e r w r d n d c u d m n u u u d n c a a e e r r r 4 2 , , , , , 2 , % % % % % % % $ % % , , , , , , , , , , , < < 2 < < 4 e e e 4 r r 4 3 e 3 t u d n r r u c d r r e r 3 5 3 4 4 4 e                                                                                 ",
"                                                                                                                                                                                                                        [ } ,.e.v.e.v.b.v.2.v.F.v.1.2.e.e.e.e.,.} | q.,.X.X.<.} +.>.<.e.e.v.S.D.v.G.G.S.D.q.q.} I ) 2.F.G.j.3.j.c.w.} ) m I m a a a y d m u r r a a w e r r 4 1 < e r 4 4 , , > , > > % > > , > % $ $ $ $ $ $ $ % $ $ $ , , % $ % % > $ % $ $ $ % % $ $ $ $ $ $ $ $ $ % % % > % % % % % % % > > 2 < 2 , > > , $ > < 2 2 r 4 4 c e < 5 < 4 4 a m m I V M V m M M M V { v.2.{ ) |                                                                                                                                                                                                                                                                                                                                                                                                                                                                                                                                                                                                                                                                                                                                                       I m l k k a f f k k m N ) ) ' { } e.2.v.v.H.H.H.H.H.b.e.D.H.H.H.P.H.H.H.G.S.,.,.}  .I     % $ # # # # % $ % % $ # O # # # # $ $ % % $ # # # X O # # # % % % % % 9 N *.2.j.2.h * % % % < > $ % % % > , % < M a r e 5 4 c 4 , e a a 0 f I [ [ I M m M M M c c m m M d d f f M P m c d m k k m I M I I U I [ I I ) ) I ) I I ) >.,.{ ,.} V I ) I _ k u n m < a a < % < 3 e a m M n d y f M M d u r k m m m r w e a r e 4 , < 4 3 < < < < < , 2 , , % % , % % % % , , , , , 2 2 , , , 2 5 < < < 3 e a d d r a c m m c u r d c n n u u n d e e r r 3 , 3 e 3 4 4                                                                               ",
"                                                                                                                                                                                                                      [ } ,.2.2.v.e.2.v.w.2.v.D.2.*.>.,.e.e.e.,.,.>.q.+.O.+.,.>.>.>.,.,.>.<.<.e.2.2.v.e.q.q.@. .P _ G.[.v.&.2.W.F.,.] B m I m a a s r a f r w w e d f d d r 1 < < w 1 , , , , > > % % % % > < , > % $ $ $ $ $ $ > % , , , , > $ $ $ $ % $ $ $ $ % % $ $ $ $ $ % % % % % $ % > > % % % % % % > $ , , , , > > > , , 2 4 4 < 4 4 a 4 4 < < 4 r p a f m m M m m m m m M ) >.D.' } ] |                                                                                                                                                                                                                                                                                                                                                                                                                                                                                                                                                                                                                                                                                                                                                 m f d a d s d a e 4 a c c m m f d d k n B ' ' &.3.*.3.1.G.Q.Q.Q.Q.U.M.M.v.v.F.D.D.D.H.L.H.D.>.v r , % # % $ # % % $ # # # # # # $ % % $ # # # # O O # # # % # # $ # % < k ` 3.k.3.N 9 % % % $ $ $ % > > % e a f r w 4 < 4 m d f a d f 1 d [ [ I V M M m m m c d m P I m m c c M M M m c K I V ) ) M I I M M I M ) I I N I I I [ +.e.| ,.[ I P ) [  .m u r a 3 a w % < w 4 r n M m y w f V m m u u d m m m a w w e a e 3 < < 4 e e 4 < , 2 < 2 2 , , % % , > % % % , , , , % , , , , , , 2 < < < 3 4 e r r u a a m M I ] ] I n n m M n d d d r e 4 < 2 < 3 4 < 2 4                                                                             ",
"                                                                                                                                                                                                                  [ [  .} 2.v.2.e.v.e.v.2.2.2.2.v.2.>.2.e.e.e.,.e.,.e.<.O.>.>.,.e.e.2.>.>.+.+.,.2.2.e.q.<.q.+.I m { !.eXoX1.2.E.D.*.) m M [ I d r s r a f r e 4 4 a f d d a 1 < 1 4 , > , , , , > > % % > , , $ % , % $ $ $ $ , 2 < 2 , > > % % % % > > % % % % > % $ $ $ $ % > > > % % % > > > % % % % % > , > > $ % > > > > , 2 2 2 < , 2 2 e d e < < 4 4 e e f f m P M M m c m V I ) e.2.} } |                                                                                                                                                                                                                                                                                                                                                                                                                                                                                                                                                                                                                                                                                                                                               T c a e e r a d e 4 a a r a a r r r p d d m n k V B I ,.} &.*.1.>.*.} } Z ) ' ' } &.&.*.1.G.^.E.8.m d e , # $ $ $ $ $ $ $ $ # # $ % % % $ # # # # # O # # # % # $ $ $ # % * y Z $.2.1.~.[ % % $ > > > , , , d d a d r e 2 4 f p K m ..K m d I V m V I I m f c f M M m M m f f f f m m a c I I I ) V m I I n M M M [ I I V [ I M I [ | B } [ } [ O.[ I m a r  .d a , % < 4 w d n M f a a n c r w r f m n f f r w a r r e < < 3 4 w e 4 < , , < < , , , > % > > > % % % % % % , % , , < < < 4 e r e e e e r f c m c c n M I ) +.+.] M ) } ) n d u r 4 3 4 1 < 4 < 3 2                                                                             ",
"                                                                                                                                                                                                                I [ ) } ,.v.v.v.>.e.S.e.S.q.>.,.e.e.>.e.2.,.q.>.,.,.S.e.>.<.,.,.e.e.,.| O.O.O.O.,.,.q.q.<.<.+.U M ,.oX<X/.2.>.P.H.} V I [ [ [ I k s a f m r w 4 1 w e 4 4 r 4 < 1 5 , , , , , , > > % > 2 2 $ % , , % $ , , 2 2 , , % % $ % % % > > > > > % % % > > > % % % % > , > % % % % > > > > % % % > , > , > > > > > > , , , , > , , , 4 c m e 4 < 4 4 e a f m m m m M M M M V I } e.| ' ' ]                                                                                                                                                                                                                                                                                                                                                                                                                                                                                                                                                                                                                                                                                                                                             c a e r w r a a r e e e r u r u a a e a d a r f m m V ) ) { A ) ) ) V B ) [ M V [ ,.,.&.*.v.Q.L.q.R r d d 4 > # $ # # $ $ # # # $ % % $ $ # # O # # O $ # # % # $ $ $ $ # % % 9 y ' >.e.q.d % > , < , < % < a d m I m a 4 4 f d d f U f K f m M I ) I M m c f f f m m f d f f m M I c a m M I ' ) m I [ M n M M M I I I V I I m m } ) N } @.X. .} I m m r M 8.a 1 % , < 3 a m f d e d M n r w w d n m m d r r r f a e 3 < e 4 1 < < < < , , , , > , > % % $ % % % % % % % < 1 4 4 4 e e e e a a d d d c f M I I [ M M I I M ] | } | | *.*.} B u d d 4 < < < , < 2 , 5                                                                           ",
"                                                                                                                                                                                                              I I [ } ,.r.D.F.F.,.>.p.,.p.,.O.,.S.e.,.,.2.<.q.>.,.,.e.e.,.e.,.w.,.,.,.>.} } +.+.+.+.q.,.,.<.O.I m D.^.F.v.>.} } { } [ [ I k m I I V V M M f 4 4 4 e 4 2 < e e 4 4 < , > > > > > % % % > , > $ % , , % , 2 2 , , > % $ % % , % % > % > , > > > > > $ $ $ $ $ % > > > % $ > > > > , , , > > > > % > > > > > , , > , , > % , , , < 4 m m < 4 < 4 p d d m m m m m m c m f M I +.e.] } } }                                                                                                                                                                                                                                                                                                                                                                                                                                                                                                                                                                                                                                                                                                                                         d a e w a a f f d y e w w r a s r r e a d r y d k k m m k ) I I | } ) V V N I m M I I ) ] ,.w.1.w.} f f r d a 4 , $ # # $ $ # # $ $ % % $ # # # # # # # # # # # # # $ # $ $ # % O % 0 N } ,.,.s > , 2 2 4 , < e f I I c a 4 2 g f a f I m f r m I I I I M m m m a a a d a M I m I m m f c I M ) } I m I I m m M M M M I M I I I m M [ N I )  .) I P m m M e I m e > $ , 3 e r d r 3 w m I M e 4 a f a f k r e r a a 4 < 3 4 r e < , , < 4 w w w w < , > % % % % % > , < 4 4 w e e e 4 w e 5 5 4 4 e e e d r r f f M B M ] | | [ } ] } w.e.,.,.*.] B d y 1 < < , , 2 2 , <                                                                         ",
"                                                                                                                                                                                                          I I ) _ >.,.q.e.,.2.D.e.O.>.} <.,.} } r.q.>.| ,.q.i.>.<.,.2.q.e.e.,.w.,.| >.+.[ ) } X.X.+.<.,.<.q.} K [ H.E.j.3.&.0.,.) I [ V f k d d P ) m d d c r w 4 e 4 < < 4 a e e < , > , , % % > % , , % $ , , < , , 2 , , , > $ $ $ % % % $ $ % % % > > > > > > > % % > > % > > > % > > > > > , , > > > , > > > > > $ % , , , , , > % , , > < < w I c 3 < < 4 d a m m M I m d d c m m M  .r.} ) ' '                                                                                                                                                                                                                                                                                                                                                                                                                                                                                                                                                                                                                                                                                                                                         d r e r r r a a a a r r w e d d r e e a a a l k m V I m f n n ] ] V B B V M V ) ) V B ) } *.w.1.} V u M a 1 , < 2 , , $ $ $ $ $ % $ % $ $ $ $ # # # # # # # # # # O O O $ $ $ # # $ # * y B | B > , > , 4 e < e M X.M c c e 5 f m e e I [ l r I [ I I m m m d d a m M f m K K I U m I I M m M ) ' B m I V k M m m I M I m P I M I I ) B ) V I I M l m d r 1 d p 1 $ % , 3 d u e e 1 r m f d w a c r r r r w a a r 4 < < 3 4 4 < < , < e e e w w e 4 2 2 < , , , , , 2 4 4 w e 3 < < , < < , , < < 3 4 w w e r r u d d k k B ] | *.,.*.*.1.w.e.2.,.| I f e < 2 , , , 2 , ,                                                                         ",
"                                                                                                                                                                                                        M I [ | } &.>.,.,.| >.e.i.>.} [  .X. .X.<.r.>.} >.q.q.,.2.e.2.<.<.e.w.*.} } } } } [  . . .X.@.r.q.q.[ m +.-X*Xj.2.S.e.,.} V I m n f d d V P d r r f c e e e < < < < e 4 < < , > > > % % > > 2 < % > , , 4 5 , , , , , % % $ % % $ $ & % % > > > > > > > > > , , > > > > > > > > > > > > % > > > > % > > > > > > > > , , % > > > , 2 2 < < 1 K P 3 1 2 2 e r a f m m c d v m c m M I ,.e.B ' ' [                                                                                                                                                                                                                                                                                                                                                                                                                                                                                                                                                                                                                                                                                                                                     d a w r r r e 4 e a a e e e a a a e e r r a d d d l f m m M m V } V l V m m V I ) { &.} ) V ) } *.) u t y a 4 < < , , , > % $ $ $ % % % $ $ $ $ # X O O # # # # # # % @ @ $ $ # # $ $ $ # % 0 m d > > , , 4 P m f  .} M m c 4 2 g f K [ I U m e m V V V m m m d d f m m d M I [ I I M M M c m M I m m k m m m I m M M m I m V V M I I I I V m V V m m m f 1 % w d , % % , 3 r r e w r a y w w r c c r w 1 w r f r 1 < < 3 < < < , , < 4 e 4 1 < < < 4 4 4 4 2 , < < < , < , = < , , < < < < < < 4 e 4 4 r r r u d m f d V m m V ) ) ] ] *.*.*.2.e.,.,.,.[ m r < & , & , , , <                                                                       ",
"                                                                                                                                                                                                    I M M I } | | &.| ,.>.| ,.q.q.,.[ )  .} O.,.,.q.<.O.O.<.<.<.2.q.<.>.,.,.,.,.} [ [ } } [  . . .X.@.q.q.<.[ m } D.v.G.S.v.,.+.) V ) V k k k k V B a a r r f c d r 4 < 2 < 2 , , , , % > % $ % , , , , 2 , , , < < , , > > % $ > > % $ > : $ & : $ , % > > > > , & , , , $ , , , & $ , > > , > , > , , $ $ , : $ : > > > > > > > > > > , 2 2 < < , e c e 4 1 < e p a a d f m m m m d v P M  .0.} B V ]  .                                                                                                                                                                                                                                                                                                                                                                                                                                                                                                                                                                                                                                                                                                                                  d r w p r e e e a a e r r r d r e e r d a u a a f k d f m M I M I m m k d k k k B | } ) ] ] ' } *.V y k a a 1 < < , , , 2 2 % $ $ # # $ $ $ $ $ O X O $ $ $ $ $ $ $ $ $ O $ $ O $ $ $ $ $ % % , < > , : 5 a m m [ r.| M m c 4 4 c f p I K m K f s m P P m m f a c a a e d I I I P m m n f f m m m f f k f V M I m m m f m m V M m I k m M m V V M m a r w r m m d # % , 3 r e e 4 d c e < < w c m c e 3 w r r d w < 4 4 4 4 1 , , , < 4 < , , , , < 4 4 1 4 4 < , , , , , , % < 4 e a 4 < < , < < < < < < < 3 4 4 e r w r f m m m I ) A ) { *.| *.w.w.,.,.{ n t < , , , $ , & 2                                                                     ",
"                                                                                                                                                                                                  I I I ) )  .} } >.,.2.,.>.2.,.X.O.[ [ } +.+.<.q.@.<.<.+.<.q.<.<.q.q.e.,.| } } +.+.} } +.,.[ +.,.,.@.q.r.q.I B i.P.} e.L.e.O.) I I [ ) m k k k B P a a r r a a e w 4 < , 2 2 , , , , , $ % > $ 5 5 $ , 5 2 , , 2 , , > % % % % % > > % % $ , 5 5 5 4 p e 4 e p 5 5 5 2 2 , , & $ % , > , > > , , , > > , , $ , > > > > > > > > > > > > , , 2 2 5 5 4 a M a < 1 5 4 e a d m m M M M P K K P I +.,.B m I [                                                                                                                                                                                                                                                                                                                                                                                                                                                                                                                                                                                                                                                                                                                                   d p a d r r p p a p e r e r e e r r a r r a e r f d f f m M I m m m m k f m m B V ] ) ) ] ] V } | V r I I a r e 4 2 4 < < < , , > $ # # O $ $ $ $ O # # $ $ $ $ $ $ $ $ $ $ $ O $ $ $ $ $ $ % % 5 2 2 5 a a n B w.e.[ m c v e 4 m m e e 1 d e I a m m V m f d a p e a d m I I m m c c f a f c d d f f f m I m m k m m m m m M V m m m I I V I V m M p e w I q.f , # # 3 c m e 3 e d c r 3 w d f r 3 4 e a d a 4 , 1 4 4 4 < , , , , 2 , , % , 2 2 2 e e e e 4 < < , , , < 4 w e r a a 4 , , , < , , < , < < < 3 1 4 4 4 e e e r a f m I I ) ] | *.| *.,.*.&.] m u < , , $ % , ,                                                                     ",
"                                                                                                                                                                                                I I I [ [  .} +.| >.q.,.,.,.>.+.}  . .[ } +.,.<.<.+.@.,.+.<.q.>.<.q.q.q.q.+.+. .[ +.} } >.,.} } +.q.q.r.q.X.m | P.L.} >.S.e.} ) _ [ ) [ _ I m I [ ) k a e r d r 1 4 e < , 2 , , > , > % , $ $ , < % % , 2 2 , , , > % % % $ % % % % % > , v P R R  .[ [ X.@.X.X.T K L K v v v v d a a a p e 4 2 , > > > > > > > , > > , , > > > > > > , , , , 2 2 2 4 r P c < 4 < 2 e a d f m m M I I M m m I } e.| n M R                                                                                                                                                                                                                                                                                                                                                                                                                                                                                                                                                                                                                                                                                                                                   a a a d e e a a a e e e r a r d d d c a a u w a a y n m k m m M m m V m d k V I B I M V m V ] { ] ) f m  .r a a e e e < 2 , , , , % % % $ $ # # # O # # # # # # # # # # $ # # # $ $ ; $ # % % , < 4 4 K R m d } e.| m M v e 4 4 m c r 4 1 e 4 r a m m k l m d e a v v v m m M c m c c m p a a a a a a a d k k f d m M M I m I M M I I [  .I m m M m a 0 r p.I < $ # = r m c 4 e e e e 4 w m I f 3 < 3 1 4 a 4 < < 4 1 < < , % , , , , % , , < 5 5 < 4 e 4 4 4 4 4 4 4 4 1 w 4 < < < < < < 1 4 4 3 1 1 < < < , < < < < < 4 4 1 w e r a a k m I ) } | | *.*.} } ] m r < , % $ , , ,                                                                   ",
"                                                                                                                                                                                            R [ [ ) ) _ [ }  . .} +.>.>.,.+.[ [ } [ } } X.<.<.q.q.@...[ O.+.+.O.<.q.<.<.,.+.,. .I | X.X.+.>.e.2.>.,.S.<.,.[ f | !.~.,.} } } O.[ [ I V V I [ [ I V M m a e e d e 4 1 w 4 < , , > > > $ > > , < 2 > $ % , < 4 2 , > % $ % % $ % % % % % < P @.@.X.X.8.r.p.a.8.X.X.9.X.X.X.W X.X.8.9.9.@...[ [ [ T T [ P m c 4 > , > , , , , $ > > > > , , , , , , , < 4 e c P a 4 4 5 4 p a f m M V P m m M M ) } ,.e.I m [                                                                                                                                                                                                                                                                                                                                                                                                                                                                                                                                                                                                                                                                                                                                 r e e r r e e a a a e e e a r r a r a d d f a a n f d n k f M n m m n f k k m V V I I m m m V [ ' ' ) m f m 1 w 0 1 p a < , , , > , > > > $ $ $ # $ # # # # # # # # # # $ $ # # $ $ $ $ $ % < < , < < e M m d V b.e.) m m v a 4 e f M m w p d d r r m l m P m c v v v v d a a g d c c c m a c a r a s f m f k k k M I V I I I I M ) ) I } } I f m M r r e a  .p > # % 4 e e 4 r c a 3 < 3 a M m r < < 3 < < 4 , , < < < < , , , < < , % % 2 5 5 < , , , , , , < < 1 4 4 4 < < < , < < < < < 3 < < < , , % , , , < , = , = , < < < 4 4 e r a d n m V ) ] } } } | ] I m a < % % $ $ :                                                                   ",
"                                                                                                                                                                                          [ [ [ } } [ [ | +.X.+.>.,.+.| +.} X.[ [ ) [ +.O.+.@.q.<.X. ._ [ X.+.+.<.<.<.@.X.} @...[ X.X.+.,.>.>.v.v.2.S.e.q. .M >.(.K._ I V m I [ ) V m m k P I d r y d f a a d 4 4 < 4 w < , , > > % $ > $ 2 5 , $ $ $ 2 5 4 2 , > % $ % % % % $ % , w f [ @.q.8.@.q.p.I.q.q.a.a.8.X.X.8.X.9.X.8.a.8.8.X.8.q.8.q.q.p.q.q.8.X.U 4 , , > > > > , $ % > > , , , , , > 2 4 4 r m m e < 5 4 4 a f M M P M M M I I I } | e.>.B I                                                                                                                                                                                                                                                                                                                                                                                                                                                                                                                                                                                                                                                                                                                                 r e a a r a a e r e w e a r e e e e r r r r r a f f k n f m m m n f f m k d m m M V I m k f m m V ) I k f u d w w 0 d l w , < , , < < 2 2 , > $ $ $ # # # # # # # # # # # # # # # O # $ $ , 4 < , < 1 r k u k ,.b.| m f a v a a e d K I I r d a w r n n P I M J J g a a d d a g a p a d d d P c a d M I [ I M I I ) I I ) I [ I I ) I ) [ I M k m f e r w < w e % # , 4 3 < < a c e < 4 r f d 1 < 4 e e 1 < < , < < < < , , < < < , % % , < 5 < , % % % , , < < < < < < , , , , < < < < < , % % , , < < , , , , , % % % % % % , > , , , < 1 4 e a f f M ] ] } } } ] I m r < & $ # & ,                                                                 ",
"                                                                                                                                                                                        [ [ } [ [ [ } ,.| [ } ,.<.+.>.>.+.} | } [ _ } ,.@.X.@.8.@.@.@.O.[ _ O.+.@.@.q.+.+.X.X... ... .O.,.,.&.2.v.v.G.S.<.I M | L.>.) _ K M m } [ I V l d k k t r w r f f a a 4 1 < 2 < , , > % > , $ , , 2 , $ $ # , 5 5 , > % % % % % % % % % , 4 p f I  .T 8.r.8.a.q.q.8.@.9.8.X.9.q.X.X.9.a.p.a.9.[ @.8.8.q.a.a.a.a.8.@.8.T a 2 , > > , % % % % > > , , , , , 2 4 < 4 a m d < 1 1 4 e a d m I I I I I I I [ } >.e.] M                                                                                                                                                                                                                                                                                                                                                                                                                                                                                                                                                                                                                                                                                                                                 f a a a r e e w e e e r r r e e r e e e e e a f f f f k k m f m k n n d d d m m I I m f f f m M M I M m y m [ r w w k M f r w w p e 2 2 , > > , % $ $ # # # # # # # # # # # $ % # % % % > < 4 < 4 m m k B B *.S.S.} V d a p e c e m I u } m f a I r k m I I K J g a a p a a p g a 4 e e e p d a d m I [ I I I ) ) ) I I [ I I V [ m I ) V m P f d f p r a 1 a < % , 4 e < < 4 a e 3 d M d e w < < a d w < , 2 < 4 1 < , , < < < , % , % % , 2 , % % , , , , , > % % % % % % % % % % % % % % % % % % % % % % % % > % % > % $ % % $ % % > > % > , < 4 e r f m ) [ ] I I M m r < % $ & &                                                                 ",
"                                                                                                                                                                                    [  .X.@.+.[ [ [ | ,.| | +.O.&.&.>.| | } | } _ [ +.,.q.@.@.@.X...O.O.X.O.O.+.X.@.<.<.q.X... ...O.[  .+.q.,.2.2.S.>.' _ m f | ~.q.[ I M M I } } V m d d m k r r w t d a 4 4 e < < 5 , > , % % % > > 4 < % > % % , < 2 4 , % > $ % % % % % % , 4 e w u d [ I m M R q.K.0.+.r.p.p.p.p.q.+. .8.a.q.a.8...X.@.8.@.X.8.8.q.a.9.8.8.X.v 5 , > , % % , > > , > > , , , < < , < e d m < 1 1 1 e e a f I [ I M I M V ) ' { e.*.I                                                                                                                                                                                                                                                                                                                                                                                                                                                                                                                                                                                                                                                                                                                                 a e e e w < < 4 e e e e 4 e e r e e e r d a a f f r m k f f n f k n f u f m m m n m f f f a c I I P V V f d } y r l V k a r p a a 2 , , , , , , , > $ $ # # # # # # # # $ $ $ # % < < 2 < 4 e a r m V ) B *.v.H.e.B k f a e e e 3 f ) m f a a y  .M m M I I J g a g v a p p p p p e p 4 e d a e c c K P l m P I I P I V V m k V [ m P V m l P m d f d w I a 4 % % 1 c c 4 r v m e e d c e 1 < 1 e e 4 < , , 2 1 4 < % , , 1 < , % % , , % , % % % , , < > > % $ $ % % % % % % % # # # # # # # # # # $ $ $ $ # # # $ $ $ $ $ % # # $ $ $ $ $ $ $ % % , , 3 t u n I I ] I M c e , % $ , :                                                               ",
"                                                                                                                                                                                  ) ) } } +.+.} | } ,.| | >.>.&.>.>.&.>.,.>.+.+.| O.,.q.q.q.@.X.X.X. .X.X.X.O.O.X.X.X.+.<.<.@.X.O.+.O.O.+.,.<.e.2.e.} [ _ I I >.!.,.) M I [  .[ ) V k f f m m a r w w a e 4 4 e 4 2 < , > , , , , , , , % $ % > , 2 , 2 5 % % > % % % % % , < < 5 4 e e d M R M M M +.q.[ +.a..X.XI.L.p.q.q.p.s.a.q.8.X.T @.q.9.X.9.9.9.9.9.9.a.8.X.K 4 , , , > , , , , > , , , < 2 < < 2 4 w a a 4 1 1 4 e a a l I I I ] I I ) ' ] >.0.}                                                                                                                                                                                                                                                                                                                                                                                                                                                                                                                                                                                                                                                                                                                               e r r a e 4 1 4 e a e w e e 4 4 r e r a a a a a m c r d f f n m f f d d d f d k m d f d c f d f m M I I ) m k [ e y } +.m 0 1 1 w f 1 , , , , 2 2 2 2 , > $ $ $ # # $ $ $ $ $ % % < e r 4 e e m I m [ ) N *.v.G.b.*.B d d d r a r w m [ k a d a a I M I I I I J g a g a a p e p 4 4 a p a v d a v d a K m k l m I V l m M m m k V ) m P m m f m c d f a f a.d < # % 1 1 4 r c c a 4 e d r 3 < < 4 e < < , , , , < < > > , , < , % $ % , , > > $ # % > % > % $ $ $ $ > % $ $ # # O X X X # # # # # # X X O X X X # # # # # O # # # # # # # $ $ $ # # $ # $ % % = 1 t d n M I m d e , $ $ , :                                                             ",
"                                                                                                                                                                              ,.p.} _ } [ [ [ +.>.| } | ,.>.>.>.2.>.>.>.,.2.,.e.>.O.+.q.,.X. ...X.X.O.....X.X. . .X.+.+.<.<.+.@.O.O.+.>.,.,.e.,.>.S.>.} [ X.I ,.L.O.I I  .X.} ) I m m M M m m m a e e a 4 4 1 4 p e 2 > , > > , 5 2 % $ > > , , > % , , > > $ $ % % # % , < < 5 5 4 4 4 r d R [ I  .0.+.| +.q.K..Xp.K.K.r.r.p.K.p.q.r.q. .8.a.q.@.X.9.X.9.9.9.9.9.9.@.I p , , , > , , , > > , , , 2 < 4 4 4 4 a I a 1 4 4 e a a k M I I I V V V ) ' *.e.|                                                                                                                                                                                                                                                                                                                                                                                                                                                                                                                                                                                                                                                                                                                               a d d a 4 4 e e e e e e e r 4 4 a r d a r r r f f a a d a d k d d f a d d a d I V m f a d d c c a n V I [ ) m k d y m V I w I K e f e < < 2 4 4 2 , , 2 < , % % % , < 2 % % % > < < 1 w w 1 e M m M I N } v.G.G.v.] I m a r r d d e m [ l 0 w f a d a M m m v g p p p e 4 6 a a a d a p v v a c c a e m a s d m I l f l m m m m B V V V m P m m c d d a q.a.e % # < 4 < e c c 4 < < r a e 3 < e a r < % > , < , , , > , , , > $ % > % > > % % % $ % % $ % # O # $ % % % # X X X O O O # O O X X X X X X X O X O O O X X X X X X # $ $ $ $ $ X $ X X $ $ $ # # # # % % , e d m m a 4 , $ & :                                                             ",
"                                                                                                                                                                          I [ ,.i.>.} ' [ [ [ +.} >.+.+.,.2.2.1.3.2.2.2.,.2.,.,.,.,.>.,.,.@.O. ...O.O. . . .+.+...+.O.+.,.@.,.<.,.+.} >.>.>.q.,.>.} [ [ U m f e.D.} [ X.r.X.[ [ I m m M m a a f c c d d r 4 < 4 e 4 < > > > > , 2 > > $ , 2 , , $ , 2 , $ % $ $ $ $ % , < < < 5 5 5 4 4 4 r m 8.q.q.r.r.@.0.J.~.K.+.,.p.r.r.p.K.r.r.a.q.8.q.a.q.9. .8.8.9.9.8.9.Q 9.8.@.T p , , , , & & > > > > > , < 4 e e a a M m w < w 4 r a l V I m M V V I ] ) ] ,.r.                                                                                                                                                                                                                                                                                                                                                                                                                                                                                                                                                                                                                                                                                                                              c c a e 4 e e e 4 4 e e e e 4 e e e e e e e a c f a d d a k f d a d d n a r M I m m f f r r m d a d k V ] I V l d k k w w y m I I r d a p a p < , , , , 4 4 < < 4 5 < 2 % , < 1 1 w 1 f I d r f m V ) &.1.m.G.e.} m M M f e r c d w l ) d m d r r < 0 a d v m g a g g a a a v a a e e e d p e d g 4 4 d p e f M I m f f d k P I V V B V M I m c f p e r M d 4 % , 4 1 < a a r < < e r e 4 < e a e e < , , , , , > > , , , , % $ % > > > % # $ % $ $ % $ O O O $ $ % $ $ X o X O # O X X X X X X X X X X X X X X X X X X X X X X X X X X X X X X X X $ $ $ $ o # # # % % % % 1 e e p 4 , # , &                                                           ",
"                                                                                                                                                                      } } M m } ,.S.) ) ) ' [ >.| ,.| >.,.,.>.>.&.,.1.,.>.,.,.>.>.,.O.+.q.q.+.O.[ O.+.+. . .X.<.+.+.+.>.,.,.q.,.,.,.>.>.>.,.q.[ ) [ [ _ V m m >.e._ } O.+.q.O.} [ V m M n a r r d v a e r 4 < 4 2 , , % > , 5 > > $ % , , , , % $ % % $ $ % $ $ $ % 2 < < < < < < 4 4 4 4 r a [ K.K.L.L.q. .p.I.J.,.@.p.p.8.q.q.q.a.a.r.q.q.q..Xa.8.p.a.9.X.X.X.9.8.q.8.8.[ a , , , , & > > , , , 2 2 , < 4 e r a m m 1 4 < 4 a f m m M I I I I M I ] | r.                                                                                                                                                                                                                                                                                                                                                                                                                                                                                                                                                                                                                                                                                                                              c a 4 4 4 a p 4 < < 4 4 4 3 e e 4 4 e 4 e a a a r a k u m m d u a a d c u f m n d d r a r f M m m m V V V M B m f a y y w a 4 4 4 d m a p p p < < < , 4 e < < < 1 4 < , , < 1 w r p e d k d f ) ] ] ' } 1.v.G.>.) V k m d e n c c w l O.d ) I r a w 0 a d v K g g v m c v d p 4 4 5 e e e e 4 d d 4 4 p a a M m P c d s a m I I V I ) ) m l m d e 4 1 , < w , # , , 4 a a e 4 < r a 3 < < 4 a d 1 , , < 2 , , > > > , , > % % % % % > % $ # # $ $ $ $ # O O O $ $ % # O X o X O $ # X X X . X X X X X X X o o o X X X X X X X X X X X X X X X X X X X $ $ $ o X $ o X # # # $ $ % < 4 5 , $ :                                                           ",
"                                                                                                                                                                    2.D.e.| m B } J.[ [ ' ' [ | } >.+.+.>.,.,.>.>.,.,.2.,.>.+.| >.e.,.>.,.<.<.<.+.<.<.<.X.X...@.<.>.>.>.,.e.q.,.,.,.2.1.e.{ e.} I I X.q.P k m ,.e.' } +.) i.,.} ) V n V f a r e a a 4 4 e 4 1 4 , , , , 5 , , % , > , , % < 4 % $ $ $ $ $ , % $ % , < < < < < < < 5 4 4 e e r k ,.P.P. Xp.X.XXp.p.+.X.q.a.@.+. .q.K.p.r.p.r.@.q.p.q.a.a.q.8.@.X.8.X. . .@.X.I w , & , , > > , , , < < , < 4 4 e a f U m 4 4 5 4 r f m V ) I I M M ) ] } +.                                                                                                                                                                                                                                                                                                                                                                                                                                                                                                                                                                                                                                                                                                                              a r 4 4 4 a p 4 2 4 4 4 4 e a e e e e e r d a r r d n d M n u a f d a f f m n n k f a r r f d d f m P V n m m m I I a w e r e 4 a e ..d < d a < < < w a 4 < < < 4 e 4 < < e a d U [ I V k ) +.} ] ) ) ' >.c.m.&.{ M a d a c I c a < f [ m I M r r m U p d a a p a a a v c v a r e e r d m f a c p e d d a m m d d d f f m I I m m B ) V l M M e 4 1 < e a a % # % , e m f 3 < 4 e 3 < = 3 r e w < , < < < < , > > % > , % $ % % % % $ # O O # $ % $ # X O O $ $ $ $ X X X X O O X X X X X X X X X X X X o o X X X X X X X X X o X X X X X X X X X o X o X X o o X X X X X X $ # # % , < < % $ :                                                         ",
"                                                                                                                                                                ) e.Q.Q.E.D.) k I r.} I [ [ [ | [ ,.,.>.>.+.} } >.,.,.,.,.O.[ } O.>.>.O.O.,.+.<.<.<.<.@.X.@...X.q.<.,.,.,.,.e.,.e.e.e.v.H.2.S.| [  .a.I V k B >.>.| i.q.) q.<.O.) V m M m a r e a e 4 3 w e 4 2 , , , 4 4 % $ $ % 2 < 2 > 5 2 $ $ $ $ $ > , % > , < < < 2 < < < < < 4 4 r w r a ) S.~.(.J.[ +.r.q.@.X.@.8.9.8.@.q.K.p.r.K.s.q.q.a.r.q.q.a.X.T R R P M m M M [ M < < , % , , , , , 2 < < < 4 < 1 w p m I a 5 3 4 w a n M I I I I M I [ } [                                                                                                                                                                                                                                                                                                                                                                                                                                                                                                                                                                                                                                                                                                                               d r 4 e e e 4 5 5 4 < 4 r r r e r e e r r d r r m f a d m u u d a d f n n d m k k f a r f f r r a a k k k n V M I I I m w 1 < d a 4 p d e e f e 1 0 a r 1 1 1 < p c e < e m m e r f d B ,.,.} [ V N ) >.e.v.1.} B V m f d n M c a 4 m _ l r e p s m K p p a a a a p p a d c a a c d r f M f p d 4 4 g g a f d d d d m m c I I I I V V m f M m e e 2 f [ f e # % , < e a r < 3 e < , , 3 e e < , < 1 < < < , % > > % > % $ % % % $ $ # # # # # $ $ # X # $ $ $ $ X X X X X X X X X X X X X X X X X . . . . X X X X X X X . . . X X X X X X X X X o o o o o X X X X $ $ X X X X X # # $ % > 2 , ,                                                         ",
"                                                                                                                                                              ' D.E.G.M.G.b.,.k m e.,.] [ ] ] } } ,.,.>.} [ [ | ,.2.,.&.,.>.} } } } +.+.>.,.+.,.,.<.<.O.X.@...O.q.q.q.e.2.,.2.2.e.2.e.v.D.,.| ) V I I I m k ' ' } 2.<.,.) } ,.@.[ I V m M m a r c a 4 2 4 e e 2 , , 2 5 2 % $ , , 4 2 2 , > $ $ $ $ % % > > > 2 < 5 3 < < < < < < 5 4 0 e w r a k >.~.(.r.X.@.a.p.a.@.8.a.9.q.q.r.r.a.r.K.p.r.q. .] [ ] I n I I ) | 2.v.e.,.S.e.' N w 0 < , , , , 2 2 < < < < < 4 4 e K c < 3 4 4 e f M M M M I I M ] [ +.                                                                                                                                                                                                                                                                                                                                                                                                                                                                                                                                                                                                                                                                                                                              a 6 4 e 4 4 < 5 4 4 < 4 e 4 3 e r e e e r a u u f d a a f a a d a a n f a f d a d f f a f y a a f a a u d m V ) ] [ [ I I f e w 4 < w 1 e I f r c f M d r w w 4 K I r w w w w k N } | >.+.) V m m N } 2.E.F.w.) m V m f a m M m p 1 m I f 0 r p p m m a g d c v a p p a d a e p g a r r p 4 e e 4 4 p p p p a v J d c c d m K K I V f f f c p e 4 5 [ I e , % % , e r w < < 3 4 < , < e e 1 , < < < , , , % % % % % $ X $ % % % # X # $ $ $ # # O O # # $ $ $ X X X X X X X X X . o . X X X X X o . . . X X X X . . . . X . . X X X X X X X X X X o X X X X X X X X X X X X X # X X # # $ % , 2 5                                                       ",
"                                                                                                                                                          B ' F.Q.U.U.M.b.w.0.m n +.L.] ] ] ] ' } | } } ) ) } >.e.e.v.>.e.2.,.+. . .X.@.,.,.,.>.O.<.<.O.X.@.X.O.<.+.<.i.D.S.2.e.e.2.2.w.) k V _ r.I I P f B ' >.e.D.>.[ ) ) I I I I m d f m m m c a 4 2 2 4 4 2 , , 2 , % > , 2 < 4 , % % $ $ % $ $ $ % > > , < 2 2 5 < < < < < < 2 4 1 e e r r a V e.D.r.i.@.8.q.q.@.@.q.8.8.q.q.@.+.[  ._ V m B ) | } 2.v.L.Y.E./.W.^.^./.Q.E.~.H.*.) d < , > , , , < 1 3 4 4 4 < < a c e 2 4 4 4 a f n M V I M M ] ]                                                                                                                                                                                                                                                                                                                                                                                                                                                                                                                                                                                                                                                                                                                                 a 4 4 4 4 4 5 4 4 4 e e 4 4 4 e e e 4 e e a e a d a a d d r d f a d f u u a a n d f d f n r f f f u t r a m B B ) ) ) | | I M f d w 1 1 1 a a < a a k s d a r 2 r 1 0 l P B ' *.2.w.w.+.[ I I M n A *.1.F.&.[ M M m c a m M V f p 1 M _ m _ m a s 0 s p v J P K c c m m m f d f e e a e 4 2 2 4 4 4 6 6 4 4 p g g a g a g c g a a r a c c d p 4 5 p ..c w # # % 3 a r 3 , < e e 1 < 4 e 1 , > , , , > % % % % % % # # # $ $ % $ # # # # $ $ # O O # # # $ $ X X X O O O X X X X X X X X X X o . . . . X X X . . . . . . . . X X X X . . . . X X X X X X X X X X X X X X X X X $ X # # $ # $ % , ,                                                       ",
"                                                                                                                                                        +.| H.H.c.c.Q.^.G.,.,.] d |  X,.] ] [ } | +.| } [ _ +.e.2.2.e.2.2.,.,.+.X.X.O.<.<.>.,.+.O.q.q.+.<.<.<.X.<.<.O.O.e.D.2.e.e.2.e.e.w.I ) I e.) M d I ) ' v.v.S.[ ) } } ) I K I M n a a m a w a e 2 4 2 , < , 2 2 , % , 2 4 , > $ $ % $ $ % $ % % % > , , 2 2 , , 2 < < 2 < 3 2 2 2 4 4 e r a f  .r.a.K.[ X.q.q.q.8.8.X.[ [ ) N N ) } &.} >.e.L.E.E./.^.^.^.Q.M.M.G.v.2.w.w.v.b.L.L.2.P 0 , , , , , < 3 4 4 4 < < e d p < 4 4 4 e d f m V M M M I [                                                                                                                                                                                                                                                                                                                                                                                                                                                                                                                                                                                                                                                                                                                                 e 4 e 4 4 4 4 4 < 4 e e < 5 4 4 4 4 e w w e r m a a f d a r f f d f r r a f m f u u d m f u f f f a e a f n d d m V N ) [ I I ) I I m f M f k r w 0 1 < < w w m I } 2.D.L.v.,.| } | | [ I V V m B } ,.&.} B V m M m f a V V m m p w m I f +.l p d 0 r M J g g c J K I K m f m m e e a e 4 4 2 2 2 4 4 6 a p a p a v J g m v g a d a c c c e 4 4 4 2 c p , # % 4 a e < < 1 e a 4 < < 4 4 , % > % % , % % % % $ $ $ # $ $ $ $ $ # # # # # O # X O X # # O X X X X O O O X X . o X X X X X X . . . . . . . . . . . . . . . . X X X X . . . X X X X X X X X X X X X X X X X X X X X X X $ $ $ $ $ % , &                                                     ",
"                                                                                                                                                        r.P.E.E.U.G.m.M.E.D.,.| m ) | >.) } 0.,.>.| >.[ _ _ +.e.e.2.2.e.e.,.>.+.+.O.} q.<.,.>.O.O.,.<.O.<.q.<.O.O.q.>.>.>.S.H.v.e.2.e.e.>.I I ,.J.I f M [ ) } H.e.} ) [ | +.} } I [ I n f a f e 4 4 e e 4 2 , , , , , > , < < , > % % % % $ % $ % % , > > , < < , < , 2 < < 2 5 5 5 5 5 4 4 4 4 e a M ,.r.q.+.[ [ I V [ [ M ) &.,.2.v.G.E.^.!./.E.!.L.v.2.*.} &.%.` ' ) ) ) ' ) ) ' &.v.!.H.) s < , , , 2 2 2 < 4 4 e p a a e 4 5 4 e a f f n m M m M I                                                                                                                                                                                                                                                                                                                                                                                                                                                                                                                                                                                                                                                                                                                               a e 4 4 < 4 4 4 5 2 4 4 5 < 5 4 5 5 4 e e e r a n u a d a r r f f d a a a a m f r a a f f u a c f d f d a a u u y y k I V ) [ [ } ) } } [ } [ ) } [ I M M f m ' 2.S.G.E.E.D.} ) I [  .I I I V V I | w.,.*.} B k n m c a f V V m f p 4 m P d I d p a p I f p g c g f f f f m m f d p e e p e e 4 5 4 a p 4 6 6 p p a v J m v a g c g f m f c e 1 4 < % 1 4 % # , e d w % , e e 1 , < < , , < < , > % % % > > % # O # # $ $ $ # # X # $ # X X o X O # # # X X X X X O O X X . . o X X X X . . . . . X X . . . . . . . . . . . X X . . . . . X X X X X . . . . X X X X X X X X X X X X X X X $ $ $ # $ , $                                                   ",
"                                                                                                                                                        P.E.Y.W.^.W.M.c.Y.E.D.| n V e.S.I +.q.>.>.| >.>.>.+.+.,.,.2.e.e.e.2.,.>.,.| } >.+.<.,.>.+.+.O.O.O.q.q.<.+.q.q.,.,.e.D.D.v.,.>.,.} I m k I P m I I ) ,.E.} ' } q.+.} | +.I  .I m f a f r 4 3 w p 4 < , , , 2 , , 4 < > % > % $ $ $ % % % $ $ > % , , , , < < < < 2 2 2 2 2 2 5 5 5 4 r e r d k ' e.} ' Z { e.e.e.2.v.H.E.E.E.E.E.H.v.M.v.>.} } ) V B k n m m k M m m V V ) P ) ' 2.E.L.) 0 < < 2 2 , , , 5 4 e p e a v d 5 5 4 w a a f m M M I R                                                                                                                                                                                                                                                                                                                                                                                                                                                                                                                                                                                                                                                                                                                               d a 4 e < 4 4 5 < < 4 < 2 < 4 4 < 4 4 4 4 e r a r r a r r r u d a r u m f f a r a a f a a u f f d d c f e r r r u d M I I ) ) } } [ } } +.} >.' } ) M m P I +.v.v.T.E.D.&.) B ) I [ M v M m l m B } 2.,.*.' V k m n d a n M V m f p 4 c m d s 0 p a m U 1 p a g d r r a d f a e e e e e 4 1 p p 4 g v a 6 a g p 4 4 p a a a p d g a f a a I a 2 4 1 < 4 < # % 4 e 4 , % , < < , < 4 1 % % , , , > % $ % % % > # # # # # $ # X O X # # # X X o X X # X X o X X X X X X . . . o X X X X . . . . . . X X o . . . . . . . X . . . . . . . X X X X . . X . . . . X X X X X X X X X X X X X X X X $ $ $ $ $ & &                                                 ",
"                                                                                                                                                        /.E.U.M.W.U.Y.G.c.2.e.,.B m } } I X.+.} } | >.,.,.>.q.,.+.2.e.e.e.e.e.e.e.,.,.<.>.+.O.,.q.q.>.,.+.<.q.q.,.q.e.e.v.2.e.D.D.,.I I [ _ ) m ) k m I I B e.;Xe.[ [ q.+.| +.} I I ) I f m M d w 4 4 e < , , , 2 , , < 4 , $ % > % % % % % % % $ $ % > , , , , < < < < 2 2 2 2 2 2 < 3 4 4 w w k z A { c.G.G.Q.Y.W./.W.E.E.D.F.S.e.1.*.} ) ' ) B n n B n n n n n d m m c m M k m m B ' ` 3.H.e.k < , , , , , 2 < < < 4 e 4 d v a 5 4 4 e a m m m M M [                                                                                                                                                                                                                                                                                                                                                                                                                                                                                                                                                                                                                                                                                                                               c e e 4 4 4 4 4 5 < 4 5 < < 4 4 4 4 e w 4 4 e a w r a r t u a a u r a n a a r a r a f u d n d a a a f a u a a r a m M m m m n ) ) B V ) ' ) ) ) N k k f M [ q.G.Q.W.v.' N m m I I M m c m m l ) >.v.v.e.*.V m k n k k n M ) M M m p 4 m m e e r r e v P e a a a d a a f m d e 4 4 e d f a a m a 4 a a 4 a v L G g p p p p a c d a e r a a I c 1 1 K P e > # , e 1 < < < < < , , < 4 < % % , % > % $ % % % $ $ O X # # # # O X X # # X X X o X X X X X o o X X X X . . . . . . X X . . . . . . . . o o . . . . . . . . X . . . . . . . X . . . . . . . . . . X X X X X X X X X X X X X X X X X o $ $ # $ $ $                                               ",
"                                                                                                                                                        Q.].].U.M.M.W.Q.c.*.w.e.[ m >.e.X. .} [ } ,.,.,.e.e.r.,.>.>.,.2.e.,.e.2.e.2.e.S.e.<.O.<.e.<.,.O.,.<.q.<.+.>.>.e.D.v.2.e.S.2.} } +.q.a.I M k I ) ) I >.;XS.} [ +.<.,.| ] ) V M I M m d d r < 2 4 < < , , , > 2 5 , % % > > % % $ % $ $ % $ % % , , , , , , < < < < 2 2 2 , < 0 9 9 k B } 2.F.U.^.^.W.W.Q.Y.U.H.v.2.&.' ) ' ' ) B I l m k n k n V n n n m d u f M c d d d m m V N A ' } H.} d < , , , 2 < < , , < 4 5 4 d c e 4 4 e a c m m M I                                                                                                                                                                                                                                                                                                                                                                                                                                                                                                                                                                                                                                                                                                                                 c 4 w 4 e 4 4 5 < < 4 e e 5 4 4 5 4 e e 4 4 a d r u a u r a d a a a f d r a r u r d a a n m r e r r m a a e r a f f a a a d m m m m M ) I m V ] V V m M I } b.E.Q.k.} m f c M m m M m l f m ' >.e.G.v.2.} M M m d m m V } [ V M v e 4 K m a m e r p a a 4 d c d f f d m m d e w d m P m a d m e p a e 4 a p g f f a g g a d c d p e r d a a f p 2 I m < # # , < , , < 4 4 < , , 5 4 2 , 5 5 , > $ $ % > % $ # # # % % # # O X X O O o o o o X X o o o . o X X X o . . . X X X o . . . . . . . . . . . . . . . . . . . . . . . . . . . . . . . . . . X . . . . X X X X X X X X X X X X X X X $ X $ # % $ % $ $                                             ",
"                                                                                                                                                      Q.Q.W.W.^.U.j.M.W.G.1.*.,.} n | >.[ [ [ | ,.q.2.2.2.e.r.q.,.2.,.2.e.,.,.2.v.1.e.S.2.<.} >.>.>.e.>.+.,.<.+.O.>.,.2.e.v.S.e.>.>.i.,.X.I.q.K m I } ,.,.) r.,X,.I I X.,.>.| ' V V k m M d e e e e e 4 < , , < , 2 4 5 > $ % > % % $ $ % $ % $ $ % > , , , , , , , 2 < 2 , < < 1 0 q N $.v.H.E.^./.U.m.F.v.2.*.*.} } ' B B I m m m m m m m c f k u d n k d d m m d n m d r r d d n M m k n N >.D.) 0 , , , , 2 < 5 5 < 5 < < e c a 4 4 e e d m M I I                                                                                                                                                                                                                                                                                                                                                                                                                                                                                                                                                                                                                                                                                                                                 a 4 4 e e 4 5 5 < 2 4 e 4 < e 5 < 4 e 4 4 e d d r u d a u a a r a a d a f a u a u a r a f r r r r d f r e e e d d r e r s l m d n B V ) ] V m n m m B ] } e.L.P.>.B m d d c M P P m m m m I | >.>.2.>.{ ) V M m d m I [ [ I V m v 4 4 m c m I e e p 2 p a a d p a a r a e e e d m P m a 4 a d p a d 4 e a 4 p p a p a a g c P g d f m I f r w p r [ p % O > < , % , 2 4 4 , , < < < % , 4 5 , % % % $ % $ # # # $ % $ # O O O O X X X o X X O O X X X X X X X . . . o . . . o . . . . . . . . . . . . . . . . . . . . . . . . . . . . . . . . . X X X . . . . . . X X X . . X X X X X X X X X $ $ $ # % % % $ $                                           ",
"                                                                                                                                                    H.W.W.U.m.U.H.m.w.m.b.v.>.} ) n ) [ ' ) [ >.p.S.D.D.,.>.,.,.,.w.,.2.e.,.,.3.2.2.2.D.v.e.>.>.>.i.q.q.+.} +.} | ,.2.e.v.D.H.D.2.,.>.O.I ,._ M M ) } q.q.' r.-X,.) I I V I ' ' B m m f m f e e e a 4 2 < , < 4 , < 4 , $ % % > % % $ $ $ % % % $ > , , , , , , , 2 , , , < < 1 0 N 1.E.W.E.S.v.2.2.&.' ' ] ) V I M V M m M I m m M m d d m m c m f a d f d a d d d m V M m f d r r d d r c n V p.q.e < , , , , < 4 4 4 4 4 4 4 p r 4 4 e e d m M I I                                                                                                                                                                                                                                                                                                                                                                                                                                                                                                                                                                                                                                                                                                                                 4 r r e 4 < < 5 4 5 4 4 , < 4 5 < 4 p 4 w r d r w a f a r a a a a d d d m f a a a f d a a r f f d a r r r a a a e e e a p m m d m M m I ] M M m m m V ) } b.D.>.B d f c m m M K m c f f M ] } >.2.} Z N V m m m f k I [ ) m m m a 5 e P c m I w e e , e d r a d m f p e a d m P P f p e e a a e d d 4 p e 5 a a 6 p p a g c K v m f f m f a w 1 < P 4 $ # , , > % , < < , , < 5 2 % % , 3 < % % > > $ % $ O # # $ $ $ X X $ O O X X X X X X X X X X X X X X . . . . . . . . . . . . . . . . . . . . . . . . . . . . . . . . . . . . . . . . . . . . . . . . . . . . . . . . X X X X X X X X X $ $ $ X # % % $ $ $                                         ",
"                                                                                                                                                  H.U.Q.].W.M.m.F.E.b.1.v.G.e.} ) n V [ <.) +.+.,.q.e.e.2.,.,.,.,.,.,.,.2.2.2.>.>.,.1.v.S.,.q.q.,.i.i.e.>.} ,.+.} O.q.e.e.v.e.e.' { e.O.P I I m m X.,.,.,.' ,.S.) ) I M m m I ) m m n d f d e 4 4 e 2 2 < , < 4 , 2 2 $ $ % % > % $ $ $ % % % % % > , , , , < < < 2 2 < < w 9 k ' D./.E.e.&.A ) ) N N m m B M m M V M M M M I M m I m c f M m a d d a d d a p p p c m ) V M f a a e r a a a d d ] r.P w , , , , 2 < 3 3 4 4 4 4 e a a 4 4 e a m I I                                                                                                                                                                                                                                                                                                                                                                                                                                                                                                                                                                                                                                                                                                                                   1 e r e 4 < < 4 4 4 5 2 , 5 4 5 < 2 4 < 4 e r w r f d r w r f f d d f f n d a a f f m f a d f d d r e a r a a e e e e e p d f m M I m m m f m m m c V ' &.v.>.I c c M I } [ P v d v v c ] | } } >.' N N n r d f k m B V m m k m p 5 a K f d a e d p K a a d m K I I m d p a d a p e 4 1 4 a a 4 e e 4 4 4 2 p a p 6 6 4 e a a a d e r p s e 1 2 < d < O $ , > % % , , , % , w 4 , % , , , , % % > > $ % $ O $ $ $ O X X $ O X X X X X X X X . o o o o . . . . . . . . . . . . . . . . . . . . . . . . . . . . . . . . . . . . . . . . . . . . . . . . . . . . . . . . . . X X X X X X X X X X X X $ X X # $ $ : $ $                                       ",
"                                                                                                                                                /.oX^.G.Q.^.Q.M.3.v.P.v.*.1.v.| V k m [ [ I ) } +.>.,.>.>.>.>.>.,.,.,.,.2.,.2.2.>.>.,.,.r.,.+.,.q.r.q.p.q._ [ [ +.O.,.e.v.e.,.>.>.&.,.r.+.) I m P  .>.,.2.} } S.>.I m c m m V I V M m d f d e 4 4 e < < 2 , 2 < < 5 , $ $ % % % % $ $ $ $ % % % % > > > , , , < 4 < , 1 k k B >.L.L.2.} ) V B m m m m M B m V V V I M V V V I k B m m n f M M d a d c c d r r d c c d k k m f a d a r a a r r u k ,.[ 1 < < , , , , , , 2 3 5 4 4 a v a 4 e r m I [                                                                                                                                                                                                                                                                                                                                                                                                                                                                                                                                                                                                                                                                                                                                   r r e 4 4 < < 4 < < 2 , < 4 < 4 < < < < 4 w e w a f a r e a d u u d d d a r a u a a c d d c d r a r r r r a a a d e a w a a f m m c f f r d a a a d M | e.,.B f d v I ' _ U P v d c c K +.>.,.>.>.} V I m d d f m I ' ) B M m c p 5 a K d > 1 p f d K d d c I m f d a p p e 4 4 4 e e e p d a 4 4 4 4 1 2 5 4 4 4 a b p 4 4 2 4 4 1 e w < < < < 4 d , O > > % > , , % % , < 4 < % , < 1 , % % % > $ $ $ $ $ $ $ O X X X O O X X X X X X X X . . . o . . . . . . o . . . . . . . . . . . . . . . . . . . . . . . . . . . . . . . . . . . . . . . . . . . . . . . . . . . . . X X X X X X X X X X o X X X X $ $ $ $ # $                                     ",
"                                                                                                                                              E./.].^.W.M.G.G.H.2.w.b.v.1.*.,.| I n k } +.[ I [ +.>.,.2.2.>.>.>.,.>.>.,.,.&.>.2.,.>.>.+.,.e.} +.,.q.>.q.q.,.X.[ } +.>.>.e.,.>.>.,.| ' a.[ _ M m I O.>.e.e.+.X.H.e.m d c d k V I M V M M f a r e e e < , < < 4 < , 2 % $ $ % % % % $ % $ $ % % % > > > , , , < 4 4 4 1 _ e.' 2.E.E.2.) ) I M n m m f c m V B V ) V B B V V B B l B m V m f m k d d d m m m d a d f m k y s d f d d a e a a a d u y ) p.k < < , , , , , < < , , 3 3 5 c a 4 e d M M M                                                                                                                                                                                                                                                                                                                                                                                                                                                                                                                                                                                                                                                                                                                                   a a r 4 4 < < 5 < < < < 4 4 < 4 < 2 < 4 e e e e r d a r r a a r r d d a r r a r u a f a f n f a u r r t r e r a d p d r a d c f d f m c a d d a f V [ ,.q.[ k f c v I } } I M m m c m R | &.>.} ' I I I m d d m M I ' ) m m m c p 4 d I d e a a m d m d f M K m d e e 4 4 5 4 a p a p a d a 4 r a d a e 4 e 4 p 6 6 p 4 4 4 e d p e e 4 < 4 < J [ e $ # > > > , , , % % , < , % % < 4 < , % % % $ $ $ X $ % $ O X X X O X X X X X X X X X . . . X o . . . . . . o . . . . . . . . . . . . . . . . . . . . . . . . . . . . . . . . . . . . . . . . . . . . . . . . . . . . . X X X X X X X X X X X X X X X O $ $ $ $ $ #                                   ",
"                                                                                                                                            (./.Q.M.U.Q.U.m.v.G.F.*.} v.c.*.&.0.| n d I q.<.I ' +.>.*.2.v.e.e.2.e.e.2.e.e.>.>.,.<.+.} } >.>.} +.+.,.+.q.,.q.q.q.} } <.,.,.,.+.q.} I m  .[ I M P U [ O.v.2.[ [ } } I d a d m M m f f m M a e e a p 4 2 , , , 1 , , , % $ % % % $ $ $ $ $ $ $ $ % > , , , , , 2 4 4 w l ~./.2.E.H.*.A ) ] m n m I m k m k V ) ) ) I V V I V m V V I m M m m m m m a a d m M f f a a m m d d a a a a a a a a f a y u n e.[ 0 < , , , 2 , , 2 , , 3 5 2 4 4 5 4 c R I                                                                                                                                                                                                                                                                                                                                                                                                                                                                                                                                                                                                                                                                                                                                     s a 4 5 5 4 5 5 < < < 5 4 < 2 5 < < < w e 4 e r a a r r r r u u a c a a r u a r r a d a a a a r r w t r r r p p p a a a a m m l k m n f a a d y k [ ,.q.[ V m m M I I _ I f d f m m ) } ,.*.) N k k m m f c d f m I ) B k d m v e 4 d J a [ f p d 1 e a a a d d p 4 4 4 4 4 a a a d d p a p 4 f m c a a d a p a g 6 4 5 4 e p f p e a a d e < U K , $ $ > $ , , , > % , , , % % , < < % % % > % $ $ $ $ $ $ $ O X O O X X X X X . o o o o . . . . . . . . . . . . . . . . . . . . . . . . . . . . . . . . . . . . . . . . . . . . . . . . . . . . . . . . . . . . . . . . . . . . X X X X X X X X X X X X X # $ # $ # $                                   ",
"                                                                                                                                          L. X/.W.G.c.m.G.m.1.v.P.D.*.*.1.v.,.| | M d I ) ) ) ) | | *.>.w.v.v.e.e.e.e.e.v.v.2.e.S.p.q.+.,.| +. .O.} O.+.,.@.X.,.r.q.i.q.+.+.) ) ) I M [ [ I M P T  .| ,.>.) I | } I m m m M m a a d a f a e w e 4 2 5 < , , 4 , , , $ > $ % % $ $ $ $ $ $ $ % > , , , 2 < < 2 1 w k L.tXE.c.H.>.A N M M m n n m m n m k l I I I I I I I I V m I I M f m m m n m d a a d c a d d a d c f m d a a c c d a a r r y u u | e.y < , , , , , , 2 5 5 3 < 3 4 4 5 4 m I ]                                                                                                                                                                                                                                                                                                                                                                                                                                                                                                                                                                                                                                                                                                                                     r e 5 < 5 4 4 < 2 < 2 5 5 2 2 4 < < < w w 1 e r r a a r e r a n m m a a a a r r u f a w e r a t e 3 r a r e e r e r r s f f f f M M a y d f f s P >.>.@.I c d f I ) I m g g d d k I | &.&.' ) m n m m r a f f c M ) B N k f M c 4 4 p m d [ a a a < , e a p s p e e e 4 4 e p e d d a p d a 4 m f e r p p e p a a 6 4 p a p 1 e p e e e e 4 2 m 4 $ $ $ ; > , % , > , < , % % , , < , # % % % % O O $ $ $ O X X X O X X X . X X X o o o o . . . . . . . . . . . . . . . . . . . . . . . . . . . . . . . . . . . . . . . . . . . . . . . . . . . . . . . . . . . . . . . . . . . . X X X X X X X X X X X X X X $ $ X $ # #                                 ",
"                                                                                                                                        ^./.Y.H.U.G.m.1.b.P.G.2.2.e.G.v.3.v.w.{ +.} m M [  .) } [ } } &.2.v.2.3.>.e.e.e.v.v.c.v.i.D.e.>.| } [ I U [ X. .@.X.X.[ <.i.i.q.,.} } ) [ } K.} ) m V M [ [ >.,.>.) M +.r.[ I R I M f d a a r d a e w w 4 2 < 4 < , 2 < , , % % % $ $ % $ $ % % % % % > , , 2 2 2 < 1 0 k H.oXv.E.G.2.' N n k k m m d d n M I V k V ) ) ) I I ) I I V I I m d a n n f m c m c d m c a d a a d f f a a d d a r r e w 4 e t y B e.d < , , 2 , , 2 2 2 2 < < < 5 4 4 r M I                                                                                                                                                                                                                                                                                                                                                                                                                                                                                                                                                                                                                                                                                                                                       e w 3 < 5 4 2 < < , , 2 2 , 2 < , , < 4 4 4 e e e r a r r a f m n f r r r d r a d a r e w r r 4 3 4 e 4 4 < 4 w w w r d k f u u f a a d d y y m O.>.O.) f f d m P m f a d d a d m ) | } ) P V m m M m d d a f M m V m k f f m c 4 4 d K f K e d a a a e a r p e d g g a v v p d P c c v v a p f e e f f d e a a g p a a d 4 4 e d d e 4 e 2 < v 2 $ $ X % > > > % , < , % % , < , > $ % , > % $ O $ $ $ $ X X X O X X X X . X X . . . . . . . . . . . . . . . . . . . . . . . . . . . . . . . . . . . . . . . . . . . . . . . . . . . . . . . . . . . . . . . . . . . . . . . . X . . . . X X X X X X X X X X X # O $ # $ $                               ",
"                                                                                                                                      ^.oXQ.Q.F.M.G.E.v.2.v.D.e.>.2.F.b.3.w.b.w.| [ I M I i.+. .[  .+.,.,.1.1.3.,.,.,.>.2.v.c.2.e.S.>.,.+.,.[ [ U U [  .[ ..@.O.+.q.i.i.,.e.e.) ) r.r.] ) V [ I [ [ | >.+.) m } i.I f c c K m d d a p d a r e e a < < 2 < , 2 < , , % % % % $ % % % % % % % % < , , , 2 2 < w y ^.<Xv.v.v.| ) B V V m m m M m d f V I V m V ) P V ' I ' I V V m V m d n m m m I m M m f n n a a a f m f a a f a a a a e r e r r r y k q.V < 2 , , , , 2 2 , 2 2 < < < 4 4 a m M                                                                                                                                                                                                                                                                                                                                                                                                                                                                                                                                                                                                                                                                                                                                       a e < < 4 4 2 < < < < 2 < , 2 < < , 2 2 < 2 4 e e e r r r d a a d a r r r u t d d r e e w r w 1 5 2 1 4 2 < 4 w 4 w d f f d d d a r u d u y m ' >.>.+.I f d f m m l a p p d a M ) [ } [ I M m m m f f f f a f m k d d f m m m v 4 4 d K 1 > r d p v T 4 d c a d d g v a a a p a a a a g a 4 e p 4 e d d a p d a g p e 4 p e e 4 e p 4 < < , > 4 > X X $ > , > % % > , > $ % , , , % $ , , % $ O O O $ $ O X X X O X X X X X X . . . . . . . . . . . . . . . . . . . . . . . . . . . . . . . . . . . . . . . . . . . . . . . . . . . . . . . . . . . . . . . . . . . . . . . . X X X . . X X X X X X X X X X X X X O O # $ $                               ",
"                                                                                                                                      E.G.M.G.G.b.v.v.F.v.2.D.H.v.2.e.e.>.&.,.e.*.[ I M I } } I I [ +.,.e.e.w.e.e.+.+.,.e.v.2.} >.O.} q.,.,.q.[ [ .. . .[  .+.O.+.i.i.p.S.i.,.) [ e.,.} n B I I I [ >.>.>.[ m _ ) m f d a m M m f d f r e p a a e 4 2 < , , 4 < , , % % % % % % % % % $ $ > , , < 2 , < 1 1 w ] yX/.1.v.&.B l m V I I V m m m f k n V ) ) V I I m m V I I I m k I V d m I V m M d n f f a m f a r a f a r a d a a a a r p a p p a a k +. .< , , , 2 , 2 2 2 2 2 < < 2 5 r c m                                                                                                                                                                                                                                                                                                                                                                                                                                                                                                                                                                                                                                                                                                                                           e 5 4 4 < , , 2 < < 4 , , 2 < < < 4 4 < 2 4 4 e r e r r a r u d r r r r r r f d e e e e e 4 < 4 4 4 e 4 4 e e e a a a d a d a r r r a w d I | ,.} I f a r d c f f a a e a m )  .} I k d f a d f a a f f f a d n f d f f m v e < 4 f m e 1 a a e c P e m P v v a p a e e 4 4 4 5 4 4 a e 4 2 2 < w e e 4 e p p p 4 4 4 4 < 2 2 < 1 1 , > % X , $ X # > % % $ $ % > > % % > 2 , % $ % , > # X $ $ O O X X X O X X X . o o X . . . . . . . . . . . . . . . . . . . . . . . . . . . . + + . . . . . . . . . . . . . . . . . . . . . . . . . . . . . . . . . . . . . . . . . . . . . X . . X X X X X X X X X X X X X O # # $ # #                             ",
"                                                                                                                                  ~.(.^.U.m.c.M.F.v.2.v.G.b.v.v.b.2.&.*.w.,.} e.e.I m m ) [ I M U [ +.+.2.e.e.q.q.+.O.O.q.r.r.} +._ [ r.>.[ +._ I  .X.@.+.} X.O.>.<.<.<.} } +.[ V V [ [ B I I I [ [ | ,.,.[ V | ) I d c d m M f d f d r e e a a 4 4 4 2 2 , 4 < , > % % % % % % % % % $ % , 5 < 4 e 1 1 1 y m b.~.&.e.&.) B N m V ) [ I M m f d m m k I ) V V [ P m V V V I V V V I k k M n f m a d a a a n n f a a a r r r e r a a a e r e e e r y k [ q.e , 2 , 2 2 2 2 2 2 2 2 < 5 4 a v                                                                                                                                                                                                                                                                                                                                                                                                                                                                                                                                                                                                                                                                                                                                             4 4 e 4 < , < 4 < , 2 , < < , , < 2 < < 2 4 w r d a r r r r f d a a a u r r f a w e e e e 4 4 4 4 4 4 4 e e e r d p a d a d d d f a r a V ) } } P k y a a c c f f d a w a m [ X.[ m d a d d d f a s s a f f d k f y f f c c e < < f f a.f e a w e e 4 d a p 4 2 2 4 a a a g a p 4 4 e e 4 4 1 e d e e 4 p p p a e a a 4 < < < < a 4 , > < < > $ X $ > > $ # $ % > > % > 2 < < # % > $ # O X O $ O O X X O O X . . . . X X . . . . . . . . . . . . . . . . . . . . . . . . . + . + + . . . . . . + + . . . . . . . . . . . . . . . . . . . . . . . . . . . . . . . . . . . . . . . . . . . X X X X X X X X X X X X O # $ # $                             ",
"                                                                                                                                  E.E.W.U.G.v.2.w.v.w.3.>.e.v.*.2.v.1.*.e.1.} | 0.[ m V I X.,.I U I } } &.,.r.r.r.q.q.<.,.@.a.@.r.} [ J.q.q.+.[ ) ) } q.p.p.i.<.,.<.<.>.B k ) [ >.) [ M V [ ) I I ' | >.>.} I } [ q.m d c I a e r r f a r e e e 4 < < 4 2 , 1 < , % % % % % % % % % % > , < 2 2 e p e e y k e.w.' w.>.) V V V V I _ [ I V M f a m I m k V V m m V ) V V m V V V V I M d a f d f a d f a a a a d d a a e e 4 4 4 r a a a r e 4 4 w w d V r.m , , , , , , 2 2 2 < 2 3 4 4 a                                                                                                                                                                                                                                                                                                                                                                                                                                                                                                                                                                                                                                                                                                                                                 4 4 2 4 2 2 2 , , < , < , , , , , , < 4 4 e e d a r r a a f f a a u r r a a r w w e e w 4 4 4 4 4 2 2 4 e e e r r c d d k f f c a t f ) [ [ I k s r a a d a e w r e a m M I I f u f f a a a a a f d d d f d d f a f m d g 4 < 4 m K s.d r f r = < a M c d g a 4 4 p a v v a r e 4 e a a p 4 p d e e e a a a a a d a p 2 1 1 e m 1 < , d f % X X $ > > % $ > , % % > , , , % % > > % # o O $ $ O X X X X X X . . . . o o . . . . . . . . . . . . . . . . . . . . . . . . . . . . . . . . . . . . . . . . . . . . . . . . . . . . . . . . . . . . . . . . . . . . . . . . . . . . . . . . . X X X X X X X X $ X X X # $ # $ $                           ",
"                                                                                                M M M                           ~.H.v.m.M.Q.M.w.2.1.1.v.2.*.1.2.w.,.*.*.w.e.,.] | 0.I d V ' +.I I I [ } >.| O.X.+.+.+.<.p.X.X...@. ._ q.+.r.q.+.q.| +.i.q.r.i.<.>.q.q.<.e.' [ +.J.[  .M I ] V V I ,.e.2.>.| ) ' ,.[ I m m m r r r r f m d e 4 4 4 < < < < , 2 < , > % % % % % % % > > , < < 2 4 a a d z N ,.w.{ ,.,.V m V M V I ' ) I V I M m f f I I m M I V m m P I V I I m M I I M k m M f a d d n a r a u r a r d a e 4 e e e r a f d a a e w t y d ,.M < , 3 , , 2 2 2 2 < 3 5 4 r                                                                                                                                                                                                                                                                                                                                                                                                                                                                                                                                                                                                                                                                                                                                                   4 5 < 4 5 < < , , < < < , , , , 2 < 2 5 4 e 4 e r e r d a a a u t r r a f r w w w e r e 4 < 4 4 2 < < < e e 4 w r a r a n d a a r r n I ] [ I f r r d c a p e 1 4 r f m M M f r r r e e e w e f l m f k f d m f r p c a 4 2 < r M d _ d r a r < w c d d m d a e 4 4 a d a e 4 < 4 a d d 4 < 4 1 1 r a d d g p a a a a 4 4 1 1 4 < < , m p # X $ > > > $ % , , $ $ , , , # # % % % % $ X $ $ O X X X X X X X . X X X . o . . . . . . . . . . . . . . . + . . . . . . . . . . . . . . . . . . . . . . . . . . . . . . . . . . . . . . . . . . . . . . . . . . . . . . . . . . . . X X . . X X X X X X X X X # X X X X $ # $ $ ,                         ",
"                                                                    m m c c m m M [ 3.' ' P V V V ) } S.,.I I I M M           L.L.G.M.m.2.v.b.b.w.*.w.w.e.*.1.1.*.} w.2.} ,.| ' [ >.} m m ) I ) I I  .} ,.>.O.+.q.i.i.q.r.X...[ T I I I I } +.} | O.O.,.O.>.>.,.O.O.>.,.q._ ) q.K.} ) m [ [ I I ] | >.2.2.,.} B e.} [ I M f s r e s f f a e e 4 4 1 < < , , 4 2 < > % % % % % % > 2 4 < < 1 4 e e w y h v.(.' *.,. .I m V M I ) _ I V ) ) V m n d m I m m V I ) V k I V V V m m ) I m m m n M n f a d r r a a a a a a a e r a e e r a a a a d d r u u d } I f < < < < , < 2 2 < 5 w e                                                                                                                                                                                                                                                                                                                                                                                                                                                                                                                                                                                                                                                                                                                                                       5 2 < 2 , < , 2 < 5 < , 2 , 2 < < < < < e e e r e a a r a a a r r r d a r 3 w 4 e a e 4 < 4 4 , 2 2 5 e e w p a e r a a a a a a f I [ ) I d w e r d d a e e 4 w a f c f f d a w w w 4 e e 4 r s d d f a w a c a e a a 4 < 1 f I m m p p a r m r e w e e e a a e 4 4 p d d e 4 4 e a d e 4 e 1 1 e e e p a 4 e 4 4 4 4 1 , 1 e 1 , , c > X X $ > $ > % > , % $ % , < , % % % % $ X X $ $ $ O X X X X X X X X X X X . . o . . . . . . . . . . . . . . + + . . . . . . + + . . . . . . . . . . . . . . . . . . . . . . . . . . . . . . . . . . . . . . . . . . . . . . . . . . X X X X X X X X X X X X X X X X X # O $ # $ $ $                         ",
"                                                                  c c m m M M K M >.].{.[.1.B ) ,.oXY.j.e.a.p.+.V B ) &.*.>.>.) *.w.v.H.v.2.w.D.D.e.,.w.w.w.1.v.b.&.*.w.} | q.,.[ } } m m ) J.} I [ @.+.>.>.<.+.<.i.J.q.O...X.[ X.[ I _ _ } O.} | q.,.<.2.,.<.i.S.<.>.q.| _ ) P } X.I M [ } I I [ } >.>.>.| [ ) | +.q.I M f r r s m l r 4 < 5 4 4 4 < 2 2 , 4 4 , > % > % , , < 4 a 4 1 < w a a e w s } L.*.,.,.} I I m K M V I ) ) V [ ) I m m f d M m d k I ) V f V V V k f M I M m f f a m m m a f u r a a a f a w w e a d a e e e w e e a d d d c k [ ) I a < < < < < < 3 5 w e                                                                                                                                                                                                                                                                                                                                                                                                                                                                                                                                                                                                                                                                                                                                                         < 2 < , < < < < 2 < , , , , < < 2 , 2 < 4 e r 4 e e u r r a a r a r a r r w r e r e 4 < < < < , < 2 4 4 w a a e r r a r u a r t m I I I m r e e e a a 4 4 4 4 r d k m f a e 1 < 4 4 5 4 a e w y r r a f w 1 e e a g a 4 2 4 m K < < p p a p [ e e l f d f a e p 4 w d a a e e 4 4 w e 4 e a e 1 1 e 4 e p 4 4 < < 4 4 4 < 4 p e % % < % X X $ > > % % < , % % , , , % # % , % # X X % % O X X X X X X . X X X . . . . . . . . . . . . . . . . . . . . . . . . . . . . . . . . . . . . . . . . . . . + . . . . . . . . . . . . . . . . . . . . . . . . . . . . . . . . . . X X X X . . X X X X X X X X X X X X # O O # $ $ $                         ",
"                                                              m m X. .m V ) [ V V >.9XrXiX-XI.:XyXjXeXeXjXjXMX1XD.' v.=X*XH.>.' Z Z ' ,.e.e.e.w.b.b.w.*.w.v.,.,.e.,.} ,.0.} ,.,.[ I ' I n I i.) I [ X.,.O.O.+.<.+.<.i.q.i.I.p.[ r.@.[ } _ ' { } } e.e.e.e.e.S.D.J.D.<._ B _ | P } [ m I  .[ I I I } >.2.>.&.+.| } } +.I f I f d f m d w 4 < 5 e e 4 1 < 2 , 2 4 , % % , , < < < e d 4 1 w p m p e k S.L.2.} >.) I m m f m M I I I [ I [ I I m m I m m m n m m m I m n V m M n m m M M d f r r a d r a r u r e a a r w 4 e p d a e e e 4 e a a a a a d m } }         3 3 2 < , 2                                                                                                                                                                                                                                                                                                                                                                                                                                                                                                                                                                                                                                                                                                                                                             2 < 2 2 2 < < 2 , , , , , , 2 , , < 5 4 4 4 r 4 e e r t r a r w r d a r r a r w e 4 < < < < 2 < 2 2 < 1 4 r a e r r a r a r w u n V M M d r r p a d a 4 e 5 3 a f f f a r 4 < < 4 4 2 4 e a a a r r r a d r e 4 e a p < < 4 M K d p p e p d q.f m I d c m m v 4 e a d a r e e w r a r e e p e e e e < 2 5 2 2 , 2 e 4 < < < < , % % > # X $ $ > > % > , % # > 2 , > % # # % $ # # $ % $ X X X X X X o o X X . . . . . . . . . . . . . . . . . . . . . . . . . . . . + + . . . . . . . . . . . . . . . . . . . . . . . . . . . . . . . . . . . . . . . . . . . . X X . . . . . . . . . . X X X X X X X X X X # # # $ X X $ $ $                       ",
"                                                          M m M M r.,.m P D..XJ.q.2.m./.*X;X$X5X5X3X,X,XeXtX5X-X=X*X0XsXyX1X2.} ' ' ) V ) | ,.2.,.e.b.,.} >.w.*.2.e.*.} 0.} [ } } ) I I d I >.P )  .@.q.e.q.q.K.K.D.J.i.I.&XJ.[ @.<.[ i.e.>.O.} ' | <.e.>.>.D.S.e.i.i.P _ ) <.q.X.) m )  .[ I )  .>.,.,.} &.| &.] ] ) m a l f a p d f r e e 4 e e 4 w 1 2 , 2 4 2 , < 4 4 < 5 4 a f f f l m d y k e.oX} { ,.' m M m c d f m I [ ) [ ) } I I k f m c M m k m m f M I f k k I m m m m m c c a t u a r a a f a r a r r e 4 4 e p 4 e p e e e p a a a r d V } >.P                                                                                                                                                                                                                                                                                                                                                                                                                                                                                                                                                                                                                                                                                                                                                                                 < 2 2 2 < , , , , , , , < < , < < 2 < 5 4 4 4 4 e r r r a r r r f u u a r w 4 e 4 < 4 < , < < 2 < < 1 1 e w 4 e e r r u w r k m m M m r e w e a d r e e 4 e a m f d a e 4 w 4 4 4 e e 4 e e e w w e a a p d a p p e 2 2 4 m P X.a a a p d m d f m m J d d m a a c c a d a e e d c a a d c f a a 4 < e a a e e 4 a w < 1 4 w < , d , $ X $ > $ % > , > $ $ , , % % $ % % % # # $ $ # O X X X X X . o o o X . . . . . . . . . . . . . . . . . . . . . . . . . . . . + + . . . . . . . . . . . . . . . . . . . . . . . . . . . . . . . . . . . . . . . . . . . X X X . . . . . . X X X X X X X X X X X # X X # O # $ X X X $ $                       ",
"                                                      m V V V V } O.B ) >.(.-X X/.Y.G.G.F.S.!. X~.oXOXW.^.Y.H.H.~.*X,X<X[.=X&X~.1.&X,.V +.+.) ' | ,.e.e.&.&.e.e.*.,.,.{ } +.} [  .) I M d ) p.} I [ O.+.,.D.i.!.i.<.@.<.!.J.i.,.} r.<.D.i.<.i.i.O.[ >.i.>.>.D.~.!.e.D.} _ [ i.<.} V M [  .[ I )  .| >.&.} ' } ,.>.' ) [ I f a p a a f a e 4 4 4 e a p 4 < < 2 4 e e p 4 4 4 < e f f f m P N k ) 2.L.} ) | [ I M M f d c f c I I I [ B ) ) I m m f d f m k k f a m M k d f I M d d d f m n f u a a a f d n f a a w w e 4 4 4 4 4 e e 4 e e e s a a d c M ' ,.I                                                                                                                                                                                                                                                                                                                                                                                                                                                                                                                                                                                                                                                                                                                                                                                 2 4 4 < , , , , < , , , < < , , , < < < 4 3 3 4 e r r r a a a a d u r r w 3 w e 4 4 4 1 2 < , 2 < 4 4 < e 4 4 e 4 4 e r w y d m V m d w r e e e w w r 4 4 e a f r a a 4 1 4 1 < 4 e e e 4 4 4 4 w w r a a a a p 4 4 2 2 e c m @.4 a a a < , a d a a c I m m m m f c f m c d a d d e 4 p m d p r e a m J v d m a d d e w e r e p [ > o X > > # $ % > % # % , % # % % % , $ # % % $ O X X X X X o . o X . . . . . . . . . . . . . . . . . . . + + + . . . . . . . . . . . . + + . . . . . . . . . . . . . . . . . . . . . . . . . . . X . . . . . . . . X X . . . . . . . . X X X X X X X X X X X X X X O O O O # $ X X X $ $ :                     ",
"                                                  l B B } ) P I H. Xv.G././.*XoXoXoX^./.^.H.[.,XE.*X<X].*X=XoX=X=X!.~.!.E.E.^.E.G.=X} I I ) Z Z B ) &.>.,.| *.v.>.*.e.*.[ +.+. .[ [ I m r m J.K.[ } } ,.,.2.>.q.<.p.a.+.i.+.>.| >.K.e.J.H.>.q.J.q.+.} e.e.,.e.!.!.S.<._ _ [ K.O.I m I } [ ) I I ] | e.e.&.} { >.,.} ) } q.m f d p d f r 4 5 5 5 a a w < 2 4 e 4 2 e a 4 4 4 4 d a r y y ) 2.~.S.E.L.' | ] V M m c d g K c m M m m [ ) m V I M m d a f m n d n n M V I f d m I M f a f m f f f d a d a r u a u u w e e e e 4 4 e 4 < 4 e 4 e r r a d a a P 2._                                                                                                                                                                                                                                                                                                                                                                                                                                                                                                                                                                                                                                                                                                                                                                                   2 < , , , , < < , , , , , , , , < < < < 4 3 e e e e e r r a r r r a r w w e 4 4 4 4 < 2 < , < < e 4 < 4 4 e e 4 4 e e w y m ) I m r e e e a a e r w 4 w e a r d f w 1 4 1 < < 4 4 w e e 4 1 1 4 4 w e a p 4 p 4 2 2 2 p m c m 4 6 a 4 < 4 p d a d a f a a l l d d f d a e e a r 4 4 e f d f m d c v a 4 4 d e r a e r r w < d f O X $ , > $ > > % $ $ % > $ $ > , % % # # % % $ O X X X X X o . o X . . . . . . . . . . . . . . . . . . . + + + . . . . + . . . . . . . . . . . . . . . . . . . . . . . . . . . . . . . . . . . X X . . . . . . . X X . . . . . . . . X X X X X X X X X X X X X X X X X X O O $ X X X # $ $                     ",
"                                                m B } { &X;X| } S.E.(.[.!.^.oX^.].=X~.*X1X^.^.>X].[.<X].>X>X[.2X=X(.,X$XH.(.E.^./.S.>.q.I >./.` B N ) } 2.*.} w.w.>.w.w.| O.X.[ I ) I M a m } D.} +.,.>.>.S.S.>.+.q.a.<.<.O.} | } O.,.i.q.{ O.>.i.J.,.| >.,.2.S.S.>.<.[ _ _ I [ I m I [ [ ) I I [ +.>.1.,.} | >.2.,.) } I d f d f l k w 4 4 5 4 a a w 1 e e e 1 2 p a e e e d f d y s ) D.1XtXF.2.&.} } I P c c c f f K c c m M m } >.) m V I M m n a a d d m m M I [ M k n m I m a f f d d f r r f a r w e r u a r e e e 4 4 e 4 2 4 e 4 w e r r r a a B e.>.                                                                                                                                                                                                                                                                                                                                                                                                                                                                                                                                                                                                                                                                                                                                                                                    , , , , , < , , , , , , , , , , < 5 < 3 4 4 4 e e r a a r r r a a r w w w 4 4 < < < 2 < < < < 4 1 4 1 e p e r 4 4 4 e f m M V f r e w r f a e p e e r d c r d e 3 < < < < < 4 1 < 4 w 4 4 4 1 4 w < e a p 4 4 , 2 2 a v p 2 4 4 p 4 T c a c g v e p d f m m m f f a r 1 e a r w e p a d m m p a a p 4 e d e 4 4 w r a w > e , O O $ > $ $ , > $ $ > , % # % > > % # $ # $ # O X X O X X X X o . . . . . . . . . . . . . . . . . . . . . . + . . . . . . . . . . . . . . . . . . . . . . . . . . . . . . . . . . . . . . X X X X . . . . . . . . X . . . . . . X X X X . X X X . . X X X X X X X X X X O O # # $ $ # $ $ $                     ",
"                                            v M B 2.1X*X1XsX!.D.H.H.E.+XE.oX0X[.^.>X/.*XsX].[.<X^.[.*X].=X>X*X0X[.-XdX&X!.*X!.^.=X/.!.e.O.D.;X} B ' F.v.*.v.} >.2.,.&.2.,.} }  .I I I I f m I B ) [ +.e.D.i.r.i.q.X.q.p.2.S.v.S.e.,.&.2.e.} >.O.O.,.,.O.,.S.v.,.,.| k I I O. .[ I M  .} ' I M I ) | | 2.| ' ' } >.2.} P } X.I K P M f e e 4 e a d d a a a 4 4 4 4 a g p a d M I r.O.B } e.3.} ` ` >.>.) I c d c v a f J c m I  .m I +.} m m I I n d f d d u d f m M V V m k k n f a f d a r a e r d a a r r r r a e < 5 4 4 4 e 4 5 4 4 4 4 r a r r a f N 2.>.                                                                                                                                                                                                                                                                                                                                                                                                                                                                                                                                                                                                                                                                                                                                                                                      < , , , < , , , , , , , > , , < 5 < < 4 3 3 4 e a d r w e r a r w 1 3 w 4 4 < < < < < < 2 < 4 < 4 w e e e e 4 4 w r M M m f w 1 4 w e a e r a r w a M f e e 3 < , < 4 1 < < < < < 4 4 4 e w 4 4 1 < e a 5 5 , 2 5 d p 2 2 6 p 4 < K m p g m g a d a a f k f p a p a r d d r 4 e a r d m d w p 4 4 a e a 1 < e e w e < % > % X o $ $ # > , % X $ , , $ # $ $ % $ # # $ $ O X O $ $ O X X X X . . . . . . . . . . . . . . . . . . . . . . + + . . . . . + + + . . . . . . . . . . . . . . . . . . . . . . . . . . . . X X X X . . . o X X X X . . . . . . X X X X X X . . . . . . X X X X X X X # X X X X O # $ $ # O # # $                   ",
"                                        M m m I V S.dXiXF.D.H.(./.H.E.=X*X/.<X*X(.2XoX(.,X/.oX,X^.[.[.[.=XOX*X1X^.*X1X[.*X[.H.!.~.(.(.(.K.p..._ 3.tX1X0X].j.2.| ,.2.&.1.2.| ) +.[ I [ I f f I I I ) >.,.q.q.q.i.J.q.D.S.j.j.F.F.v.v.&.j.2.2.e.<.@.[ O.O.>.e.H.e.2.} ) I I <.<._ m M  .| } ) M I ) } } } { ) ) ' | >.| N V <.q._ _ P m a a a d a e r a c r 4 e e p f m m m l P <.L.H.e.v.,.) B ' | +._ m m f a m m a a v c c f I V k V ) I n M m m f u r f f d a m n d d d n d f n a p a a a a a r r e a a r e w 4 w 4 4 4 4 4 4 4 4 4 e e 4 e r a a a f N e.                                                                                                                                                                                                                                                                                                                                                                                                                                                                                                                                                                                                                                                                                                                                                                                          < , < < , , , , , , , > , < , < < < 1 < < 4 e a a e 4 e e a e 4 e 4 e 4 < < < 4 4 < < 4 < < 1 w e e e r w 4 4 w p l f m s 1 < 4 e e w 4 e p 4 4 d P r 4 4 4 < < < < < < < < 1 < < 1 4 4 e 1 2 e 4 4 4 2 2 , 2 4 v g v 5 4 p 4 5 v a p g f a a d d r d a a e a a f d d a d r e w w d n s w a 4 1 e 4 e e e 1 e 1 < , $ X # O # $ # % , , # # % > $ # $ $ $ % $ $ $ $ X X X O O $ X . X X X X . . . . . . . . . . . . . . . . . . . . . . . . . + . . . . + . . . . . . . . . . . . . . . . . . . X . . . . . o X X X . . o o o X X X X o o X . . . X X X X X X . . . . . . X X X X X X X X X X X # O # O O $ $ O O X $ $                   ",
"                                      m V m M ) ) ) 2.H.O.i./.<X<X^.W.>X0X/.=X*X/.*X(.E.G.G.E./.Y.Y.Y.^.^.^.^.oX[./.^./.=X(.~.&XH.H.|.-X~.J.2.O.E.mXpXiX,X3.} ,.>.,.,.*.*.,.] | +.) I I f d I K.[ ' ,.S.>.O.+.<.i.i.!.H.G.U./.F.>.(.2.j.v.e.e.>.+.[  ._ _ >.e.S.| <.>.[ I ,.+.I c m [ | *.] ) ] [ { *.} } ) ] +.| } } ) m V ) ) } m m l m f p w t w f f r e e a f m l I _ m I } } &.2.>.) B ) } } ) P m m m f m P c p d f f m m I V k M ] I I m k d u u d M d d m n d d f m f k m f a r r r a r e e w e a e 4 1 1 4 4 4 4 4 4 4 4 e 4 4 4 4 4 e a a a a B                                                                                                                                                                                                                                                                                                                                                                                                                                                                                                                                                                                                                                                                                                                                                                                             < < < , , , , , , , , , , , , < < < 1 < < e e e e e 4 e e e e r r 3 3 4 < < < < < < < 4 < 1 4 4 4 e e e w 4 4 w a f l l w 1 < 4 e r e w e e 1 4 c d 1 4 4 < < , , < < 1 1 1 4 1 1 4 1 < < 1 1 4 e 4 2 , , < < d a v J 2 4 p p 4 p 4 p g p e e a f a a a c c m c c a a e a d a e w a a e 4 e 4 4 e 4 4 e 4 2 e 1 < > < 2 # X # # # > < > # % > % O # % % % $ $ > > $ X X X O X X X X X X X o . . . . . . . . . . . . . . . . . . . . . . . . . . . . . . . . . . . . . . . . . . . . . . . . . . . . . . X X X X X X . . o X X X o o X X X X X X X X X X X . . . X X X X X X X X X X X X X X X X X X X O O $ $ # O O $ $                   ",
"                                    m m M P I >.e.' P +.J.(.0XgXiX<X^.OX1X[./.!.J.S.D.H.H.G.S.v.S.G.H.H.G.H.G.L.E.!.E.!./.~.*X X^.*X[.|.*X*XH.S.2.,XiX1Xv.' B ) ' ,.0.,.} >.] ' >.} [ I f a I +.V [ e.H.&.>.2.e.D.i.!.G.F.Y.Y.v.| L.2.G.oXH.S.D.>.X.O.} ) | ,.e.>.q.@. .I m _ I f P [ } *.{ [ I ) } *.*.} [ [ } | | >.,.' m } H.D.} B m P f s d d y M l s a l M P m P D.p.P I } _ ) B N I ) I I P V V V m m f f m d e d f f M l m m m k V ) I V d u a c n n k d a d d f f n f f a a a a p e e e a e e r a w w r a e e 4 4 4 4 4 4 e e 4 4 w w e e e r u B                                                                                                                                                                                                                                                                                                                                                                                                                                                                                                                                                                                                                                                                                                                                                                                               2 2 2 , , , , , , > , , , , , < 1 4 4 4 r e w e 4 4 e 4 3 e e e 3 3 4 < < < < < < < < < 4 w 4 e e w e e 4 e r f M m d 1 < < 4 e e 4 e e r w e d e 4 w 1 , , < < 1 1 < < < < < 1 1 1 1 1 < 1 4 4 4 2 , , 2 4 J c K c 2 4 4 4 2 > 2 e e w e p r w w e a P I m a a e e 4 e a p p a d p e 4 4 5 4 4 4 1 4 1 1 4 1 < , K d # X # O % , % O % , % # O # > > $ $ $ > > $ X O $ $ X X X X X X . X . . . . . . . . . . . . . . . . . . . . . . . . . + . . + . . . . . . . . . . . . . . . . . X X . o o . X X X X X X . o X X X X X X X X X X X X X X X X X X X X X X X X X X X X X X X X X X X X X X X X X X # $ # # # $ # $ $                 ",
"                                  M P [ I M P &X;XO.q.K.(.eXCXVXCXpX>XW.].E.H.S.e.q.e.S.S.S.D.D.G.H.H.D.S.e.S.S.D.D.H.H.S.D.~.~.oX*X^.[.>X=X*XY.v.j.tXoX` ) I B B ] | | ] >.| } +.} I I m a I ) B | e.H.>.3.2.1.~.~.H.E.^.Q.F.H.| ,.3.m.oXG.v.E.<.q.@.+.[ ) O.O.[ m [ [ I l _ M f I [ } &.*.[ I [ >.>.*.{ [ [ [ } +.,.,.} I m e.2.e.>.) B m V V I ) ) V ) [  .) O.P } 2.q.I P I m n m ) I M I M m m m m f a s a c d a a f m f f d a k n n n m V d f f m f f M d r d c M m f a r r a r r r r e a a e e e e e e a d a e 4 4 4 4 5 4 4 4 4 e r e 4 4 e r u m                                                                                                                                                                                                                                                                                                                                                                                                                                                                                                                                                                                                                                                                                                                                                                                                 2 2 < , , , , , > , , , , < < 4 w 4 4 e 4 4 w 3 3 e e e r 4 4 4 4 3 < < < < < < < < < 4 4 4 e e 4 e e e a a m m f e < < 4 4 4 e 4 e e e w a c a e 4 < , < < < < < < < < < < < < 1 4 e 1 1 4 4 4 4 2 , 2 e K a p < < 4 4 p v p d p e 4 a m l a a d f m m d e e e e < w e e e r a d e e 4 2 4 1 e 1 4 1 < < < > < c > X o O $ , , % O % > % O # % > % # $ % > $ X X X O X X o X X . . . . . . . . . . . . . . . . . + + + . . . . . . + . . . + + . . . . . . . . . . . . . . . . . X X X . o o X X X X o . . . . X X X X X X X X . X X X X X X X X X X X X X X X X X . X X X X X X X X X X X X X X X X X # # $ # # $ $                 ",
"                                v M T I._ P B O.<.p.L.!.*XdXVXIXVXVXpX{.j.2.G.D.q.e.e.D.&X XS.H.P.H.G.D.S.S.S.L.L.e.e.D.v.>.>.2.H.oX[.>X[.iXsX>X^.Y.E.aXL.I.K.V B B ] | ] | >.} } | ) ] I a M K.,.2.2.*.%.2.F.} S.!.H.(.oXW.&.v.| e.v.M.E.2.j.j.} +.X.+.<.} [  .I f I U O.U _ M m [  .} } } ) I } ,.w.>.] I ]  .} | } } | } B Z G.D.!.~.D.+.) O.,.e.' B V I ) O.i.} P { } M d n m ) [ ] I M M m f f f l d a p p f f f f m m f m l d d k m f f m d m c a a f m n u u r a a d a r a d a r e e e a a r e w e e w 4 4 e e 4 4 4 4 5 4 4 4 4 e e w w e p a a m                                                                                                                                                                                                                                                                                                                                                                                                                                                                                                                                                                                                                                                                                                                                                                                                   2 < , , , , , , , , , , < < < 4 < < < < 1 3 < 3 e e a r 3 4 3 < < < < , < < < < < 1 1 4 4 4 2 4 e 4 4 e d M f r 1 < 1 w 4 4 w 4 r 4 e e d d r 4 < < < 4 1 < , , < , < 1 1 < < < < 4 e 1 4 4 4 5 2 , 2 p J p > 2 4 4 4 4 U g p a e e e w f m m f c m d d d r d r < 4 e e e e e a 4 4 < < 1 4 e 1 e e 4 , > % 2 p # # % # % > > $ % $ # % # $ > % % O $ $ $ O X X X X X o o X X . . . . . . . . + . . . . . . . . + + + . . . . . + + . . . . . . . . . . . . . . . . . . . . X X X X o X X . . X X o o o X X X X X X X X X X X . X X X . . X X X X X X X X X X X X X X X X . . X X X X X X X X X # O X $ # # # # $ $                 ",
"                              m M M m I I m I X.D.!.(.(.(.1XpXCXVXmXBX0XD.j.v.D.D.i.e.D.tX;XS.D.H.H.H.H.D.D.G.,X,XD.e.v.w.,.| &.&.2.Y.>XiXVXCX0XOX*XU.=X1X3XK.V ' | M [ | ] | *.' } [ M I d k ,.L.v.v.c.3.m.M.3.>.>.S.F.^.E.1.2.*.e.Q.].].2.c.v.2.@. . .} @.O.) [ I I I  .U I f M [ } } } ' ) ] ] >.w.2.,.) I [ [ [ [ ) ] +.| >.>.B } } i.r.O.e.>.,.} | I +.+.+.+.O.B V M f f I ) [ } ] ] M m d a d d f f f f a f d f m f m f m M I M f d d d a a d c f f f a d u a a a a d a r a d d a e r e r a e e e e e w < < 4 4 4 4 4 4 5 4 5 4 4 4 e r a a r a d V                                                                                                                                                                                                                                                                                                                                                                                                                                                                                                                                                                                                                                                                                                                                                                                                     , , , , , , , , , , , < < , < < < 2 < 4 < < 4 e e a w < < < , , < < , 2 , < < , < 4 w e 4 < e a 4 4 e f f p w < , 1 1 5 5 4 w a 1 r w a w 1 < < < < < < < 2 , , , , , < 5 < , , < 4 4 1 1 2 2 , , , d v v a 4 p 4 4 2 K p 4 c c P I a w e r a d a p d a e a e 4 4 e e e a e w < < < < < < < < 4 4 4 , , % % , # o # # % % # X $ # X X # % % # O # $ $ O X X X X X X o X X . . . . . . . . . . . . . . . . . . + + + . . . . . + . . . . . . . . . . . . . . . . . . . . X . . o o X o . . . . o o o X X . . . . . . . o o . . . . . . . . . . X X . . . X X X X X X X X X X X X X X X X X X X X X X $ # # $ # # $ $               ",
"                            m m M M M [ I.i.[ q.J.!.(.-X&X*X0XiXzXmXsX*XY.G.S.D.H.D.D.e.L.S.S.D.D.D.G.H.H.H.H./.!.e.v.b.w.0.,.*.>.>.^.iXVXAXiX@X[.`.W.W. X1Xq.B 3.P.m M } ] *.w.{ ] | M m m k V ) *.F.W.W.U.G./.G.S.S.&.v.G.c.F.2.v.U.{.Y.3.v.v.e.q.X.) [ } +.[ | [ I I I I m f M ) ' } | ] I I ) } 2.>.| ) I [ I [ ) V I +.q.e.>.} V l k _ } | V | | q.V ) I l m f d l M M ) X.[ ) [ I m m m d a p a f f m d a m M d a p a d a f P M k f m m f r r a f d f a a a a a f f a r r u u a a a r e e e 4 4 e 4 4 e 4 < < < 4 < 5 4 < < 5 4 4 4 e p r e 4 r a I                                                                                                                                                                                                                                                                                                                                                                                                                                                                                                                                                                                                                                                                                                                                                                                                       2 2 , , , , , , , , 2 2 2 5 < < < 4 4 5 4 4 4 4 4 < < 4 4 < < < < , 2 , < < 2 < 1 e w w 4 a a w e r a e 1 1 < < 1 < 1 4 w e e < e e a 4 1 < < < , , , , < , , , 2 2 2 < < < < 2 < e w 2 < , > , , v c I J 5 4 p 4 2 d 2 e d r f I P d e 1 e e e p e 4 p p 4 4 1 2 4 2 e 4 1 < < , < , 2 < , 2 , 2 5 < % # % o o X % , % $ $ $ $ # X $ % $ X O $ % $ X X X X X X X X X X . . . . . . . . . + . . . . . . . . + + + + . . . . . . . . + + . . . . . . . . . . . . . X X X . . X . . . . . . . X . . . . . . . . . . . o o . . . . . . . . . . . . . . . X X X X X X X X X X X X X X X X X X O # X X $ X O # $ # $ $               ",
"                          m m M V V I ) K.S.q.i.D.H.(.,X-X(.=X0XiX2X[.H.G.H.H.H.F.H.H.H.S.e.S.D.S.S.S.G.H.E.E.H.v.F.G.D.e.e.q.0.,.v.^.pXVXiX[.+XR.R.W.].H.;X-X' ` } m n I } { ,.,.| ,.] m n k } } &.U.W.OX].M.oXH.e.!.G.v.U.U.OX].G.W.{.U.v.c.H.e.@. .) [ [ [ I [ I I I f I c a P ) ' } | ' ) B P ) &.&.} ) I I I I ) I I ) +.,.,.O.I m a w w a w d y m d d u a l l m m I ) ) ) P V V n d d c d a a d f m m a a l m f d p a d s e r a n m I m f a r r d a f m f a a d f f f r r r r a r e 4 4 < 4 4 5 4 4 5 4 e 4 2 5 4 < < 4 4 4 4 4 5 5 4 w w e 4 r d M                                                                                                                                                                                                                                                                                                                                                                                                                                                                                                                                                                                                                                                                                                                                                                                                         < < < , , , , , , , , < < < , 5 4 < < 4 5 < < < < < 4 4 5 < < < , < 2 2 , 2 < 4 w 4 w 4 e e 1 w r r 4 1 < , < 4 4 4 w w e 4 4 a r r 4 4 < < , , , , < < , , < < < , , < 5 4 2 , 4 e 1 < , > , < f c P a 4 4 4 4 , , , g c m a e a k m a e w e d c e e p p p p 4 < < 2 < < 2 4 4 e < < 4 , , > , < , d 4 % X X $ > , $ % > % $ # # % % $ # % % > O X O X X X . o X X X . . . . . . . . + + . . . . . . . . . . + . . . . . . . . . . . . . . . . . . X X . . . X X X . . . . . . . . . . . . . . . . . . . . . . . . . . . . . . o . . . . . . X . X X X X X X X X X X X X X X X X X X X O # # X X o # # $ $ $ $ :             ",
"                        c m M M B >.D.,.>.D.i.p.!.(.(.|.=X^.Y.*X(.F.S.G.E.!.oXoX^.U.H.L.H.S.v.v.S.S.S.S.F.E.E.E.Y.U.Y.E.D.D.S.r.,.e.D.*XpX/.Y.U.R.].U.U.v.L.yX&X0X2.B B m ] ) } } ' | } M V V | oXe.G.].@XW.M.E.L.2.D.=XQ.Y.W.0X[.R.{.{.U.S.2.H.0.X.[ [ } } X.I a m ) V k I c c I ) _ } _ ) ) I ) ' } &.' I I P I I I I I I [ O.>.+.[ I m m m M m m k m a m m m M K I I I _ P m m m k d u d d a d f f d f M k r a a d l a s r d d r a f d d f f c a a d a f m f a a a f d d a a r e e e e 4 4 5 4 4 4 4 4 < < 4 4 5 < 5 5 5 < 4 4 e 4 5 5 2 1 w e e e d M                                                                                                                                                                                                                                                                                                                                                                                                                                                                                                                                                                                                                                                                                                                                                                                                           < 5 2 2 , , , , < , < < < , < < < < 4 < < < < 5 < 5 < < 1 < < , < < , , < w 1 4 4 e w e e 1 4 a r w w < , < 4 4 1 w e w < 4 d 4 4 4 a 4 < , , < < < < , < 1 2 < , < < < 1 < , < 1 4 2 , > , e m p a p e p e 1 > < e a c I X.V w y m K P m p e e p e e e e p p 4 4 4 < 2 2 4 e e 1 e e < , 4 4 , > I 4 # o o > > $ X % , > # # % % $ $ # % $ $ $ X X O X X o X X X X . . . . . . . . . . . . . . . . . . . . . . . . . . . . + . . . . . . . . . . X . . . X . . . . . . . . X . . . . X . . . . . . . . . . . . . . . . . . . . . . . . . . X X X X X X X X . . X X X . X X X X X X X X X X $ $ X X # # $ & $ &             ",
"                      d f M I I ` ].tXP.,.D.J.K.!.[.*X^.^.H.H.L.H.G.E.L.oX,X/.^.0X[.F.H.D.e.e.v.v.D.D.D.D.H.H.H.F.H.H.L.H.P.L.D.e.,.2.S.L.e.v.F.Q.U.U.W.E.2.D.1X/.&.N B N I [ [ +.| >.} I V d | L.*.c.].].U.Y.F.E.v./.<XY.*X{.>X[.Y.{.@XF.G.v.G.e.) } } [ I [ [ d I I P [ m a c I [ _ } [ I I I [ | >.&.' I I I I I I I I I ) } >. .I I P P M V I I V I I I I ] I M I I I I m V I k d d a a a r a c f f f n m f a r p a d a r a r r u n d r f n d a a r f d a a s p a d d f a a r e e w e e p 4 5 4 4 5 5 4 < < 4 e < , 2 < 5 < 4 4 4 4 4 2 4 w e e 4 c I                                                                                                                                                                                                                                                                                                                                                                                                                                                                                                                                                                                                                                                                                                                                                                                                             , < 2 , , , , < < < < < , < < < < < < < 2 < 5 < 4 < , < < , , , < < < 4 4 < 4 e e w 4 4 4 4 e e e e < , 5 4 < < e r 4 < w e < 4 4 r < , , < 1 < < < , < 1 1 < < < < < < < , , < 1 , > , , d P < % 4 p p p e [ m p e e m  .@.m d P I I X.I m e 2 1 4 2 < < , < < < 2 < < , < 1 < e 1 , 1 a e , e e % o o # > > # X % % $ O $ % % $ O O # # X X X X X X X X X X X . . . . . . . . . . . . . . . . . . . . . . . . . . . . . . . . . . . . . . . . . . . X . . . . . . . . . . . . . . . . o . . . . . . . . . . . . . . . . . . . . . . . . X X X . . . . . . X X X X X X X # # X # X X X X $ $ X X $ $ # % & &             ",
"                    d a f m m N ;.<XiXe.<.D.p.K.!.Y.{.Y.e.i.K.!.!.Y.^.L.1X,XG.v.>X>XS.D.e.2.e.v.v.v.S.S.D.D.G.v.H.v.D.J.L.~.:X;XD.2.>.&.>.2.w.v.Q.U.].].U.v.1.E.H.` 3.A B B ] ] +.,.} *.I k u I { ` ;.U.U.T.U.H.H.v.E.*XR.>X8X>X{.R.`.{.R.Y./.G.D.+.<.,.>.[ I I m I ] <.q.M a c I _ ) _ _ I I ) [ +.>._ ) I P P K I I I I P I [ O...I I I m f m m I M I I I V V I I I M m M M M I M f a a a a d f f d f a r m m m a p p a d r r r a d f n a a d f d c d c a r a a r a a a a a r e e e 4 4 e e 4 < < 5 5 < 4 4 < < 4 < 2 < 4 4 5 5 < 2 5 4 4 e w 4 4 e m                                                                                                                                                                                                                                                                                                                                                                                                                                                                                                                                                                                                                                                                                                                                                                                                                   2 < , 2 , < < < 1 < , < < < < < < < , 5 5 < 4 < , < < , , < < 4 < 4 4 < 4 e w 4 4 4 4 4 e p e 1 , , 4 5 2 < e 4 < w e 4 4 e 1 < , , , < < , , , , , < < < < < > > , > , , , , , > , < m m m e e e a p 4 [ p e e r a n I ) s a a m I P I f e e 4 1 e 4 < 2 , , 2 2 2 , , < < 1 < > < < < % e < # o $ , , % % % % # X X $ $ # # $ $ % # X X X X o o o X X X . . . . . . . . . . . . . + . . . . + + . . . . . . . . . . . . . . . + . . . . . . . . . . . o . . . . . . . . . . . . . . . . . . . . . . . . . . . . . . . . . . . . . . . . . . . . . X X X X # X X X X X X X X X # X O O X $ $ $ $ # # % , ,           ",
"                  f f a c m M ) ].rX[.Z ,.D.H.~.[.^.E.i.i.J.H.~.(.[.E.L.[./.G.F.*X=Xv.e.e.,.2.e.e.e.v.D.S.p.e.L.3XH.i.I.5XvXaXtXv.S.2.,.,.,.,.,.G.^.W.M.M.F.e.1.v.U.[.` N m M I } 0.} } } m y V D.e.v.Q.].].R.W.Y.Y.^.OX`.@X@X`.W.F.{.@XW.Y.^.F.v.e.>.O.+.>.} ,.[ I ) 0.[ M a m I ) ) I ) I I M I [ >.} [ I M J K U [ [ I K [ O.+.X.I m m m c m m m I M V I V k m M M m f f l c m m c d a a a d l m r r r e a f f a p r r p r f f d n d n f f a f d c m d a e a a r r p e r r r e e e 4 4 4 4 4 < < < 5 < 5 4 < 2 5 < < 4 4 5 < , 2 2 5 4 4 e w 4 4 p c                                                                                                                                                                                                                                                                                                                                                                                                                                                                                                                                                                                                                                                                                                                                                                                                                     5 2 , 4 < < < < < < < < < < , < 2 , < 5 2 5 < < < < , < < , < , < 4 4 4 4 4 1 4 e 3 4 a d w , , 2 5 < < 4 4 < < e 4 4 e e < , , , , , , , = = , , , , < , > > > , , < < , , > > , 1 M l +.f e p g a p I e e a r t a d m k r s K K I I m J J m a e e e 4 3 < 2 2 2 e e a r 1 , , < < < % % % X o > < , $ % , % # O $ $ # # # % $ $ O X X X X o o X X X X . . . . . . . . . . . . . . . . + + + + + . . . . . . . . . . . . . . . . . . . . X X . . . o o . . . . . . X o . . . . . . . . . . . . . . . . . . . . . . . . . . . . . . . . . . . X X X X X X X X X X X X X X X X X X X X # # $ $ # # # $ , &           ",
"                f f f c M P I ) Q.0Xj.3.S. X>X[.^.L.q.q.p.P.L.E.[.iX[.D.H.G.G.F.<X/.e.~.P.e.e.e.e.e.e.S.r.e.D.tX3Xi.(.cXHXcXeXoXS.G.S.q.0.0.,.,.v.G.Y.U.U.M.b.2.v.G.>XF.Z k m [ | >.1.| } I d k S.oXM.Q.[.`.U.W.G.G.U.{.{.>X8X`.[.[.].9X[.Y.R.U.F.e.O.,.O.| >.,.[ I V ) ) m a m I I I ) I I V m I I } } [ I P K K U T [ U m I ..X. .T P M m M I I I I m B V I N m l m m d d d a a d f a a p p s k l a a a f r r a p r a s p a d k d f f f a f a r a r a a a r r a e r a a d r r 4 e e 4 4 4 5 < 4 4 2 5 2 5 5 < 2 < < < < < 4 5 < 5 4 4 2 4 e 4 e e p                                                                                                                                                                                                                                                                                                                                                                                                                                                                                                                                                                                                                                                                                                                                                                                                                           , < 1 < < < 1 < < < < < , 2 , , < < , 5 2 < 4 , , < , , < , , < < < < < < 1 4 4 e a p < , , < < < 4 1 < 4 e e 1 4 e 1 < , < , , , < < , , < < < > > > > , < < , < < , , > % , e M P [ r e p a p e d 1 e p e f I I I I I K J m P v g J K J f p 2 2 < < 4 4 2 < e 4 w 4 < , , < < , % % % X X > > > # $ > % O $ % # $ $ # $ # $ X X X X X X o X X X . . . . . . . . . . . . . . . . + . . . + + . . . . . . . . . . . . . . . . . . . . . . . . . . . . . . . . . . . . . . . . . . . . . . . + + . . . . . . . + . . . . . . . . . . . . X X X X X X X X . . . . X X X X X X X O X # # $ $ X # % # % ,           ",
"              d d f k m M I M V ' 3.3.e.K.~.=X0X(.D.,.e.S.S.G.G.*XiX0X=XY.F.G.F.<X/.(.~.S.e.e.e.e.e.e.v.e.J.yXyXK.&XBXDXHXBXeXoX&Xv.S.e.e.e.e.2.e.D.E.G.U.^.W.U.Y.[.iX*X) n m [ [ } ,.+.X.[ V d V I.H.U.Y.c.M.`.F.j.F.R.`.@X9X>X>X<X`.>X>XE.Y.j.2.,.} [ O.[ _ _ I K P f I m a c I I V P P V I I I ) ] } I I P J K U T U U K I I ..[ T I P m m m M M m V I I V P m l f J c d a p r a f d a a p a p d m l f f a a a f f d a a a a d s r r d r a f d a r r r e e e e r r d d p e e 4 4 4 4 4 4 < 4 4 < < < < 2 < < 2 2 < , , , < 2 < < 4 5 2 5 5 4 e p                                                                                                                                                                                                                                                                                                                                                                                                                                                                                                                                                                                                                                                                                                                                                                                                                               < 4 < 4 1 1 < < 2 2 , 2 , , 2 2 < < < , < < > , , > , > , , < , 1 w 1 4 1 < 1 w e 4 > , , < 1 < 4 1 < e 4 4 < e a e < < < > , < 1 < < < < < , > , , > , , , < , , , , > % < a K I m 1 4 p e p > < 1 4 p a m M I I [ [ U v v J v p a a a a a a p 2 , , 4 2 < 1 < , , , 2 < < , < d , > X # $ $ $ # % $ O X % # % $ X % $ % # X $ X X X X X X X . . . . . . . . . . . . . . . . + + . . . . . . . . . . . . . . . . . . . . . . . . . . . X . . . . . . . . . . . . . . . . . . . . . . . . . . . . . . . . . . . . . . . . . . . . X X X . . . X . X X . X X X X X X X # $ O # $ $ $ % > $ # # $ # , ,         ",
"            d d d a m V M m M V q._ >.K.~.H.Y.]./.2.1.2.v.v.D.D.[.[.^.0X*XY.F.v.*X=XH.e.2.q.e.>.>.,.e.*.,.3XxXL.r.cXBXMXcXuX,X,Xv.v.S.S.S.D.D.v.e.S.G.G.<X0X{.Y.Q.W.>X].B m M [ +.} q.} [ ) k y m ) O.H.*X3.c.>X].F.W.T.R.*XqXwX8X9X`.{.^.Y.G.>.>.O.} _ [ _ I d m P K U I c d c M M I I B P I I I ) } } ) K P K K U [ [ [ U I L W ..W I P K M m M m M I I I V P M l d v d a a s r r p a d d a a s d f f d f f a a f a r r a a s a r r r r r a c n n m n a e e e e r r e p e e e 4 4 4 4 5 < < < 2 , < < < < < 2 4 2 < < < , < < , < 2 < 2 3 4 4 e a                                                                                                                                                                                                                                                                                                                                                                                                                                                                                                                                                                                                                                                                                                                                                                                                                                 < 4 < 4 1 < 2 2 2 , , , , < < < < < 2 < , > , , > , , < , < < e e 1 w 1 , < 4 e < , , < 1 < 1 3 < < e 4 4 < e e 1 < < < , , < , > < < < > , , , , , , , , 2 , > , > % > < d m e 4 < 1 e p 1 1 r a a v m m d c K I I K a a G v a p a a a a a a a 5 > , , < 1 1 < , < 2 2 2 % a I 4 $ o # > $ # # % $ O O $ # $ $ # $ # # # # $ O X o X X X . . . . . . . . . . . . . . . . . + . . . + + . . . . + + . . . . . . . . . . . . . . . . . . . . . . . . . . . . . . . . . . . . . . . . . . . . . . . . . . . . . . . . . . . . X X X X X X X X . . . X X X X X X X X X $ # O $ $ $ $ $ $ $ $ $ % % % :         ",
"          d d d d f m M V V m } sX&X2.S.G.E.*X*XG.3.e.H.E.H.G.D.H.H.G.Y.,X,XY.S.v.v.e.e.2.2.,.>.,.>.} } -XMX&X| | K.uXMXcXaXE.e.v.v.v.v.S.D.G.v.e.e.v.^.*X].T.Y.W.F.-.#.N M m R >.[ ,.| }  .V d V @.e.G.^.c.;.@XW.v.Y.^.F.Y.>X8X8X}.W.[.Y.S.H.2.| ,.O.[ [ [ U c m I J X.I d d m M M I I V V V V M ) [ } I K K K U T X...[ T K K W W U U I m m M m m m M I M P I I M d d a r a s a d d a d d a d d d a d f m l a a a r e r a a r a a r r r a a m m m m d d a a a e r e e p a a e w w 4 e 4 4 4 < < < < < , , , < 2 2 < < 2 2 < < 2 < < < 2 < < 4 r                                                                                                                                                                                                                                                                                                                                                                                                                                                                                                                                                                                                                                                                                                                                                                                                                                       w 4 e 4 < 2 2 , , , , 2 2 < < < < < , > , , , , < 2 , < < e < < 4 < < 1 4 4 , , , < < , 1 < , 4 e 4 1 4 e 1 < < , , < < < > , < < < > , , < , , , , > > , > > > % , 2 c d % > 1 4 1 p p @.d J v a c d e a f K m r e a g g p p a a a e 4 4 6 p 4 2 , , < 1 1 > , , , , > v 4 % X X % > % # $ # # X $ $ % # # $ O # O O % X X X o X X X . . . . . . . . . . . . . . . . + . . . . . + . . . . + + . . . . . . . X . . . . . . . X . . . . . . . . . . . . . . . . . . . . . . . . . . . . . + . . . . . . . . . . . . . . . X X X X X . . . . X X X X X # # X X $ O X X X X $ $ $ $ $ $ % % % % , &       ",
"        d d d d d f m M m m P | 3XH.2.H.G.G.E.[.v.e.E.1XeXE.H.L.G.H.G.S.E.,X(.v.S.e.e.e.2.2.q.,.,.>.} L.xXyX>.} } ,.e.;X3XS.1.2.e.e.S.v.e.S.E.L.e.,.v.W.OX*XOX{.Q.U.U.F.V M m m } >.>.e.} [ [ m f X.L.v.].M.h.R.Y.Y.F.E.G.v.R.@X8X`.T.[.F.v.S.e.} [ [ _ [ [ ..I m m T X.m d d M M I I P P V m M M ) [ [ I I U K K [ X.X...I K G K T U T I c l c c m f n m m M V M M f d a r d a f f d a d d a p p a f d f f a a a s p r r r e e a a r a r r u d f f y u d a a a r r r r a r e w w w 4 4 < 5 4 < 2 2 2 < , , , , , < 2 , < 2 < < 2 2 < 2 4 4 1 w r                                                                                                                                                                                                                                                                                                                                                                                                                                                                                                                                                                                                                                                                                                                                                                                                                                         4 4 e 4 < 2 2 < , , , , < < < < , , > > > > , , < , , , < , < < , < 4 4 < , < < < < < 1 1 4 r e < < 3 e 1 < < > > < , < , , , , , < , < < , , < , , > > , , > > , 4 f a e < < , e f d U e a a p r a c m c l P m e 4 6 p p 6 a p e 4 < , 2 4 4 4 5 , , , < , , 2 4 , , p % # o % , $ # $ % O O X $ $ $ O O # # $ X O # X X . . X X o . . . . . . . . . . . . . . . + + . + . . . . . . . . . . . . . . . . . X . . . . . . . X . . . . . . . . . . . . . . . . + . . . . . . . . . . . . . . . . . . . . . . . . . . . . . . . . . . . X X X X # $ # # X X X X X X X X o X X X $ # $ # % > > , : :     ",
"      f d d d d d c m m | e.B >.-XS.D.E./.E./.^.2.e.D. XoXE.E.L.L.E.H.H.S.D.G.S.S.e.v.e.2.2.q.e.,.| } &XjX(.} } >.e.e.2.,.2.e.v.v.D.D.D.v.H.eX&XS.e.Y.=X>X>X{.OX^.F.>X<XI m m m ' >.' } +.I I M a M D.H.^.[.+XT.U.G.!.H.S.2.m.W.OX{.^.Y.j.1.,.e.>.} _ P _ U ..I m J U T c d c M f m m V P P V m m I [ } _ U K K J T X.X.[ I K K U X...U K c f f f m k c m m k m m P M d d a f d f d d a r d a p r p a a a a r r w r s a a r e e a a r r r r r a a a y w r a r e e r e e e w 4 4 4 w 4 < < < < 2 < < < < < < < , , < 2 , , , , < 2 2 < 2 < w e w                                                                                                                                                                                                                                                                                                                                                                                                                                                                                                                                                                                                                                                                                                                                                                                                                                             e e w < 2 , < , , , , < < < < 2 , , % > > , , > , , , < < < < , < 4 4 < < < < < < 1 4 1 e w < < 4 4 4 4 < > > , , > < > > , , , , < , , , , < , , , , , , , > , p d M I < < 4 a p c K e c v v m I P m m m P I d 6 p p a 4 p 4 4 2 , , , , 2 5 5 2 < , , > , 1 4 , , , # O o % > X O $ % # # # $ $ # O # O # X X # X X X . . X X o . . . . . . . . . . . . . . . + + . . . . . . . . . . . . . . . . . . . . . . . . . . . . . . . . . . . . . . . . . . . . + . . . . . . . . . . . . . . . . . . . . . . . . . . . . . . . . . . X X X X # # # O X X X X X X X X X $ $ $ # # $ $ $ > , , , , ,     ",
"    d c d d d d a m m ] .XL.V q.1XS.H./.].].+XE.2.2.D.D.G.Y.E.E.L.E.H.D.D.D.D.D.S.e.e.2.2.2.,.,.e.0.*.e.D.e.>.&.e.e.v.2.e.v.e.S.S.D.D.v.v.v.E.H.S.D.[.=X*X>X>X<XOXM.OX<XB V m m ) ,.*.} +.) V V n m p.v.U.W.{.`.Q.S.E.v.D.D.G.F.G.U.E.G.G.2.| +.>.@.[ P I I  .m v v m I f a f m l k m I I I I m M M ) } [ T J K K P ........K J T X.W I K m f f c m m c m I m m M I P f a d f a a a a a a c c a r p e a a r w w w e r a d p r r r r e r r r u a r a f a r a r e e e e 4 e e e e e 4 1 4 5 < < < 2 , < < < < < , , < < < < 2 , 2 < < < 2 4 4 e r                                                                                                                                                                                                                                                                                                                                                                                                                                                                                                                                                                                                                                                                                                                                                                                                                                               a r 4 < < < , , , , < < 2 < 2 , , > > > > , > , , , < < , , 2 4 4 4 < < , 2 < < < < < < , = 4 e < 4 2 , > , , , , , > > , , , % > > , , , , , , , , , , % > < a p U M > < < e 4 4 r w p c m M P c g m P P U K p p p g p p 4 4 5 < 2 2 2 2 2 , 2 e 4 < , % % > > X , , O X % # X # # O $ # # $ $ X # $ O # X # # X X X X X X . . . . . . . . . . . . . . . . . + + . + . . . . . . . . . . . . + . . . . . . . . . . . . . . . . . . . . . . . . . . . . . . . . . . . . . . . + + . . . . . . . . . . . . . . . . . . . . . . X X X X # X X X X X . X X X X X X $ $ $ $ $ % % , , > > , , 2 2 ,   ",
"  d c f d d d r d c m I [ I V $XyXD.E.*X[.OX/.E.e.v.D.H.Y.Y.E./.E.H.L.H.S.S.D.D.e.e.v.v.e.e.e.,.>.,.*.*.,.e.2.>.*.*.e.v.v.v.e.S.S.v.D.v.v.v.2.3.e.H.[.>X<X>X>X>XOXU.9X0XH.;XI f B *.,.| [ } I I m n | ` ^.>X9X`.Y.v.v.>.S.L.S.G.Y.v.v.S.2.| _ ) ) I V M M m m m m v d m c d f M P V V V V V V m M m V [ _ U K L K U U ..X.T I J K ..X.U U K d f m f f d m I I m m M m m a f a a a a 4 e a a a p e 4 e r e e 4 4 e w w r d a p e r r r r e a a a a a d d r a a a e e e 4 4 4 w e 4 1 4 4 5 < < < < < < < < < 2 , , 2 < < < , , < < < < < 1 4 e                                                                                                                                                                                                                                                                                                                                                                                                                                                                                                                                                                                                                                                                                                                                                                                                                                                 d a e 3 < < , , , , 2 < < 2 , > > % > % > , , , , , < , % , < 4 4 5 , , % < < < < 2 < < , , e r 2 < 5 < , , , < 4 , , , < , , , > % > , , , , , , , , > $ > 4 d p ..I < 4 2 < 4 % , w d c f m f a d c l l ..m p p a G v v a p p p 4 4 2 2 2 2 1 e e a a < % > < % < % X # # X # $ # o O O $ $ % X # % $ # X # # X X X X X X . . . . . . . . . . . . . . . . . . + . + . + . . . . . . . . . . + . . . . . X . . . . . . . . . . . . . . . . . X . . . . . . . . . . . . . . + + + + . . . . . . . . . . . . . . . . . . . . X X X X X X X X X X X X X X X $ $ $ $ $ $ $ # $ $ $ $ $ % > , , 4 p r "
};
