/* XPM */
static char *_dd18d0fcdb545d1ad2b8ec82dec4a65Ptnw1BL9EYLUGsgt[] = {
/* columns rows colors chars-per-pixel */
"816 306 253 2 ",
"   c None",
".  c #010409",
"X  c #12161D",
"o  c #161A25",
"O  c #181C27",
"+  c #161D29",
"@  c #191E2A",
"#  c #131622",
"$  c #171E32",
"%  c #0E1522",
"&  c #1C2126",
"*  c #1C222D",
"=  c #17212A",
"-  c #1E2431",
";  c #1D253A",
":  c #1E2A3C",
">  c #1D2733",
",  c #21252D",
"<  c #24292E",
"1  c #25262A",
"2  c #212633",
"3  c #232A35",
"4  c #292C35",
"5  c #252C3A",
"6  c #292E3B",
"7  c #21263A",
"8  c #26303D",
"9  c #2A323D",
"0  c #2C3136",
"q  c #32353C",
"w  c #35393D",
"e  c #1D2A43",
"r  c #252D43",
"t  c #292E42",
"y  c #242D4A",
"u  c #272D48",
"i  c #253143",
"p  c #2D3443",
"a  c #2F3945",
"s  c #26324B",
"d  c #2C354A",
"f  c #2E394B",
"g  c #303745",
"h  c #323946",
"j  c #31364A",
"k  c #343C4B",
"l  c #383F4E",
"z  c #393C44",
"x  c #2C3753",
"c  c #353D52",
"v  c #383F52",
"b  c #353E5A",
"n  c #343B57",
"m  c #363E63",
"M  c #37404D",
"N  c #3A414D",
"B  c #3E4146",
"V  c #364153",
"C  c #3B4354",
"Z  c #3F4856",
"A  c #36415B",
"S  c #3D455B",
"D  c #3E495B",
"F  c #2F4054",
"G  c #3C4662",
"H  c #3E4963",
"J  c #3E4A69",
"K  c #394467",
"L  c #3D4971",
"P  c #43474C",
"I  c #414655",
"U  c #434A55",
"Y  c #4B4D54",
"T  c #40475A",
"R  c #434A5C",
"E  c #4A4E5C",
"W  c #494754",
"Q  c #4C515C",
"!  c #4B5158",
"~  c #535354",
"^  c #53545C",
"/  c #5B5A5B",
"(  c #595858",
")  c #4F4F54",
"_  c #635D5D",
"`  c #665C5C",
"'  c #67615F",
"]  c #404762",
"[  c #444C63",
"{  c #494F63",
"}  c #434D6A",
"|  c #484F6B",
" . c #414669",
".. c #465063",
"X. c #4B5265",
"o. c #46516C",
"O. c #4C546B",
"+. c #4E596C",
"@. c #4E5965",
"#. c #525663",
"$. c #545A65",
"%. c #5B5C63",
"&. c #51576C",
"*. c #525A6D",
"=. c #5A5E6B",
"-. c #5A5760",
";. c #444D72",
":. c #484D74",
">. c #465273",
",. c #4B5573",
"<. c #4E5974",
"1. c #4C567A",
"2. c #4D597C",
"3. c #46527A",
"4. c #505772",
"5. c #545B73",
"6. c #595E74",
"7. c #535C7B",
"8. c #595F7B",
"9. c #51567A",
"0. c #635F63",
"q. c #5C626D",
"w. c #5C6165",
"e. c #5B6275",
"r. c #56617C",
"t. c #5B637C",
"y. c #586277",
"u. c #646264",
"i. c #6A6364",
"p. c #63636B",
"a. c #69666B",
"s. c #626674",
"d. c #61667C",
"f. c #636A7C",
"g. c #686B77",
"h. c #6C717A",
"j. c #74757C",
"k. c #736E78",
"l. c #4E5B82",
"z. c #4D5884",
"x. c #535D83",
"c. c #535E8A",
"v. c #585D84",
"b. c #585F92",
"n. c #556184",
"m. c #5C6483",
"M. c #5E6985",
"N. c #55628A",
"B. c #5B648B",
"V. c #5D698C",
"C. c #57698F",
"Z. c #5B6591",
"A. c #5D6992",
"S. c #576491",
"D. c #5F7188",
"F. c #616784",
"G. c #636A84",
"H. c #696E84",
"J. c #61668A",
"K. c #646B8B",
"L. c #696E8C",
"P. c #6B7285",
"I. c #6B728C",
"U. c #67718A",
"Y. c #737A8C",
"T. c #757787",
"R. c #646C92",
"E. c #696E93",
"W. c #646B99",
"Q. c #6C7393",
"!. c #6D749B",
"~. c #6B7595",
"^. c #717694",
"/. c #737A94",
"(. c #747B9C",
"). c #777C9A",
"_. c #726E85",
"`. c #6D74A3",
"'. c #747BA2",
"]. c #767BA7",
"[. c #7075AC",
"{. c #7C839C",
"}. c #7A8296",
"|. c #7C838E",
" X c #7C83A3",
".X c #7C83AA",
"XX c #7C86A4",
"oX c #7D84B3",
"OX c #7F83C0",
"+X c #858999",
"@X c #8D8E95",
"#X c #848BA4",
"$X c #848BAB",
"%X c #8489A8",
"&X c #8C93AC",
"*X c #8A92A4",
"=X c #949AAA",
"-X c #848BB3",
";X c #858BB6",
":X c #8C94B3",
">X c #8D94BA",
",X c #939BB4",
"<X c #959BB9",
"1X c #9CA3BC",
"2X c #9BA4B7",
"3X c #9CA1AB",
"4X c #A6AAB9",
"5X c #ACAEB3",
"6X c #A09DA5",
"7X c #949AC6",
"8X c #8F94CA",
"9X c #9CA4C4",
"0X c #9DA3D8",
"qX c #A4ABC7",
"wX c #ACB3CB",
"eX c #ABB3C8",
"rX c #B5BAC9",
"tX c #A4AAD9",
"yX c #ACB4D4",
"uX c #B5BBD7",
"iX c #B3B9E8",
"pX c #ACB1E9",
"aX c #BCC3DB",
"sX c #BAC2D7",
"dX c #BFC3C9",
"fX c #BCC5E4",
"gX c #BDC2F8",
"hX c #C4C9DA",
"jX c #D5D6DB",
"kX c #C8CAD0",
"lX c #C3CBE3",
"zX c #C4CBE8",
"xX c #CBD3EC",
"cX c #CBD3E5",
"vX c #D5D9E9",
"bX c #C5CCF7",
"nX c #CCD5F4",
"mX c #D4DBF7",
"MX c #DBE3FB",
"NX c #DDE2EA",
"BX c #E5E7EC",
"VX c #E4EBFE",
"CX c #E7EBF8",
"ZX c #ECF3FF",
"AX c #ECF3FB",
"SX c #FAFAF6",
"DX c #F3F6FC",
"FX c #F5FAFE",
"GX c #FDFEFE",
"HX c #F6F6F6",
"JX c #DFE1DE",
"KX c #C1BFCD",
"LX c #807F8D",
/* pixels */
"                                                                                                                                                                                                                                                                                                                                                                                                                                                                                                                                                                                                                                                                =X+XP.                                                                                                                                                                                                                                                                                                                                                                                                                                                                                                                                                                                                                                                                                                                                                                                                                                                                                                                                                                                                                          ",
"                                                                                                                                                                                                                                                                                                                                                                                                                                                                                                                                                                                                                                                                  CXhX4X+XY.d.H.H.y.f.                                                                                                                                                                                                                                                                                                                                                                                                                                                                                                                                                                                                                                                                                                                                                                                                                                                                                                                                                                                                          ",
"                                                                                                                                                                                                                                                                                                                                                                                                                                                                                                                                                                                                                                                                  GXFXDXNXhX+X/.K.Q.J.B.E.R.B.J.m.6.H.                                                                                                                                                                                                                                                                                                                                                                                                                                                                                                                                                                                                                                                                                                                                                                                                                                                                                                                                                                                          ",
"                                                                                                                                                                                                                                                                                                                                                                                                                                                                                                                                                                                                                                                                        GXFXGXFXZXxXzX .K :.3.9. .r.o.M.r.r.M.M.r.r.r.n.M.M.m.r.r.6.5.5.<.O.&.&.*.V                                                                                                                                                                                                                                                                                                                                                                                                                                                                                                                                                                                                                                                                                                                                                                                                                                                                                                                                             ",
"                                                                                                                                                                                                                                                                                                                                                                                                                                                                                                                                                                                                                                                                        FXFXFXFXFXFXFXhX}.X.v r r s x s b A x J J o.<.2.<.2.2.7.v.x.x.x.x.z.z.z.:.7.,.v.7.8.7.7.                                                                                                                                                                                                                                                                                                                                                                                                                                                                                                                                                                                                                                                                                                                                                                                                                                                                                                                                ",
"                                                                                                                                                                                                                                                                                                                                                                                                                                                                                                                                                                                                                                                                          HXGXSXFXFXFXGXFXBXrXT.+.r r d i : i e i s s s s s x x m m K L ;.;.;.;.7.9. .:.,.v.v.B.c.n.G.*.                                                                                                                                                                                                                                                                                                                                                                                                                                                                                                                                                                                                                                                                                                                                                                                                                                                                                                                        ",
"                                                                                                                                                                                                                                                                                                                                                                                                                                                                                                                                                                                                                                                                            GXFXFXFXGXGXFXFXGXHXNXT.@.p * 9 9 5 p i 5 5 i i i r i r i s s s i s d x c A b G A J 3.2.x.2.<.                                                                                                                                                                                                                                                                                                                                                                                                                                                                                                                                                                                                                                                                                                                                                                                                                                                                                                                      ",
"                                                                                                                                                                                                                                                                                                                                                                                                                                                                                                                                                                                                                                                                            JXGXGXFXFXGXGXFXGXGXFXFXjX5X+XY 0 3 3 5 9 9 6 t t p 8 8 5 8 5 5 i i i 5 i : r s r x x x K 2.8.5.e.                                                                                                                                                                                                                                                                                                                                                                                                                                                                                                                                                                                                                                                                                                                                                                                                                                                                                                                  ",
"                                                                                                                                                                                                                                                                                                                                                                                                                                                                                                                                                                                                                                                                                jXHXGXFXFXGXFXGXGXGXGXGXGXGXFXvX5Xs.P g 6 6 6 t 5 p 5 i i r r i i i i i r r y s s r r y s n :.m.G.t.                                                                                                                                                                                                                                                                                                                                                                                                                                                                                                                                                                                                                                                                                                                                                                                                                                                                                                            ",
"                                                                                                                                                                                                                                                                                                                                                                                                                                                                                                                                                                                                                                                                                  5XHXGXGXFXGXGXGXFXGXGXGXGXGXFXGXDXvX=XY 6 6 6 p r r y y s s s s i r r r i r r p i 5 r r y n K 9.K.5.                                                                                                                                                                                                                                                                                                                                                                                                                                                                                                                                                                                                                                                                                                                                                                                                                                                                                                          ",
"                                                                                                                                                                                                                                                                                                                                                                                                                                                                                                                                                                                                                                                                                    JXSXGXGXFXSXGXGXGXGXGXGXGXGXGXFXGXGXjX*Xs.I 7 x u y s y e y r r i i i i 6 9 8 8 5 5 5 r r y y 9.J.K.t.                                                                                                                                                                                                                                                                                                                                                                                                                                                                                                                                                                                                                                                                                                                                                                                                                                                                                                      ",
"                                                                                                                                                                                                                                                                                                                                                                                                                                                                                                                                                                                                                                                                                      SXGXGXSXGXGXGXGXGXGXGXGXFXFXGXGXFXFXGXAXrXI.T G ] b >.G A A f i 5 p p 9 5 5 9 9 9 9 p r r s x K 7.m.t.                                                                                                                                                                                                                                                                                                                                                                                                                                                                                                                                                                                                                                                                                                                                                                                                                                                                                                    ",
"                                                                                                                                                                                                                                                                                                                                                                                                                                                                                                                                                                                                                                                                                      5XHXFXGXFXFXGXGXGXFXFXFXGXFXFXFXGXGXFXGXFXCXeXt.F.7.7.m.x.,.o.S f r 5 5 9 9 9 9 5 8 p r r : s r n G 8.J.M.                                                                                                                                                                                                                                                                                                                                                                                                                                                                                                                                                                                                                                                                                                                                                                                                                                                                                                ",
"                                                                                                                                                                                                                                                                                                                                                                                                                                                                                                                                                                                                                                                                                        3XCXGXGXGXGXGXGXGXGXSXGXGXGXFXGXGXFXGXGXFXZXT.y.F.m.m.7.2.8.7.| b d p p r r 5 5 8 5 r 5 r i i r s b B.B.m.I.                                                                                                                                                                                                                                                                                                                                                                                                                                                                                                                                                                                                                                                                                                                                                                                                                                                                                            ",
"                                                                                                                                                                                                                                                                                                                                                                                                                                                                                                                                                                                                                                                                                            @XBXGXGXFXGXGXGXGXGXGXGXGXGXGXGXGXGXGXGXDXrXP.8.:.n.n.l.2.2.8.7.G x s y r i i 8 8 i p ; r s y r r x G } 5.t.                                                                                                                                                                                                                                                                                                                                                                                                                                                                                                                                                                                                                                                                                                                                                                                                                                                                                        ",
"                                                                                                                                                                                                                                                                                                                                                                                                                                                                                                                                                                                                                                                                                              +XBXGXGXFXGXGXGXGXGXSXGXGXGXGXGXGXGXSXFXDXrXt.m.7.x.x.x.x.v.v.2.>.b s r r i 8 8 9 5 p s r u t r r e x b O.t.                                                                                                                                                                                                                                                                                                                                                                                                                                                                                                                                                                                                                                                                                                                                                                                                                                                                                      ",
"                                                                                                                                                                                                                                                                                                                                                                                                                                                                                                                                                                                                                                                                                                  GXGXGXGXGXSXGXGXGXGXGXGXGXGXGXGXGXGXFXFXhXI.r.m.n.2.n.l.l.N.x.,. .b s r r p p p 5 5 p t 5 5 t 5 i r d 5.M.K.                                                                                                                                                                                                                                                                                                                                                                                                                                                                                                                                                                                                                                                                                                                                                                                                                                                                                  ",
"                                                                                                                                                                                                                                                                                                                                                                                                                                                                                                                                                                                                                                                                                                  BXGXGXFXGXGXGXGXGXGXGXGXGXGXGXGXGXGXGXGXDXaX}.<.m.n.l.C.c.c.C.m.8.o.b y r r p 6 p 6 5 5 6 6 5 9 i r r x J V.7.y.                                                                                                                                                                                                                                                                                                                                                                                                                                                                                                                                                                                                                                                                                                                                                                                                                                                                              ",
"                                                                                                                                                                                                                                                                                                                                                                                                                                                                                                                                                                                                                                                                                                    NXFXGXFXGXGXGXGXGXGXGXGXGXGXGXGXGXGXFXFXFXhXy.5.m.n.N.l.N.C.m.B.7.} b s r 5 5 i p 5 5 5 5 6 5 8 r i r s x <.r.d.                                                                                                                                                                                                                                                                                                                                                                                                                                                                                                                                                                                                                                                                                                                                                                                                                                                                            ",
"                                                                                                                                                                                                                                                                                                                                                                                                                                                                                                                                                                                                                                                                                                      vXFXGXGXFXGXGXGXGXGXGXGXGXGXGXFXGXGXFXFXFX+Xt.8.M.B.N.x.l.N.n.m.7.<. .A d s r 5 p p 5 5 6 5 9 5 r r s e x c O.t.f.                                                                                                                                                                                                                                                                                                                                                                                                                                                                                                                                                                                                                                                                                                                                                                                                                                                                        ",
"                                                                                                                                                                                                                                                                                                                                                                                                                                                                                                                                                                                                                                                                                                          rXGXGXGXGXGXGXGXGXGXGXGXGXGXFXGXGXFXGXFXvX&Xm.7.n.x.N.N.N.x.x.x.7.<.o.[ n r r p p r 5 9 9 5 5 7 r u s s i r S <.G.                                                                                                                                                                                                                                                                                                                                                                                                                                                                                                                                                                                                                                                                                                                                                                                                                                                                    ",
"                                                                                                                                                                                                                                                                                                                                                                                                                                                                                                                                                                                                                                                                                                            kXFXGXGXGXGXGXGXGXGXGXSXGXGXGXGXGXGXGXFXvX=XG.r.m.x.l.l.l.l.l.2.7.7.<.o.A s r r r r 5 5 5 p r 5 u : r i r i F H D.n.                                                                                                                                                                                                                                                                                                                                                                                                                                                                                                                                                                                                                                                                                                                                                                                                                                                                ",
"                                                                                                                                                                                                                                                                                                                                                                                                                                                                                                                                                                                                                                                                                                              GXGXGXGXGXGXGXGXGXGXFXGXGXGXGXGXGXFXGXFXvX,X5.m.n.l.c.N.N.x.x.x.x.2.7.2.H x r r p 9 8 3 5 t t p p p p : e e s x M.G.                                                                                                                                                                                                                                                                                                                                                                                                                                                                                                                                                                                                                                                                                                                                                                                                                                                              ",
"                                                                                                                                                                                                                                                                                                                                                                                                                                                                                                                                                                                                                                                                                                              5XGXGXGXGXGXGXGXGXFXGXGXFXGXGXGXSXGXHXFXFXMXt.<.m.x.c.x.x.c.c.x.l.n.x.x.n.,.A s r 5 a p r 5 p 7 t 5 r p p i s e b 7.m.G.                                                                                                                                                                                                                                                                                                                                                                                                                                                                                                                                                                                                                                                                                                                                                                                                                                                          ",
"                                                                                                                                                                                                                                                                                                                                                                                                                                                                                                                                                                                                                                                                                                                6XFXGXGXGXFXGXGXGXFXGXGXGXSXGXGXGXGXGXGXZX,X5.t.x.N.n.x.N.N.N.N.N.n.x.7.7.,.A s r 5 i p r 5 t 6 6 5 5 5 r i r r s G 5.G.                                                                                                                                                                                                                                                                                                                                                                                                                                                                                                                                                                                                                                                                                                                                                                                                                                                        ",
"                                                                                                                                                                                                                                                                                                                                                                                                                                                                                                                                                                                                                                                                                                                  5XGXFXFXGXGXGXGXGXGXGXGXGXGXSXSXGXFXFXGXVX2Xt.m.n.x.n.2.x.N.l.x.l.l.x.x.7.,. .c s r r 5 r t 6 5 6 6 5 5 5 5 r y r x S e.                                                                                                                                                                                                                                                                                                                                                                                                                                                                                                                                                                                                                                                                                                                                                                                                                                                      ",
"                                                                                                                                                                                                                                                                                                                                                                                                                                                                                                                                                                                                                                                                                                                      =XGXGXFXGXHXGXGXGXGXGXSXGXGXGXGXGXFXFXFXZXeXr.K.7.n.B.N.c.c.l.c.N.n.n.n.7.n.2.o.A s r r t 6 6 6 6 6 9 t r 5 s 5 r r b 5.y.                                                                                                                                                                                                                                                                                                                                                                                                                                                                                                                                                                                                                                                                                                                                                                                                                                                ",
"                                                                                                                                                                                                                                                                                                                                                                                                                                                                                                                                                                                                                                                                                                                        HXFXFXGXGXGXGXFXGXGXGXGXGXGXGXGXFXFXGXFXZXwXI.t.2.2.N.c.c.N.N.N.N.n.x.2.7.n.r.o.x r r 5 5 5 6 6 6 6 6 5 p ; 5 r r ; b G m.G.                                                                                                                                                                                                                                                                                                                                                                                                                                                                                                                                                                                                                                                                                                                                                                                                                                            ",
"                                                                                                                                                                                                                                                                                                                                                                                                                                                                                                                                                                                                                                                                                                                        @XBXGXFXFXFXGXGXFXGXGXGXSXGXGXFXFXGXGXGXFXFXeXt.m.K.B.N.l.c.c.c.N.N.x.2.x.7.x.x.,.] b p 5 6 9 6 5 3 5 5 5 9 3 5 p s y r G ,.G.                                                                                                                                                                                                                                                                                                                                                                                                                                                                                                                                                                                                                                                                                                                                                                                                                                          ",
"                                                                                                                                                                                                                                                                                                                                                                                                                                                                                                                                                                                                                                                                                                                          T.BXGXGXGXGXGXGXFXGXGXGXGXSXGXGXGXHXGXFXDXFXP.e.m.B.C.c.c.c.c.c.N.x.l.x.2.2.x.x.2. .n d i 5 5 5 p t 5 9 > 5 p 5 ; r y r x ] 6.                                                                                                                                                                                                                                                                                                                                                                                                                                                                                                                                                                                                                                                                                                                                                                                                                                        ",
"                                                                                                                                                                                                                                                                                                                                                                                                                                                                                                                                                                                                                                                                                                                            g.BXHXGXHXGXGXFXGXGXGXGXGXFXGXGXGXGXGXGXFXrXP.t.m.B.N.N.S.N.c.N.c.x.x.2.x.x.x.x.2.,.H k i 5 5 p 5 3 5 6 3 3 5 9 > 8 i : r D G.f.                                                                                                                                                                                                                                                                                                                                                                                                                                                                                                                                                                                                                                                                                                                                                                                                                                    ",
"                                                                                                                                                                                                                                                                                                                                                                                                                                                                                                                                                                                                                                                                                                                                j.BXGXGXGXFXGXGXGXFXGXGXGXGXGXSXGXGXGXGXFXcX/.m.c.S.Z.Z.S.N.N.x.N.v.x.x.2.2.2.2.r.<.o.A i : 5 p 5 t 6 5 3 9 5 3 3 p r r r d O.&.s.                                                                                                                                                                                                                                                                                                                                                                                                                                                                                                                                                                                                                                                                                                                                                                                                                              ",
"                                                                                                                                                                                                                                                                                                                                                                                                                                                                                                                                                                                                                                                                                                                                  g.FXGXFXGXFXGXGXGXGXGXFXGXGXFXGXGXGXGXFXFXcX+Xv.W.b.c.c.c.n.B.n.n.n.x.x.7.7.x.x.7.2.,.G d r r i 5 5 5 5 5 3 3 3 5 5 t t r p d 8.m.                                                                                                                                                                                                                                                                                                                                                                                                                                                                                                                                                                                                                                                                                                                                                                                                                            ",
"                                                                                                                                                                                                                                                                                                                                                                                                                                                                                                                                                                                                                                                                                                                                    vXGXGXHXGXHXGXGXGXGXGXFXGXGXGXGXGXGXGXGXFXvX:Xv.Z.c.Z.c.B.B.N.x.2.x.n.m.n.l.v.x.1.l.2.o.A r 5 5 p 5 3 3 5 9 9 8 8 5 5 5 5 r  .:.K.y.                                                                                                                                                                                                                                                                                                                                                                                                                                                                                                                                                                                                                                                                                                                                                                                                                        ",
"                                                                                                                                                                                                                                                                                                                                                                                                                                                                                                                                                                                                                                                                                                                                    %.kXHXGXGXGXGXGXSXSXGXGXSXGXGXGXGXGXSXFXGXFXVXm.v.B.B.c.B.n.N.x.2.2.n.n.n.l.N.N.l.2.2.r.o.A r r 5 5 5 5 5 3 8 5 5 5 5 5 5 5 y x G 4.t.                                                                                                                                                                                                                                                                                                                                                                                                                                                                                                                                                                                                                                                                                                                                                                                                                      ",
"                                                                                                                                                                                                                                                                                                                                                                                                                                                                                                                                                                                                                                                                                                                                      ^ jXGXFXGXGXGXGXGXGXGXGXGXGXGXGXGXGXFXGXGXFX&XL.K.B.R.B.x.N.N.x.2.2.x.x.x.2.x.N.l.2.7.<.o.S f r r 5 5 3 5 5 5 5 5 5 5 5 r r p r k O.8.                                                                                                                                                                                                                                                                                                                                                                                                                                                                                                                                                                                                                                                                                                                                                                                                                    ",
"                                                                                                                                                                                                                                                                                                                                                                                                                                                                                                                                                                                                                                                                                                                                        P kXGXGXFXFXGXGXGXGXGXGXGXGXGXGXGXGXGXGXFXNX=XG.M.B.c.c.c.N.N.x.l.l.x.n.l.l.l.l.x.x.2.,.<.[ A c d : 5 p 5 5 6 p 5 5 5 5 3 5 5 p s S m.G.                                                                                                                                                                                                                                                                                                                                                                                                                                                                                                                                                                                                                                                                                                                                                                                                                ",
"                                                                                                                                                                                                                                                                                                                                                                                                                                                                                                                                                                                                                                                                                                                                          < P rXGXFXHXGXGXFXGXGXGXGXGXGXGXGXSXFXFXFXFXVX,Xm.B.b.z.l.l.x.x.x.l.l.x.l.l.l.l.2.7.x.7.,.>.,.} x r 5 5 5 5 5 5 5 5 9 9 a 5 5 r r x n [ H.s.                                                                                                                                                                                                                                                                                                                                                                                                                                                                                                                                                                                                                                                                                                                                                                                                          ",
"                                                                                                                                                                                                                                                                                                                                                                                                                                                                                                                                                                                                                                                                                                                                            < ! DXGXFXGXGXGXGXGXGXGXGXGXGXGXGXGXSXGXFXFXVXqX9.J.c.c.c.c.N.x.l.2.2.l.N.C.N.x.x.7.2.1.1.7.7.| b s r r 5 5 5 r t p 5 5 p a i 5 7 d s v 5.f.                                                                                                                                                                                                                                                                                                                                                                                                                                                                                                                                                                                                                                                                                                                                                                                                        ",
"                                                                                                                                                                                                                                                                                                                                                                                                                                                                                                                                                                                                                                                                                                                                              , 5XFXGXFXGXFXGXGXGXGXGXGXGXGXGXGXGXSXFXFXFXDXL.J.B.C.C.C.N.l.l.2.n.n.x.l.l.x.x.l.2.l.l.2.1.,.>.| n s r r p p t r p r 5 5 5 p r r y s x ] t.=.                                                                                                                                                                                                                                                                                                                                                                                                                                                                                                                                                                                                                                                                                                                                                                                                    ",
"                                                                                                                                                                                                                                                                                                                                                                                                                                                                                                                                                                                                                                                                                                                                                P 3XDXGXGXGXGXGXGXGXGXGXGXGXGXFXGXSXGXFXFXFXrXI.m.K.V.n.C.N.l.x.x.x.N.x.l.l.x.l.l.l.l.l.2.2.2.7.7.G x r r p 5 r r r i 5 5 5 5 5 t s y r y.5.e.                                                                                                                                                                                                                                                                                                                                                                                                                                                                                                                                                                                                                                                                                                                                                                                                  ",
"                                                                                                                                                                                                                                                                                                                                                                                                                                                                                                                                                                                                                                                                                                                                                  h 5XDXHXGXGXFXGXGXGXBX3X@XkXGXGXGXFXGXFXGXFXrX^.7.M.R.V.x.N.A.l.l.l.l.l.l.c.l.c.c.l.l.l.x.x.7.m.<.| x r u r s r r r i p p 8 5 3 p r r s A F.y.t.                                                                                                                                                                                                                                                                                                                                                                                                                                                                                                                                                                                                                                                                                                                                                                                              ",
"                                                                                                                                                                                                                                                                                                                                                                                                                                                                                                                                                                                                                                                                                                                                                  4 1 w @XGXGXGXGXSXGX< * * , 4 Y FXGXFXGXFXHXGXFXaXI.r.M.V.A.C.N.x.x.x.x.N.N.N.N.c.l.x.c.x.x.x.2.7.8.>.| [ n y r r r r r r 8 8 9 3 5 p : y y y b 5.f.                                                                                                                                                                                                                                                                                                                                                                                                                                                                                                                                                                                                                                                                                                                                                                                          ",
"                                                                                                                                                                                                                                                                                                                                                                                                                                                                                                                                                                                                                                                                                                                                                    1 < 4 BXGXGXFXSX5X* O 2 3 , 4 GXGXGXFXGXGXFXFXFXhX/.m.x.V.A.x.l.l.l.l.x.N.c.N.x.l.x.c.x.x.x.7.x.n.7.7.8.>.A s p s p r r r 9 9 > 3 > r s y y e <.t.e.                                                                                                                                                                                                                                                                                                                                                                                                                                                                                                                                                                                                                                                                                                                                                                                        ",
"                                                                                                                                                                                                                                                                                                                                                                                                                                                                                                                                                                                                                                                                                                                                                      0 , T.vXFXGXJXY O * * O * X BXGXGXGXGXGXGXGXFXGXlX8.K.x.x.N.x.l.l.l.N.N.x.l.l.l.x.x.l.x.x.x.n.x.7.2.2.7.7.d i r y y r r 5 > 3 9 8 p r y e y x n t.=.e.                                                                                                                                                                                                                                                                                                                                                                                                                                                                                                                                                                                                                                                                                                                                                                                    ",
"                                                                                                                                                                                                                                                                                                                                                                                                                                                                                                                                                                                                                                                                                                                                                        4 6 h.AXBXq., , * O * 3 , jXFXGXGXGXSXGXGXFXFXFXI.7.m.V.C.N.n.n.x.N.N.x.l.l.l.l.x.l.l.x.l.l.1.x.v.7.7.2.O.A s r r p r 5 p 8 > 5 r 5 s r e : r n O.F.e.                                                                                                                                                                                                                                                                                                                                                                                                                                                                                                                                                                                                                                                                                                                                                                                  ",
"                                                                                                                                                                                                                                                                                                                                                                                                                                                                                                                                                                                                                                                                                                                                                          2 9 +X+X5 # O * , O # X kXGXGXGXGXGXGXSXGXGXGXvX).Q.1.N.N.n.x.l.x.N.x.N.x.l.x.x.l.l.x.x.x.2.l.c.x.N.x.m.O.S n d p i i 5 p r r 5 3 3 5 i i e s y b 5.X.                                                                                                                                                                                                                                                                                                                                                                                                                                                                                                                                                                                                                                                                                                                                                                                ",
"                                                                                                                                                                                                                                                                                                                                                                                                                                                                                                                                                                                                                                                                                                                                                              E I o 2 * O * , @ o 5XGXGXGXGXGXGXSXGXGXGXFXmX{.K.B.m.N.n.n.N.N.N.B.n.x.x.x.x.l.x.2.x.x.N.c.l.c.x.8.7.5.O.D f r p p c S r 5 5 8 8 5 : r : s y y 5.y.6.                                                                                                                                                                                                                                                                                                                                                                                                                                                                                                                                                                                                                                                                                                                                                                            ",
"                                                                                                                                                                                                                                                                                                                                                                                                                                                                                                                                                                                                                                                                                                                                                                  & < , * & & & @ 5XGXGXGXGXGXGXSXGXSXGXFXGXFXCX,XK.n.N.N.N.N.C.n.n.N.n.x.2.2.l.v.x.x.x.x.x.c.x.l.n.n.7.2.<.H x y r r p 3 5 5 8 5 ; 5 p r r s r x O.t.F.                                                                                                                                                                                                                                                                                                                                                                                                                                                                                                                                                                                                                                                                                                                                                                        ",
"                                                                                                                                                                                                                                                                                                                                                                                                                                                                                                                                                                                                                                                                                                                                                                        . O , , O 5XGXFXGXSXGXGXGXGXGXSXGXSXGXFXVX<XK.B.N.N.c.c.N.n.n.n.n.x.x.n.v.v.N.B.N.N.c.c.N.N.n.x.x.x.1.} n s r p 5 5 5 8 5 3 5 r 5 r u r s x ] r.r.                                                                                                                                                                                                                                                                                                                                                                                                                                                                                                                                                                                                                                                                                                                                                                      ",
"                                                                                                                                                                                                                                                                                                                                                                                                                                                                                                                                                                                                                                                                                                                                                                            . , @ rXGXGXGXGXSXGXFXGXGXGXGXGXGXGXFXVXL.V.n.N.Z.N.n.2.2.2.x.x.n.N.x.c.N.N.B.B.N.c.N.x.2.l.x.2.7.7.5.S r r 3 i 5 > 5 5 5 3 5 r r r r r x A ,.m.8.                                                                                                                                                                                                                                                                                                                                                                                                                                                                                                                                                                                                                                                                                                                                                                  ",
"                                                                                                                                                                                                                                                                                                                                                                                                                                                                                                                                                                                                                                                                                                                                                                              @ X kXGXFXHXGXGXGXGXBXHXGXSXGXGXFXGXFXwXG.K.7.n.C.x.l.2.2.x.x.x.x.x.x.N.N.B.B.B.C.N.x.x.x.n.x.7.7.<.<.] c ; 5 p p 5 9 5 5 5 r r r s y r s x <.G.t.                                                                                                                                                                                                                                                                                                                                                                                                                                                                                                                                                                                                                                                                                                                                                                ",
"                                                                                                                                                                                                                                                                                                                                                                                                                                                                                                                                                                                                                                                                                                                                                                              & @ kXFXGXGXFXGXGX3XT.@X5XHXGXSXGXFXGXFXuXK.m.r.V.x.x.x.x.n.x.c.c.c.N.B.Z.V.C.B.B.N.N.n.n.n.x.7.2.>.<.<.o.f r : 3 3 5 5 5 5 5 5 r p 7 y s ; A 7.8.J.F.                                                                                                                                                                                                                                                                                                                                                                                                                                                                                                                                                                                                                                                                                                                                                            ",
"                                                                                                                                                                                                                                                                                                                                                                                                                                                                                                                                                                                                                                                                                                                                                                                < jXFXFXGXFXGXkXW 2 o z 5XHXGXGXGXFXGXFXuXI.t.<.n.N.N.N.N.c.x.c.N.N.Z.A.Z.V.N.x.x.N.x.x.x.x.2.1.n.,.| <.[ A i r 8 5 5 5 5 5 5 5 r p 5 r r s x 9.9.m.                                                                                                                                                                                                                                                                                                                                                                                                                                                                                                                                                                                                                                                                                                                                                            ",
"                                                                                                                                                                                                                                                                                                                                                                                                                                                                                                                                                                                                                                                                                                                                                                                  rXGXGXFXGX=X2 - + * * X h.HXGXGXGXGXFXFXGXhXH.m.N.N.N.c.l.c.c.c.c.N.B.V.V.B.v.N.N.x.x.x.n.x.7.x.7.2.r.,.O.O.5.V p 3 5 5 5 5 5 5 3 t d p t r r s x m.r.8.                                                                                                                                                                                                                                                                                                                                                                                                                                                                                                                                                                                                                                                                                                                                                      ",
"                                                                                                                                                                                                                                                                                                                                                                                                                                                                                                                                                                                                                                                                                                                                                                                  $.5XFXFXGX! o + - * O & Y BXGXGXGXGXGXGXDXGX}.F.B.n.n.x.l.l.z.c.c.x.c.B.Z.Z.Z.x.l.l.x.n.n.n.x.x.m.n.7.>.7.8.5.X.d r r 5 5 5 5 5 9 p 5 t 5 t s r e K V.x.r.                                                                                                                                                                                                                                                                                                                                                                                                                                                                                                                                                                                                                                                                                                                                                    ",
"                                                                                                                                                                                                                                                                                                                                                                                                                                                                                                                                                                                                                                                                                                                                                                                    p.jXGXFX2 O + $ - O O P jXFXGXGXGXGXFXGXFXhX(.8.x.x.m.B.x.N.N.c.c.C.R.R.R.R.x.x.x.N.B.N.n.x.m.x.7.,.7.n.2.2.,.O.A r 5 r 5 5 5 5 5 9 6 3 5 r i e y x  .9.8.                                                                                                                                                                                                                                                                                                                                                                                                                                                                                                                                                                                                                                                                                                                                                  ",
"                                                                                                                                                                                                                                                                                                                                                                                                                                                                                                                                                                                                                                                                                                                                                                                      T.BXBX* # - @ 2 O * B jXGXGXSXGXGXGXGXGXFXhXQ.m.M.m.2.R.x.C.N.N.C.Z.Z.V.C.N.C.C.N.n.B.B.m.x.7.7.2.x.n.1.1.1.2.>.H x r 5 r 5 p p 5 3 5 5 5 i r r r x G >.r.                                                                                                                                                                                                                                                                                                                                                                                                                                                                                                                                                                                                                                                                                                                                                ",
"                                                                                                                                                                                                                                                                                                                                                                                                                                                                                                                                                                                                                                                                                                                                                                                        3X5XX * - @ * O O w kXFXGXGXGXGXGXGXGXGXFXhX#Xt.G.K.m.R.C.N.N.C.V.V.B.c.Z.A.A.C.N.N.n.x.2.2.x.2.x.n.2.2.2.2.7.2.} A d r 5 5 9 5 3 5 5 5 r i i r : i b ] 9.5.                                                                                                                                                                                                                                                                                                                                                                                                                                                                                                                                                                                                                                                                                                                                            ",
"                                                                                                                                                                                                                                                                                                                                                                                                                                                                                                                                                                                                                                                                                                                                                                                          w & O O > * 2 # q kXGXGXGXGXGXGXGXGXGXGXGXFXmX,Xt.M.n.v.N.x.c.v.v.v.x.A.N.N.A.V.x.2.2.2.2.2.2.2.2.2.2.2.1.2.7.7.7.o.x r 5 3 5 9 5 3 5 r r p p 5 5 r y b 9.5.&.                                                                                                                                                                                                                                                                                                                                                                                                                                                                                                                                                                                                                                                                                                                                        ",
"                                                                                                                                                                                                                                                                                                                                                                                                                                                                                                                                                                                                                                                                                                                                                                                                . X , , o 4 dXGXGXFXGXGXGXFXGXGXFXGXFXFXCXt.r.K.B.B.N.x.x.x.v.c.N.x.N.A.C.x.2.x.2.2.x.n.2.2.x.2.2.2.x.n.x.m.r.o.A d r r 6 5 5 9 8 5 5 5 r r r r e b G 7.8.                                                                                                                                                                                                                                                                                                                                                                                                                                                                                                                                                                                                                                                                                                                                      ",
"                                                                                                                                                                                                                                                                                                                                                                                                                                                                                                                                                                                                                                                                                                                                                                                                  . & * , * rXFXGXGXGXGXFXGXGXGXGXGXGXGXGX,XF.<.V.B.N.N.c.c.B.V.c.Z.A.C.x.l.x.n.x.2.x.n.l.2.n.2.2.2.x.N.x.2.1.2.,.] n r 5 5 6 9 6 6 6 5 5 5 r i i e y  .<.8.                                                                                                                                                                                                                                                                                                                                                                                                                                                                                                                                                                                                                                                                                                                                    ",
"                                                                                                                                                                                                                                                                                                                                                                                                                                                                                                                                                                                                                                                                                                                                                                                                    o , 3 , rXGXFXGXGXGXGXGXFXGXGXSXGXFXFXDXqXL.m.x.x.N.B.c.c.B.S.A.R.N.2.l.x.x.x.x.x.B.x.2.n.2.n.l.2.l.l.1.>.,.7.<. .b d r 5 5 6 4 6 6 6 5 5 5 : p i r b O.v.                                                                                                                                                                                                                                                                                                                                                                                                                                                                                                                                                                                                                                                                                                                                  ",
"                                                                                                                                                                                                                                                                                                                                                                                                                                                                                                                                                                                                                                                                                                                                                                                                      , O , 5XGXFXGXGXGXFXjXkXjXGXGXSXGXGXFXDXeXF.8.x.V.A.B.c.N.Z.S.N.x.x.x.7.x.n.x.x.B.l.2.N.l.l.n.n.1.1.1.,.1.7.1.<.<.G s r r 6 6 3 6 6 9 6 5 r ; i 5 r n 1.8.&.                                                                                                                                                                                                                                                                                                                                                                                                                                                                                                                                                                                                                                                                                                                              ",
"                                                                                                                                                                                                                                                                                                                                                                                                                                                                                                                                                                                                                                                                                                                                                                                                          1 5XFXGXFXGXFXkXY z ^ 5XGXGXGXGXGXFXDX4XG.8.m.R.c.z.c.S.z.l.x.n.r.7.x.v.c.z.c.N.x.v.n.N.x.2.x.1.;.1.1.<.<.x.7.,.b x y t 5 5 3 5 5 5 3 9 9 5 5 5 r A <.n.8.                                                                                                                                                                                                                                                                                                                                                                                                                                                                                                                                                                                                                                                                                                                            ",
"                                                                                                                                                                                                                                                                                                                                                                                                                                                                                                                                                                                                                                                                                                                                                                                                            @XGXGXFXFXvX4 O * O O h 5XGXHXGXFXGXFXDXuX<.B.l.Z.c.Z.N.N.x.2.7.n.n.x.c.S.z.c.B.n.2.2.3.l.>.1.7.,.7.2.2.7.1.1.,.,.>.v p 5 6 9 5 5 6 5 3 3 5 r r r y x L 7.5.                                                                                                                                                                                                                                                                                                                                                                                                                                                                                                                                                                                                                                                                                                                        ",
"                                                                                                                                                                                                                                                                                                                                                                                                                                                                                                                                                                                                                                                                                                                                                                                                            6XHXFXFXGX3X, O O * * # h.HXGXGXGXGXGXFXDXL.x.n.x.c.S.N.N.x.2.2.n.n.x.z.c.x.v.B.7.x.n.2.x.2.2.x.1.x.2.1.2.>.<.,.,.} O.A r 5 6 5 5 3 5 9 p t r r 5 e e s >.M.8.                                                                                                                                                                                                                                                                                                                                                                                                                                                                                                                                                                                                                                                                                                                      ",
"                                                                                                                                                                                                                                                                                                                                                                                                                                                                                                                                                                                                                                                                                                                                                                                                            5XHXFXGXFXj.o o * * * * ^ BXGXGXGXGXGXFXFXuX/.7.V.v.C.x.x.C.N.x.x.N.x.B.B.x.x.m.7.x.1.x.1.2.v.2.x.x.1.1.2.,.2.<.,.} <.| v r 5 5 5 5 5 5 5 3 5 5 r p i e s 1.n.v.6.                                                                                                                                                                                                                                                                                                                                                                                                                                                                                                                                                                                                                                                                                                                  ",
"                                                                                                                                                                                                                                                                                                                                                                                                                                                                                                                                                                                                                                                                                                                                                                                                              jXjXFXBX^ * * * o 2 # $.BXFXGXFXGXGXGXFXGXlX/.5.8.n.x.N.A.Z.N.c.c.c.B.m.V.XXQ.v.,.:.B.7.1.B.v.x.7.x.1.1.,.2.,.,.,.o.,.O.S d r p p 5 5 3 3 5 p t 5 : i s x 1.7.K.,.                                                                                                                                                                                                                                                                                                                                                                                                                                                                                                                                                                                                                                                                                                                ",
"                                                                                                                                                                                                                                                                                                                                                                                                                                                                                                                                                                                                                                                                                                                                                                                                                j.jXjX3 o O 5 * > % Y BXFXGXGXGXGXGXFXGXFXhX+XF.<.2.x.N.c.S.S.c.x.n.V.(.nXaX1XK.m.:.x.V.7.x.2.1.7.1.1.,.<.| o.>.,.,.<.,.] c i 5 5 5 5 t p t 5 5 r d : e s J 1.V.7.                                                                                                                                                                                                                                                                                                                                                                                                                                                                                                                                                                                                                                                                                                              ",
"                                                                                                                                                                                                                                                                                                                                                                                                                                                                                                                                                                                                                                                                                                                                                                                                                  =X5X* * 2 % + o 2 N NXGXGXGXGXHXGXGXFXGXFXvXY.G.7.2.c.c.b.c.c.1.1.A x eXmXMXlX&Xm.m.M.,.1.x.x.1.1.2.2.2.<.<.<.2.,.,.,.<.[ A d r 5 5 5 3 - 3 i r r i i e x J x.v.K.                                                                                                                                                                                                                                                                                                                                                                                                                                                                                                                                                                                                                                                                                                            ",
"                                                                                                                                                                                                                                                                                                                                                                                                                                                                                                                                                                                                                                                                                                                                                                                                                    z O * O * > > * 6 vXGXGXGXGXGXHXGXGXFXGXGXGX*XG.1.B.W.b.c.c.v. .e $ 6.O.G I.aXaX{.5.8.7.7.x.v.x.x.1.2.1.2.,.1.l.2.,.>.<.<...k r 3 5 p 5 5 5 r r r r i s y s x m.m.F.                                                                                                                                                                                                                                                                                                                                                                                                                                                                                                                                                                                                                                                                                                        ",
"                                                                                                                                                                                                                                                                                                                                                                                                                                                                                                                                                                                                                                                                                                                                                                                                                      4 O * * * * - 2 jXGXFXGXGXGXGXGXFXGXGXGXFXCX=Xm.V.B.z.S.x.v. .s ; ] k s d X.VXmX&X8.8.n.7.x.v.2.2.n.2.>.l.l.2.;.1.7.>.,.O.[ A p 5 5 5 5 5 p t t p i r i s x b n.B.m.F.                                                                                                                                                                                                                                                                                                                                                                                                                                                                                                                                                                                                                                                                                                    ",
"                                                                                                                                                                                                                                                                                                                                                                                                                                                                                                                                                                                                                                                                                                                                                                                                                          . o 2 > * 3 kXFXFXGXGXGXGXFXGXFXGXFXGXFXCX,Xm.v.v.x.B.x.<.S r c v r t r }.mXMXqX/.m.M.x.x.1.2.l.2.3.l.x.N.x.v.x.1.<.,.5.| S d p 5 5 3 6 6 t r r i i i i s K x.n.m.r.                                                                                                                                                                                                                                                                                                                                                                                                                                                                                                                                                                                                                                                                                                  ",
"                                                                                                                                                                                                                                                                                                                                                                                                                                                                                                                                                                                                                                                                                                                                                                                                                            . , 3 o 2 kXGXFXGXFXGXGXGXGXFXGXGXGXGXFXCXqXI.m.m.7.7.7.| S 1XuXI.r r p P.cXZXaX{.M.7.2.x.x.l.x.c.3.x.B.x.1.7.2.7.2. .o.,.] n i i a 6 6 t r r r i i i i s A r.n.M.                                                                                                                                                                                                                                                                                                                                                                                                                                                                                                                                                                                                                                                                                                  ",
"                                                                                                                                                                                                                                                                                                                                                                                                                                                                                                                                                                                                                                                                                                                                                                                                                              1 * * 2 dXGXFXGXGXGXBX@X@X5XGXFXGXGXFXGXCXeX^.4.r.7.<.5.5.r.$XxXqXR t p e.qXZXmXm.7.m.7.2.c.l.3.l.x.x.3.3.2.7.7.2.:.>.,.O.[ D d 7 5 6 p p r r r p : i i : A >.3.1.r.                                                                                                                                                                                                                                                                                                                                                                                                                                                                                                                                                                                                                                                                                              ",
"                                                                                                                                                                                                                                                                                                                                                                                                                                                                                                                                                                                                                                                                                                                                                                                                                                  * 2 5XGXGXGXFXGX@X4 4 N kXFXSXGXGXGXFXDXrXf.5.r.2.n.<.G 7.m.wXhXp 5 d [ uXZX&X5.7.m.m.7.1.x.x.7.1.1.2.x.7.3.1.,.,.,.<.<.o.A s r 5 5 p p r r r i p i 8 : s K l.,.8.                                                                                                                                                                                                                                                                                                                                                                                                                                                                                                                                                                                                                                                                                            ",
"                                                                                                                                                                                                                                                                                                                                                                                                                                                                                                                                                                                                                                                                                                                                                                                                                                  < , 3XFXFXGXGX=X, X * 2 X p.jXGXFXGXGXFXDXrXY.8.K.x.B.8.,.G | y.sX{.c p ; R mXDXqXI.m.n.n.V.B.1.,.2.7.2.1.>.2.>.1.2.2.,.>.>.O.H k i 5 5 i r r i ; 5 8 p s s x >.r.m.e.                                                                                                                                                                                                                                                                                                                                                                                                                                                                                                                                                                                                                                                                                        ",
"                                                                                                                                                                                                                                                                                                                                                                                                                                                                                                                                                                                                                                                                                                                                                                                                                                    4 @XGXGXFXFXh.* * 3 2 O 3 j.GXGXGXHXFXFXZXlX/.n.B.x.1.2.M.G | /.aXwXS p 5 Y.sXZXaXQ.m.V.7.x.1.<.7.,.>.,.>.x.n.2.1.,.2.2.<.O.<.O.A i ; 5 9 8 p p d 5 i i ; s e J 7.t.P.                                                                                                                                                                                                                                                                                                                                                                                                                                                                                                                                                                                                                                                                                      ",
"                                                                                                                                                                                                                                                                                                                                                                                                                                                                                                                                                                                                                                                                                                                                                                                                                                      ^ kXFXGXHXQ # 2 O * > + U GXGXFXGXGXFXFXDXlXI.7.B.x.1.7.7.} <.Q.yXwXO.p k e.wXVXxX#XM.7.1.v.x.x.1.1.7.>.1.2.1.2.2.7.<.,.,.o.<.,.c 5 8 9 5 5 p 5 s r r 8 8 s y J O.5.s.                                                                                                                                                                                                                                                                                                                                                                                                                                                                                                                                                                                                                                                                                    ",
"                                                                                                                                                                                                                                                                                                                                                                                                                                                                                                                                                                                                                                                                                                                                                                                                                                        T.FXFXkXq * * * > > > 0 FXGXGXGXGXFXGXGXFXhXP.6.M.n.l.N.1.o.7.m.9XlX/.t k =.2XVXVXr.1.7.x.x.x.2.1.2.7.1.2.2.7.2.<.2.7.1.2.2.<. .c i 5 r 5 i r r r i 8 i i i s x 5.5.s.                                                                                                                                                                                                                                                                                                                                                                                                                                                                                                                                                                                                                                                                                  ",
"                                                                                                                                                                                                                                                                                                                                                                                                                                                                                                                                                                                                                                                                                                                                                                                                                                          CXFX5X, * * & * 2 * 6 GXGXFXGXGXGXGXGXGXHXjXY.8.m.Z.S.n.K K n.M.:XxXj 6 h $.+XmXyXK.K.x.n.;.x.x.n.n.n.1.1.2.7.2.2.7.1.;.1.x.2.} c i 5 i r r p p r 5 p p 5 5 p S X.e.                                                                                                                                                                                                                                                                                                                                                                                                                                                                                                                                                                                                                                                                                  ",
"                                                                                                                                                                                                                                                                                                                                                                                                                                                                                                                                                                                                                                                                                                                                                                                                                                            6X. . . o < * * > 2 FXGXGXGXGXGXGXGXGXGXFXFX+XK.B.C.x.V.n.3. .,.8.uXrX=.5 a V aXDXmX>XV.V.n.8.7.x.2.1.1.2.2.2.7.7.1.1.2.1.,.>.O.O.O.c r r i i r p 5 p p p p r v X.                                                                                                                                                                                                                                                                                                                                                                                                                                                                                                                                                                                                                                                                                  ",
"                                                                                                                                                                                                                                                                                                                                                                                                                                                                                                                                                                                                                                                                                                                                                                                                                                                . . . & * * 3 4 GXGXGXGXGXGXGXGXFXGXGXGXvX/.m.n.x.A.A.x.x.;. .U.wXaXf.5 a H.wXZXMX:XM.7.m.m.n.n.1.1.1.2.2.7.7.2.1.2.1.>.<.7.5.<.[ f r r 5 i p 5 5 5 ; 5 c O.X.                                                                                                                                                                                                                                                                                                                                                                                                                                                                                                                                                                                                                                                                                  ",
"                                                                                                                                                                                                                                                                                                                                                                                                                                                                                                                                                                                                                                                                                                                                                                                                                                                    . . 2 , O 2 GXGXGXGXGXHXGXFXGXGXSXFXFXvX+Xm.V.v.B.N.l.l.:.2.M.1XMX#Xa V e.eXZXVXG.m.m.7.1.n.7.1.2.2.2.2.l.2.1.2.2.,.<.7.<.O.<.G n d : 5 p 5 i r : ; H [ Z                                                                                                                                                                                                                                                                                                                                                                                                                                                                                                                                                                                                                                                                                   ",
"                                                                                                                                                                                                                                                                                                                                                                                                                                                                                                                                                                                                                                                                                                                                                                                                                                                        , & 2 1 GXGXGXGXGXFXGXGXGXGXGXGXFXFXcX*XM.V.v.V.l.Z.l.>.7.7.{.sX*X> l =.&XMXwXXX8.7.n.m.x.2.2.2.2.2.2.2.7.7.,.,.<.8.8.7.>.o.| A i 5 5 3 + - ; e H A Z C                                                                                                                                                                                                                                                                                                                                                                                                                                                                                                                                                                                                                                                                                 ",
"                                                                                                                                                                                                                                                                                                                                                                                                                                                                                                                                                                                                                                                                                                                                                                                                                                                            2 , GXGXGXSXGXGXCXvXjXGXGXSXFXFXFXCX2X8.m.n.N.x.N.L J x.<./.sXQ 5 l R #XZXaX$XG.m.7.n.2.2.l.2.2.2.2.2.2.2.7.7.2.,.o.,.,.,.o.A p 5 > 3 ; ; s [ S Z I                                                                                                                                                                                                                                                                                                                                                                                                                                                                                                                                                                                                                                                                                 ",
"                                                                                                                                                                                                                                                                                                                                                                                                                                                                                                                                                                                                                                                                                                                                                                                                                                                            , < GXFXGXGXGXGX@X^ %.@XkXGXFXGXHXGXMXI.5.V.n.C.N.3.3.J 1.m.H.sX=.3 k Z cXZXMX&XM.V.x.2.2.l.2.2.2.2.2.2.2.7.7.<.<.<.<.,.>.,...c 5 > - ; r A [ o.D Z                                                                                                                                                                                                                                                                                                                                                                                                                                                                                                                                                                                                                                                                                 ",
"                                                                                                                                                                                                                                                                                                                                                                                                                                                                                                                                                                                                                                                                                                                                                                                                                                                              4 GXGXHXGXFXGX2 , 2 O < j.GXGXGXGXFXVXwXL.M.B.l.N.C.z.x.:.A F.4XhXP.p Z y.wXZXMX<Xn.B.1.1.B.x.2.2.x.2.2.7.7.,.,.2.1.>.,.>.O.O.R * - d Z S <.r.[ V I                                                                                                                                                                                                                                                                                                                                                                                                                                                                                                                                                                                                                                                                               ",
"                                                                                                                                                                                                                                                                                                                                                                                                                                                                                                                                                                                                                                                                                                                                                                                                                                                              q GXFXGXGXGXCXO 2 2 @ 2 z GXFXGXGXFXGXDXwX^.<.>.V.c.N.3.;.:.<.5.#XcXI.5 c t.&XMXMX!.7.V.x.1.N.x.B.x.7.2.2.<.,.1.1.1.,.,.,.<.<...; ; k D S } o.G Z U                                                                                                                                                                                                                                                                                                                                                                                                                                                                                                                                                                                                                                                                               ",
"                                                                                                                                                                                                                                                                                                                                                                                                                                                                                                                                                                                                                                                                                                                                                                                                                                                                GXGXFXGXFXjX2 2 @ 3 * O BXGXGXGXGXGXFXFXeXP.M.B.v.v.x.x.L ,.4.F.#XcXV r S 5.:XnXfXQ.m.m.m.K.x.n.n.x.7.,.,.<.<.,.,.>.,.,.<.O.[ : i Z ] H H G G H Z W                                                                                                                                                                                                                                                                                                                                                                                                                                                                                                                                                                                                                                                                             ",
"                                                                                                                                                                                                                                                                                                                                                                                                                                                                                                                                                                                                                                                                                                                                                                                                                                                                BXGXGXFXGXjXo 3 * 3 2 , kXGXGXGXGXGXGXGXDXaXY.m.x.x.1.v.v.1. .<.8.^.uXD s k [ {.FXzXXXK.V.V.V.n.n.x.2.1.,.2.<.,.,.,.2.,.,.| H e V R D H J K H G Z R                                                                                                                                                                                                                                                                                                                                                                                                                                                                                                                                                                                                                                                                             ",
"                                                                                                                                                                                                                                                                                                                                                                                                                                                                                                                                                                                                                                                                                                                                                                                                                                                                rXGXGXGXFX5X2 * 3 @ 2 * 5XSXGXGXGXFXGXFXFXFXhX6.7.1.B.B.N.l.1.:. .8.yXaXr.s c ..sXFXnX:XK.m.V.V.x.l.2.2.2.2.,.<.,.2.2.,.,.}  .x Z D A H J H J G Z R                                                                                                                                                                                                                                                                                                                                                                                                                                                                                                                                                                                                                                                                             ",
"                                                                                                                                                                                                                                                                                                                                                                                                                                                                                                                                                                                                                                                                                                                                                                                                                                                                ) kXFXGXGX3X* 2 2 O - , 3XFXGXGXGXGXGXGXFXFXFXH.8.9.B.c.R.v.,.J :.>.K.9XzX/.i c G.wXZXMX9X{.m.2.x.l.2.2.2.<.,.<.,.2.2.,.,.} >.G Z S S H J K K G [ Z                                                                                                                                                                                                                                                                                                                                                                                                                                                                                                                                                                                                                                                                             ",
"                                                                                                                                                                                                                                                                                                                                                                                                                                                                                                                                                                                                                                                                                                                                                                                                                                                                  1 Y kXBX^ < * * * @ 2 @XGXFXGXHXGXGXHXFXGXGXFXMX#XV.B.B.x.n.n.1.1.J <.r.}.mX=Xp C +.*XmXMX Xm.c.c.x.2.2.<.,.,.,.2.1.>.,.>.<.| ] S ] J K K K J ] C U                                                                                                                                                                                                                                                                                                                                                                                                                                                                                                                                                                                                                                                                           ",
"                                                                                                                                                                                                                                                                                                                                                                                                                                                                                                                                                                                                                                                                                                                                                                                                                                                                    1 ~ rXY & * 2 + * * j.FXGXGXGXFXGXGXGXGXHXGXFXmX<XK.B.n.2.N.N.x.>.G o.r./.hXX.p k O.^.nXxX-XB.C.m.2.,.<.<.>.7.7.1.>.1.,.2.o.[ S [ H K K K H S Z R E P                                                                                                                                                                                                                                                                                                                                                                                                                                                                                                                                                                                                                                                                       ",
"                                                                                                                                                                                                                                                                                                                                                                                                                                                                                                                                                                                                                                                                                                                                                                                                                                                                      0 u.    @ O * O , h.DXFXGXGXSXGXGXGXGXGXFXGXFXCX=Xt.1.Z.z.l.l.l.J ;.,.7.^.aX*.p a R {.ZXMX9XQ.r.7.2.2.>.2.1.2.7.7.>.>.5.<.O.H G H H J J H G S V D R                                                                                                                                                                                                                                                                                                                                                                                                                                                                                                                                                                                                                                                                       ",
"                                                                                                                                                                                                                                                                                                                                                                                                                                                                                                                                                                                                                                                                                                                                                                                                                                                                                , & < & a.AXGXFXGXGXGXFXGXFXGXGXGXGXFXvX2Xr.;.N.C.N.N.l.;.;.,.7.wXxX*.j k V wXVXVXqXF.m.7.2.n.2.x.2.1.1.<.2.5.5.<.} H H G G H H  .[ ] S c Z                                                                                                                                                                                                                                                                                                                                                                                                                                                                                                                                                                                                                                                                     ",
"                                                                                                                                                                                                                                                                                                                                                                                                                                                                                                                                                                                                                                                                                                                                                                                                                                                                                    O & ^ HXFXGXGXFXGXFXGXDXHXGXGXGXFXDXVXt.m.B.C.C.n.N.2.3.:.J U.4XcX}.k j e.<XDXZXuXm.r.n.2.2.1.2.x.2.2.r.7.7.5.>.} H G G H G G H S S [ c D                                                                                                                                                                                                                                                                                                                                                                                                                                                                                                                                                                                                                                                                   ",
"                                                                                                                                                                                                                                                                                                                                                                                                                                                                                                                                                                                                                                                                                                                                                                                                                                                                                        P BXGXFXFXGXHX5XQ 4 * T.5XBXFXFXFXZX1XK.2.n.x.x.c.x.2.1.} O.G.*XxX2Xj c [ #XlXxX1XG.>.n.7.7.7.2.7.7.9.7.<.<.,.} G G H H } S D A Z Z A R                                                                                                                                                                                                                                                                                                                                                                                                                                                                                                                                                                                                                                                                 ",
"                                                                                                                                                                                                                                                                                                                                                                                                                                                                                                                                                                                                                                                                                                                                                                                                                                                                                        ) BXFXGXGXGXkX, O * * * w 3XGXFXFXFXVXqXK.7.n.B.Z.c.x.N.>.G o.t.U.eXe.5 c X.^.ZXmX:XK.m.K.7.>.x.x.1.9.v.1.2.7.,.H H [ H H H D c c ] A V U W                                                                                                                                                                                                                                                                                                                                                                                                                                                                                                                                                                                                                                                             ",
"                                                                                                                                                                                                                                                                                                                                                                                                                                                                                                                                                                                                                                                                                                                                                                                                                                                                                        ! BXGXSXFXGX6X< O * * * & Y BXFXGXGXFXDXwXQ.9.m.C.N.S.l.3.;.J o.r.F.xXI.d j [ wXZXMXqXU.r.7.7.m.7.9.v.x.2.7.x.1.} H [ H S [ A D A A D [ V R                                                                                                                                                                                                                                                                                                                                                                                                                                                                                                                                                                                                                                                             ",
"                                                                                                                                                                                                                                                                                                                                                                                                                                                                                                                                                                                                                                                                                                                                                                                                                                                                                        a.HXFXFXGXGXj.& > * > - X w kXGXGXGXGXGXDXuX8.8.n.C.C.l.l.l.>.H } 8.,XcX).S d f.qXMXZXuXQ.8.M.7.,.v.c.z.v.x.7.,.} H H H O.H S H c S O.d Z Z { I                                                                                                                                                                                                                                                                                                                                                                                                                                                                                                                                                                                                                                                         ",
"                                                                                                                                                                                                                                                                                                                                                                                                                                                                                                                                                                                                                                                                                                                                                                                                                                                                                          BXFXGXGXHXs.# > > + * * < 5XFXGXGXSXGXFXFX/.t.m.m.l.N.c.l.l.>.J G 8.#XxXqXS O.=.&XvXZXuXI.m.7.7.R.c.c.C.x.2.,.} H H H G H [ A [ S n H S D c R                                                                                                                                                                                                                                                                                                                                                                                                                                                                                                                                                                                                                                                         ",
"                                                                                                                                                                                                                                                                                                                                                                                                                                                                                                                                                                                                                                                                                                                                                                                                                                                                                          3XBXGXGXBX^ o - = ; = + 2 5XGXGXGXGXGXGXGXhX+XF.5.V.x.N.c.l.3.;.:.o.r./.lXwXd v X./.aXDX#XL.M.x.x.v.x.v.1.x.1.} H } S S H o.D G A G b A S S Z C                                                                                                                                                                                                                                                                                                                                                                                                                                                                                                                                                                                                                                                       ",
"                                                                                                                                                                                                                                                                                                                                                                                                                                                                                                                                                                                                                                                                                                                                                                                                                                                                                              jXGXkX9 > 3 * * = + * 3XGXGXGXGXGXGXGXGXFXvX#X7.n.x.l.c.l.x.l. .J ] 8.F.hX^.k r R e.ZXMX9XR.K.B.v.B.x.2.2.n.2.,.o.H H H G G G G H A G H D [ Z                                                                                                                                                                                                                                                                                                                                                                                                                                                                                                                                                                                                                                                     ",
"                                                                                                                                                                                                                                                                                                                                                                                                                                                                                                                                                                                                                                                                                                                                                                                                                                                                                                kX5X6 * + - 5 - + @ *XGXGXGXGXGXFXGXFXGXFXcX*Xr.m.l.x.c.N.x.3.1.G ] 8.1XlX}.k r S 1XVXVXyX(.V.B.1.B.m.,.7.<.,.O.o.] A G G A A G  .G } [ Z j I M                                                                                                                                                                                                                                                                                                                                                                                                                                                                                                                                                                                                                                                 ",
"                                                                                                                                                                                                                                                                                                                                                                                                                                                                                                                                                                                                                                                                                                                                                                                                                                                                                                  4X@ * 9 * + > O O @XGXGXGXGXGXGXGXGXFXFXFXMX#X8.1.v.B.B.c.1.2.1.G G r.&XxX,XD s 5.#XnXDXfX(.7.m.v.x.7.m.2.<.7.<.| G G A S A A } H A S ] Z c V E                                                                                                                                                                                                                                                                                                                                                                                                                                                                                                                                                                                                                                               ",
"                                                                                                                                                                                                                                                                                                                                                                                                                                                                                                                                                                                                                                                                                                                                                                                                                                                                                                  5X. . * 3 O O O @ @XGXGXGXGXGXGXFXGXFXFXFXFXvXt.r.V.n.l.x.x.x.;.>.,.n.M.$XlXqXX.n O. XlXDXnXM.B.x.m.x.7.1.7.7.1.,.H G A H H H A ] o.] S A c S R R                                                                                                                                                                                                                                                                                                                                                                                                                                                                                                                                                                                                                                             ",
"                                                                                                                                                                                                                                                                                                                                                                                                                                                                                                                                                                                                                                                                                                                                                                                                                                                                                                        . & , o O O @XGXGXGXGXFXGXGXGXFXGXGXFXFX*XG.8.m.B.N.l.2.n.1.2.K >.Q.^.lXaXd d ] ^.uXZX:XQ.B.m.x.x.x.m.7.1.<. .G A H ] ] O.A G ] b A S D c R V                                                                                                                                                                                                                                                                                                                                                                                                                                                                                                                                                                                                                                           ",
"                                                                                                                                                                                                                                                                                                                                                                                                                                                                                                                                                                                                                                                                                                                                                                                                                                                                                                          . , o @ o +XGXGXFXFXFXHXGXFXGXGXGXFXFXCX4X^.v.7.n.B.C.C.x.l.1.J ,.G.Q.wXI.r d ] I.eXMX9X'.B.x.B.x.l.2.7.1.>. .} ] H D ] D ] G b A H b D c T @.                                                                                                                                                                                                                                                                                                                                                                                                                                                                                                                                                                                                                                        ",
"                                                                                                                                                                                                                                                                                                                                                                                                                                                                                                                                                                                                                                                                                                                                                                                                                                                                                                              1 O X j.GXGXGXFXGXGXrXh w w h.jXGXFXFXZXwXL.x.B.B.C.A.x.x.2.2. .] r.:XlX,Xv d A &XmXVXfX(.x.x.V.x.x.1.7.2.8.O.[ H ] ] A b H A H G H S R k N                                                                                                                                                                                                                                                                                                                                                                                                                                                                                                                                                                                                                                       ",
"                                                                                                                                                                                                                                                                                                                                                                                                                                                                                                                                                                                                                                                                                                                                                                                                                                                                                                                  X k.GXHXGXGXFXGXT.O O * , h.HXGXFXFXDXeXL.J.v.A.Z.x.N.2.2.>.H O.r.$XxXqX[ s X.*XmXZXxXQ.V.v.v.x.7.x.x.m.7.<.H D D D D G [ [ G ] S D Z V R                                                                                                                                                                                                                                                                                                                                                                                                                                                                                                                                                                                                                                     ",
"                                                                                                                                                                                                                                                                                                                                                                                                                                                                                                                                                                                                                                                                                                                                                                                                                                                                                                                    a.HXGXHXGXFXBXR @ + O + 0 5XFXGXFXGXZXuX7.K.R.N.C.x.x.2.2.,.| 5.r./.aXuXD ] O.).lXZX:XF.v.x.1.1.B.n.7.V.7.J A S S D ] ] ] ] ] ] ] S V R c                                                                                                                                                                                                                                                                                                                                                                                                                                                                                                                                                                                                                                   ",
"                                                                                                                                                                                                                                                                                                                                                                                                                                                                                                                                                                                                                                                                                                                                                                                                                                                                                                                    h.CXGXGXGXGXrX2 > * > * O j.GXGXSXFXGXFX/.8.7.B.v.N.1.n.>.7.n.H o.r.I.qXaXr v Z d.uXVX9XK.7.x.x.x.7.x.,.1.<.G A A H ] G G G G H ] D ] Z R Z                                                                                                                                                                                                                                                                                                                                                                                                                                                                                                                                                                                                                                 ",
"                                                                                                                                                                                                                                                                                                                                                                                                                                                                                                                                                                                                                                                                                                                                                                                                                                                                                                                    u.HXGXGXGXGX@X@ 2 * * * * Y GXGXGXGXGXGXhX{.K.7.9.x.x.n.C.B.2.2.} } <.r.9XY.p k [ X.MXVXuXI.M.7.x.7.B.1.2.,.,. .G  . .H G G | H S S ] V ] k Y                                                                                                                                                                                                                                                                                                                                                                                                                                                                                                                                                                                                                               ",
"                                                                                                                                                                                                                                                                                                                                                                                                                                                                                                                                                                                                                                                                                                                                                                                                                                                                                                                      jXGXGXFXDXh.O > * * * * < GXFXGXSXGXFXFXFXxX-XG.M.8.2.V.2.2.x.3.2.,.,.8.#XlX4XZ p *.}.xXVXnX-XK.7.x.1.3.x.x.7.,.} } J H G | G H D D S ] Z V Z R                                                                                                                                                                                                                                                                                                                                                                                                                                                                                                                                                                                                                           ",
"                                                                                                                                                                                                                                                                                                                                                                                                                                                                                                                                                                                                                                                                                                                                                                                                                                                                                                                      / jXGXGXHXw.# * * * 2 * < GXGXGXGXGXFXFXGXFXmX&Xt.r.V.V.N.N.N.x.n.>.o.o.8.+XuXuXX.k &.Y.wXZXmXK.x.B.v.z.B.v.m.x.1.} J  .} H A ] ] S D S V c R V E                                                                                                                                                                                                                                                                                                                                                                                                                                                                                                                                                                                                                         ",
"                                                                                                                                                                                                                                                                                                                                                                                                                                                                                                                                                                                                                                                                                                                                                                                                                                                                                                                        ) GXFXBXY O * * * * O & GXSXSXGXSXGXGXFXFXGXMXH.I.m.n.N.C.l.N.l.2.>.o.7.6.Y.eXhX5 k [ f.qXZX1XF.9.v.B.1.B.N.c.l.>.J  .} H A S S D H H H S v S C v E                                                                                                                                                                                                                                                                                                                                                                                                                                                                                                                                                                                                                     ",
"                                                                                                                                                                                                                                                                                                                                                                                                                                                                                                                                                                                                                                                                                                                                                                                                                                                                                                                          rXGXkX4 & O 3 > * 3 , FXGXGXGXGXSXGXFXGXFXGX=XH.G.B.C.l.A.c.C.n.n.n.} | 5.F.qXI.a j V O.2XMXwXQ.J.m.v.C.x.l.x.2.>.J H G G ] H ] A H G } G A D R V C                                                                                                                                                                                                                                                                                                                                                                                                                                                                                                                                                                                                                   ",
"                                                                                                                                                                                                                                                                                                                                                                                                                                                                                                                                                                                                                                                                                                                                                                                                                                                                                                                            5X5X< O * * 2 @ 2 O GXGXGXGXGXGXGXGXGXGXGXAX4XH.M.n.C.l.N.N.V.n.V.,. .} 5.m.mX#Xp p k 5.vXZXuX#XM.m.B.l.x.x.x.<.,.J } G A ] A G G G ] H G G A v C U                                                                                                                                                                                                                                                                                                                                                                                                                                                                                                                                                                                                                 ",
"                                                                                                                                                                                                                                                                                                                                                                                                                                                                                                                                                                                                                                                                                                                                                                                                                                                                                                                              Y . & 2 * - - - 3 GXGXGXGXGXGXGXGXGXGXHXFXDX4Xm.K.B.n.V.2.x.R.2.7.1.:. .<.XXxX<Xc p k *XcXVXxX:XK.m.l.x.n.1.1.<.<.H H G H A G G ] H } ] G A S Z C I                                                                                                                                                                                                                                                                                                                                                                                                                                                                                                                                                                                                               ",
"                                                                                                                                                                                                                                                                                                                                                                                                                                                                                                                                                                                                                                                                                                                                                                                                                                                                                                                                  . * + 2 @ 2 O GXGXGXGXGXGXGXGXHXGXGXGXFXFXDXuXQ.M.m.V.n.n.n.x.1.n.1.1.>.m.^.sXlX5.d [ H.sXZXMX(.R.V.1.9.x.,.1.>.>.} G G G H G G H H G A S D Z { E                                                                                                                                                                                                                                                                                                                                                                                                                                                                                                                                                                                                             ",
"                                                                                                                                                                                                                                                                                                                                                                                                                                                                                                                                                                                                                                                                                                                                                                                                                                                                                                                                    . * * 5 2 , GXGXGXGXGXGXGXGXGXGXGXFXGXFXFXZXeXr.m.n.x.n.B.N.c.c.V.1.J } r.^.wXcXn a C t.*XVXuXK.7.m.m.7.1.,.8.n.2.G G G H G ] S A H G A A [ R T C M                                                                                                                                                                                                                                                                                                                                                                                                                                                                                                                                                                                                         ",
"                                                                                                                                                                                                                                                                                                                                                                                                                                                                                                                                                                                                                                                                                                                                                                                                                                                                                                                                        * * O 1 GXGXGXGXGXGXGXGXGXGXGXGXGXGXGXFXZXY.6.m.R.N.N.A.A.C.N.l.>.>.} <.8.,XXXp k k 5.=XZXaX#X8.7.7.<.7.1.m.m.} H A H H } D G ] G b A G S Z V R Q                                                                                                                                                                                                                                                                                                                                                                                                                                                                                                                                                                                                       ",
"                                                                                                                                                                                                                                                                                                                                                                                                                                                                                                                                                                                                                                                                                                                                                                                                                                                                                                                                          2 * & GXGXGXGXGXGXGXGXGXGXHXGXGXFXGXGXGXhXY.m.m.2.N.Z.N.x.C.A.2.} } J 7.8.zX1XV r c X.lXFXxX{.8.m.9.1.1.v.n.,.} G G G G ] ] H G G A A ] c Z k Z Q                                                                                                                                                                                                                                                                                                                                                                                                                                                                                                                                                                                                     ",
"                                                                                                                                                                                                                                                                                                                                                                                                                                                                                                                                                                                                                                                                                                                                                                                                                                                                                                                                            4 , GXGXGXGXGXGXGXGXGXGXGXGXGXGXGXFXFXFXhX{.M.R.N.N.C.n.N.N.x.,.>.H b 7.XXyXeXX.r d I.sXFXMX&X4.7.7.m.x.7.7.,.o.} H D ] ] G G H G S c S v A V R R                                                                                                                                                                                                                                                                                                                                                                                                                                                                                                                                                                                                   ",
"                                                                                                                                                                                                                                                                                                                                                                                                                                                                                                                                                                                                                                                                                                                                                                                                                                                                                                                                              & GXGXGXGXGXGXGXGXGXGXGXGXGXGXGXFXGXFXFXFXmX(.V.B.C.C.n.R.x.x.2.n.7.,.7.G.K.wXsXP.d R t.*XVXqX).8.m.7.1.x.,.,.<.7.o.[ ] G G G S H A v S S D V k k P                                                                                                                                                                                                                                                                                                                                                                                                                                                                                                                                                                                               ",
"                                                                                                                                                                                                                                                                                                                                                                                                                                                                                                                                                                                                                                                                                                                                                                                                                                                                                                                                                FXFXGXGXGXGXGXGXGXGXGXGXGXFXGXGXGXGXFXFXFXvX#Xm.C.A.A.N.x.x.n.1.z.z.,.:.7.K.,XvXd 5 V *.&XZXlXY.6.m.7.V.2.2.N.2.,.[ ] G A ] | S S S S D S v c c V N                                                                                                                                                                                                                                                                                                                                                                                                                                                                                                                                                                                             ",
"                                                                                                                                                                                                                                                                                                                                                                                                                                                                                                                                                                                                                                                                                                                                                                                                                                                                                                                                                5XGXFXHXGXFXGXGXGXFXSXGXGXGXGXGXGXGXGXGXFXFXNXt.V.C.l.l.A.V.x.c.c.c.1.:.:.O.t.#X*XZ r S R cXFXhX+XF.r.1.>.c.z.N.7.} G ] G ] ] S S S Z S v v S S V D V                                                                                                                                                                                                                                                                                                                                                                                                                                                                                                                                                                                           ",
"                                                                                                                                                                                                                                                                                                                                                                                                                                                                                                                                                                                                                                                                                                                                                                                                                                                                                                                                                z 5XFXFXGXGXFXGXGXGXGXGXSXGXSXGXSXGXFXFXFXGXGX2XI.n.m.x.V.V.N.z.N.B.x.1.,.} o.r.fXuX[ p d H.eXZXmX:XK.1.V.N.l.l.1.>. .G G G G S A S S A v v S D S A Z l                                                                                                                                                                                                                                                                                                                                                                                                                                                                                                                                                                                         ",
"                                                                                                                                                                                                                                                                                                                                                                                                                                                                                                                                                                                                                                                                                                                                                                                                                                                                                                                                                < w @XBXGXHXGXFXFXGXGXGXFXGXGXGXGXGXGXFXGXFXFXDX,X6.8.m.R.x.c.S.N.C.B.7.<.} J } K.aXaX5.r Z G.4XVXVX,XM.7.n.l.x.,.<.,.} H A A H H ] G A v S D D c f V R Z I                                                                                                                                                                                                                                                                                                                                                                                                                                                                                                                                                                                     ",
"                                                                                                                                                                                                                                                                                                                                                                                                                                                                                                                                                                                                                                                                                                                                                                                                                                                                                                                                                  & < j.jXGXFXGXGXGXGXGXGXGXGXGXGXGXGXGXGXGXFXGXAX4XI.7.x.Z.c.Z.Z.C.N.n.2.1.;.;.7.M.9XfX8.c c O.,XZXVX).Q.x.2.x.1.,.1.2.>.H G }  .H G A A S D S S S c c R X.C                                                                                                                                                                                                                                                                                                                                                                                                                                                                                                                                                                                   ",
"                                                                                                                                                                                                                                                                                                                                                                                                                                                                                                                                                                                                                                                                                                                                                                                                                                                                                                                                                  < , O < ^ HXGXFXGXGXGXGXFXGXGXGXGXGXGXHXGXGXFXFXGXVXuXx.R.Z.A.A.C.n.n.C.C.x.1.:.b r.m.,X&Xc s c { {.VXuXXXm.8.1.7.2.1.1.2.,.J G G b A A S S b A H A b S Z v R                                                                                                                                                                                                                                                                                                                                                                                                                                                                                                                                                                                 ",
"                                                                                                                                                                                                                                                                                                                                                                                                                                                                                                                                                                                                                                                                                                                                                                                                                                                                                                                                                    2 , o * 5XAXGXGXFXGXFXGXGXGXGXGXGXGXGXGXGXGXGXGXFXCXQ.m.B.A.R.C.N.C.N.c.x.1.1.x.} <.G.xX1XS t j S zXFXmX&XF.x.n.x.1.1.n.x. .G K b A G S A A S ] b H A S S V Z C                                                                                                                                                                                                                                                                                                                                                                                                                                                                                                                                                                             ",
"                                                                                                                                                                                                                                                                                                                                                                                                                                                                                                                                                                                                                                                                                                                                                                                                                                                                                                                                                        < O h T.rX5X=XCXFXFXFXGXGXSXGXGXGXGXGXFXGXGXGXFXqXQ.n.B.B.N.Z.Z.c.c.c.c.v.7.1.J 7.XXuXuX5.d x I.uXVXmX9XR.2.1.n.2.>.1.1. .H G H H S A S S b H S A A A S D c M                                                                                                                                                                                                                                                                                                                                                                                                                                                                                                                                                                           ",
"                                                                                                                                                                                                                                                                                                                                                                                                                                                                                                                                                                                                                                                                                                                                                                                                                                                                                                                                                          2 , * 6 2 6 $.@X5X=X5XjXAXFXBXFXGXSXGXGXFXGXGXZXwXXXn.N.N.A.W.N.c.c.x.C.x.1.,.>.7.#XyXxXt.x ] H.4XMXVXqXB.x.1.x.7.1.1.,.} } G A A [ S S D D S A A A A S V v Z                                                                                                                                                                                                                                                                                                                                                                                                                                                                                                                                                                         ",
"                                                                                                                                                                                                                                                                                                                                                                                                                                                                                                                                                                                                                                                                                                                                                                                                                                                                                                                                                              2 2 * * * O 2 2 & P +X@Xj.5XBXBXBXHXGXGXHXFXZXaX~.B.n.A.Z.l.x.B.B.C.C.v.2.:. .7.Q.qXxX^.n [ 8.<XmXDXQ.7.n.2.x.1.1.2.7.1.>.b G G A D Z S S S H A A S S V V v                                                                                                                                                                                                                                                                                                                                                                                                                                                                                                                                                                       ",
"                                                                                                                                                                                                                                                                                                                                                                                                                                                                                                                                                                                                                                                                                                                                                                                                                                                                                                                                                                * 2 + > 2 o , * * * # o 0 Q q.T.g.5XjXkXBXCXFXlX(.V.Z.Z.l.l.n.K.x.C.C.B.n.1.,.7.K.:XlXb x n O.{.lXzX&Xm.8.7.,.7.x.x.1.>.K H H o.] R Z D H H G A S c G S v { T                                                                                                                                                                                                                                                                                                                                                                                                                                                                                                                                                                   ",
"                                                                                                                                                                                                                                                                                                                                                                                                                                                                                                                                                                                                                                                                                                                                                                                                                                                                                                                                                                      * * * 2 & = * 2 - O * * O * * o X & X 9 f s b 1.N.N.V.V.n.n.C.A.Z.V.n.7.2.} 7.m.uXuX5.r n X.eXMXVX9XM.m.<.7.7.7.,.2.} } H ] R ] ] H G G H ] b A ] S v S [ C                                                                                                                                                                                                                                                                                                                                                                                                                                                                                                                                                               ",
"                                                                                                                                                                                                                                                                                                                                                                                                                                                                                                                                                                                                                                                                                                                                                                                                                                                                                                                                                                          * * * * * * * 5 + o 3 + * 2 & O & * - 3 i ] x.V.V.m.V.B.A.A.C.B.n.x.7.} G } I.uXuX8.d k *.2XZXVXuXXX7.7.7.x.2.x.,.>.} } ] ] ] ] H ] ] D A S A S [ A V R U                                                                                                                                                                                                                                                                                                                                                                                                                                                                                                                                                             ",
"                                                                                                                                                                                                                                                                                                                                                                                                                                                                                                                                                                                                                                                                                                                                                                                                                                                                                                                                                                              * & < * O 2 + O O * o O 2 * 2 o * * + r | M.V.2.x.N.A.C.C.V.A.B.x.,.G ,.M.M.9XxX/.p C *.*XMXZXuX8.8.7.1.2.,.2.2.n.7.| ] ] ] ] G D [ S G G b G [ [ V Z I                                                                                                                                                                                                                                                                                                                                                                                                                                                                                                                                                           ",
"                                                                                                                                                                                                                                                                                                                                                                                                                                                                                                                                                                                                                                                                                                                                                                                                                                                                                                                                                                                  * * , * * 2 + * > 3 * + * * 2 2 2 > - x <.x.2.C.C.C.B.Z.C.x.2.1.x.,.} <.M.,XnX+Xp g 6.{.lXZX#Xm.8.7.m.2.x.x.x.m.2.}  .[ ] D S S [ D S o.D A S S V R E                                                                                                                                                                                                                                                                                                                                                                                                                                                                                                                                                         ",
"                                                                                                                                                                                                                                                                                                                                                                                                                                                                                                                                                                                                                                                                                                                                                                                                                                                                                                                                                                                      * , * O * = * * > 2 @ 2 * * * * > - r G K.V.V.m.n.V.C.n.l.x.x.7. .} <.r.{.lXZ c k T I.lXmXXXK.M.x.x.7.n.1.m.2.:.}  .] ] [ [ D D D S S o.S ] [ c V U P                                                                                                                                                                                                                                                                                                                                                                                                                                                                                                                                                     ",
"                                                                                                                                                                                                                                                                                                                                                                                                                                                                                                                                                                                                                                                                                                                                                                                                                                                                                                                                                                                            , & & * * * * * @ * * * @ - * - 5 - 5.r.m.M.m.x.l.x.x.x.x.2.J J } } 8.uXlXe.i p R ,XVXZXfX!.V.x.7.7.7.x.>.:.G ] O.G H G H [ H G G H G G S ] V V V R                                                                                                                                                                                                                                                                                                                                                                                                                                                                                                                                                 ",
"                                                                                                                                                                                                                                                                                                                                                                                                                                                                                                                                                                                                                                                                                                                                                                                                                                                                                                                                                                                                & O * * * O - + - - @ - * O > * 5 v <.m.M.n.n.A.x.l.2.2.2.2.,.J 1.V.9XzXI.p a *.{.xXZXzXm.m.n.n.7.B.;.>.2. .G H [ H [ [ [ G G G S D H S A b S Z Z                                                                                                                                                                                                                                                                                                                                                                                                                                                                                                                                               ",
"                                                                                                                                                                                                                                                                                                                                                                                                                                                                                                                                                                                                                                                                                                                                                                                                                                                                                                                                                                                                    & o 3 , * * * - * - > * * > - t S O.r.n.x.n.B.x.1.1.2.n.2.} J 2.m.9XmX#XV f X.Y.nXDX{.K.m.V.x.N.x.1.,.>.>.G [ [ [ | [ H G H S G [ A A A G S Z Z                                                                                                                                                                                                                                                                                                                                                                                                                                                                                                                                             ",
"                                                                                                                                                                                                                                                                                                                                                                                                                                                                                                                                                                                                                                                                                                                                                                                                                                                                                                                                                                                                      < * # 2 O * - + + - * * - - - ; d | r.m.m.V.x.2.2.2.2.2.>.J 2.m.K.:XmX1Xd c { /.fXmX&XV.v.R.3.1.x.,.,.2.>.} [ [ [ ] H H ] H ] ] A G G H G S X.Z                                                                                                                                                                                                                                                                                                                                                                                                                                                                                                                                           ",
"                                                                                                                                                                                                                                                                                                                                                                                                                                                                                                                                                                                                                                                                                                                                                                                                                                                                                                                                                                                                          & O O 2 2 * O * * + * 2 3 - ; k o.8.r.n.2.2.B.n.2.1.>.| } >.7.R.-XfXG d j R f.ZXMX<XQ.v.x.C.x.>.1.1.x.:.} [ ] ] D H [ [ ] G H G G G ] [ T R U                                                                                                                                                                                                                                                                                                                                                                                                                                                                                                                                         ",
"                                                                                                                                                                                                                                                                                                                                                                                                                                                                                                                                                                                                                                                                                                                                                                                                                                                                                                                                                                                                              @ O O * * > > * > + - $ $ r V X.<.8.<.8.B.B.l.2.1.,.<.} ;.x.x.(.uXI.c v v 4XVXMX9XV.n.7.x.x.B.7.2.,.>.| [ ] ] ] ] [ ] G H G ] G ] A D Z Z Z Z                                                                   U U                                                                                                                                                                                                                                                                                                                                                                                                                                                               ",
"                                                                                                                                                                                                                                                                                                                                                                                                                                                                                                                                                                                                                                                                                                                                                                                                                                                                                                                                                                                                                    o O O * + * * * + + - - ; r [ o.7.m.x.l.l.l.m.2.7.:.1.,.,.Q.qXxX+XR ] O.&XmXZXfXm.7.x.x.v.B.1.1.,.o.| | [ [ ] [ H G G ] ] H } G D c c Z R                                                           Y I Z X.C C R N Y                                                                                                                                                                                                                                                                                                                                                                                                                                                       ",
"                                                                                                                                                                                                                                                                                                                                                                                                                                                                                                                                                                                                                                                                                                                                                                                                                                                                                                                                                                                                                    O 2 * * + * - - - 2 > + + 3 r S 5.n.7.x.N.x.2.2.2.m.1.v.>.F.L.&XaX1Xn A <.I.uXZX$XM.K.m.x.x.7.1.1.,.>.>.} | H ] } A ] [ | S S [ D c [ D c ..I                                                     R R R { [ [ &.f.h.=.N I                                                                                                                       p.q.$.$.=.q.T.                                                                                                                                                                                                                                                                                                              ",
"                                                                                                                                                                                                                                                                                                                                                                                                                                                                                                                                                                                                                                                                                                                                                                                                                                                                                                                                                                                                                      , * O + * * * * * * > * > - r | <.2.x.l.x.x.7.m.7.XX9X,X5.K.F.(.aX5.x S 5.H.uXMX,XQ.K.x.V.1.B.1.7.V. . .} [ [ ] H H ] [ [ D H D S S S D D R I                                                 p R R R ] G D S f.T.h.+XU N                                                                                                         s.s.h.e.e.e.e.e.=.&.=.#.s.T.h.                                                                                                                                                                                                                                                                                                          ",
"                                                                                                                                                                                                                                                                                                                                                                                                                                                                                                                                                                                                                                                                                                                                                                                                                                                                                                                                                                                                                        o * O * * * * * * * * * 5 $ : H 7.2.7.m.v.v.x.qXmXxXuX<Xm.8.J.(.uXI.n k R H.MXVXyXU.K.x.x.v.x.x.x.;.;.K } [ ] H H H G G H H D S S D D D T k U                                             a a [ X.[ ] G n 5 + + 5 |.h.U N U                                                                                               g.s.s.e.e.f.O.5.+.X.O.y.5.*.6.&.=.g.h.                                                                                                                                                                                                                                                                                                        ",
"                                                                                                                                                                                                                                                                                                                                                                                                                                                                                                                                                                                                                                                                                                                                                                                                                                                                                                                                                                                                                          , * * * * * * * * * * - - - S y.r.m.x.v.v.K.nXaX#X/.MXuXm.x.K.qXzX}.c c c +XxXZXuX).7.7.:.x.K.v.;.1. .H S S H H H D S H D S S S D H D S [ Z I                                         6 j V D H G G ] d ; ; - + * rXT.U U E                                                                                           h.e.e.d.X.d.d.t.O.r.r.r.8.r.8.r.H.t.O.e.R @.                                                                                                                                                                                                                                                                                                    ",
"                                                                                                                                                                                                                                                                                                                                                                                                                                                                                                                                                                                                                                                                                                                                                                                                                                                                                                                                                                                                                            & & * * * * * * * * + 3 - 3 k ] 5.r.x.K.Q.uXVXVXVXVXDXiXK.7.K.9XnXXXk d O.Y.xXDXfX).m.7.K.n.,.1.x.;.H J H G D H ] H ] D D D H H H H S D V R Z C                                     3 V X.H G [ ] | x ; ; % * 2 T.hXY.v I I                                                                               p.Y s.s.s.=.g.t.*.G.F.m.5.5.o.<.<.8.r.M.8.r.t.O.[ &.&.Q                                                                                                                                                                                                                                                                                                   ",
"                                                                                                                                                                                                                                                                                                                                                                                                                                                                                                                                                                                                                                                                                                                                                                                                                                                                                                                                                                                                                              & * * * * * * O O 2 - - + + ; d O.,.E.m.#XmXcXZX{.MXmXzX$X .x.K.).aX1Xs n D r.uXZX1X(.m.<.1.,.,.1.>.<.,.H G H [ ] ] ] [ [ [ H H [ ] S [ v R T R                                 p k S | G [ ,.H H | c + > o + + j =X=XC C #.                                              z z h h g h P U E Q Q ^ $.h.Q U q.@.=.f.6.e.e.F.y.8.K.,X5.r.8.,XG.F.m.<XyX#X8.r.5.e.O.&.P.g.                                                                                                                                                                                                                                                                                            ",
"                                                                                                                                                                                                                                                                                                                                                                                                                                                                                                                                                                                                                                                                                                                                                                                                                                                                                                                                                                                                                                * * * * * * * O 2 O 2 2 - - $ s [ m.m.r.wXhXeXcXZXhXyXyX,.n.;.v.).uX6.r b ] F.uXZXuX/.<.8.,.,.7.2.7.7.o.G H ] G ] ] ] [ ] G H H G A O.A R Z V R l                           5 d D A G G } o.G H [ ] k > > * * + 5.=X5.T k                               2 q g k M p 5 5 g k k p 8 9 h k M Y R @.=.e.X.X.&.&.=.5.5.e.I.{.t.t.L.t.O.5.O.<.8.m.m.Q.E.7.K.m.).{.8.X.X.f.e.                                                                                                                                                                                                                                                                                          ",
"                                                                                                                                                                                                                                                                                                                                                                                                                                                                                                                                                                                                                                                                                                                                                                                                                                                                                                                                                                                                                                  * * * * * * * 2 * * * @ * * - r <.G.G.G.1XaXMXFXvX4XuX7.;.3.1.7.F.nXL.r s D 5.VXZXfX(.r.<.7.1.1.2.7.2.} ] G G G G ] ] G G G G } H b } G S X.V Z I                         p k D G G o.} } G O.] ] R 9 * > + - - G.6.v R R                     w 0 6 g 9 9 5 p a a a j V M a 5 a k k j k Z R [ *.e.5.[ *.f.H.e.5.6.}.t.6.F.8.#X*.R e.*X/.m.7.K..X(.v.K.K.m.| O.5.@.@.q.                                                                                                                                                                                                                                                                                        ",
"                                                                                                                                                                                                                                                                                                                                                                                                                                                                                                                                                                                                                                                                                                                                                                                                                                                                                                                                                                                                                                    * * * * * * * * * 2 @ o 2 > - c t.8.G.m.&XlXDXVXsXfXK.K.1.;.x.M.9XzX{.b x D {.xXZXxX,X<.O.7.2.2.x.n.7.} G G H H H G H ] ] G G H H H G H S D V R N I                   5 5 Z A [ G o.H o.H } [ D D R p 8 - - $ t ] [ T Z N               0 4 q q z g g 5 p h j j a p p p j k j V R C C R R Z O.5.O.O.O.6.6.H.y.6.5.t.d.8.H.qXO.e.2XvXG.8.%XfXnX(.1.9.K.Q.7.5.r.e.&.X.$.                                                                                                                                                                                                                                                                                      ",
"                                                                                                                                                                                                                                                                                                                                                                                                                                                                                                                                                                                                                                                                                                                                                                                                                                                                                                                                                                                                                                      & , * + * * * * * * * O + - 5 j [ r.K.L.zXMXxXfX1XqX9XG.r.>.>.~.<XxX<XA s O.{.lXDXvXH.y.5.<.7.7.x.2.J >. .H G H ] G S G G H H H H H H G A S ] V U Y                 p V R D H [ J J H J H H G G [ S d : ; : r [ D R R R         6 9 4 3 4 6 9 p 9 6 6 6 5 6 9 5 5 5 5 j a 5 a 5 M V k R V [ X.t.5.D 5.t.t.5.O.F.#Xt.t.+X{.5.X.#X{.O.4.1XuX,Xr.K.qXmX<XF.m.(.K.5.O.X.=.                                                                                                                                                                                                                                                                                    ",
"                                                                                                                                                                                                                                                                                                                                                                                                                                                                                                                                                                                                                                                                                                                                                                                                                                                                                                                                                                                                                                        @ , * * * * * O * * * * > * + 5 v G.V.K.K.V.m.K.MXxXMX&XV.x.>.x.7.(.fXyXy S v t.qXZXwX^.>.7.7.x.1.x.n.>.>.H G [ } [ ] H G H H H H H H H G G R Z l C             h R [ D H [ } J J J H H } } H H H S S D S S S S { Z c p 5 9 h p 5 5 3 3 6 9 9 6 5 5 5 3 3 9 3 3 6 p k 9 p 9 g h 6 g t.k p V X.R *.[ X.t.f.I.#XI.y.y.y.F.y.<.I.9X5.<.G.:X).K.G.:XXXK.K.K.yX$Xm.O.6.X.=.q.                                                                                                                                                                                                                                                                                ",
"                                                                                                                                                                                                                                                                                                                                                                                                                                                                                                                                                                                                                                                                                                                                                                                                                                                                                                                                                                                                                                          , * O * * * * * O * > + 2 - ; $ A x.R.B.Q.v.V.$X$XuXyXuXV.>.J 2.7.K.uX^.c n S t.xXZXaXQ.M.K.,.2.2.,.n.2.o.H G H [ [ H S H H S A H H H S G v V U I           k R R ] S [ } } } J H H J H } H A D [ [ [ S R S R Z j 6 5 6 9 9 g 6 9 3 5 9 6 5 3 3 5 5 3 9 g 9 9 p g k p k 9 k k 6 Z I.Z V R R +.5.Z V f.H.P.H.y.t.6.I.).8.{.lXxX6.#XnXZXqXF.r.{.).XXM.Q.bX-XK.7.5.O.X.R E $.                                                                                                                                                                                                                                                                            ",
"                                                                                                                                                                                                                                                                                                                                                                                                                                                                                                                                                                                                                                                                                                                                                                                                                                                                                                                                                                                                                                            < * * * * * * O * * * * * 3 : : x m.V.B.V.m.x.V.tXZXyXx.>.>.>.>.K.Q.fX}.r d ../.hXZXzXXXK.<.8.7.7.2.2.1.o.G A [ o.G G H [ S A S H S S S R R Z h k       U R [ R | | } } }  .H H H H H } H S [ R A k c V k C p 5 5 5 5 3 9 g 9 5 > 5 9 3 2 2 3 3 5 6 6 9 9 6 3 5 p h h h p k g Z *.V p R X.e.O.X.[ Z O.e.F.{.O.t.,XF.I.{.wX,XF.<XmXfXXXr.xXmXmXXXL.m.>XK.,.7.r.F.X.X.R E #.                                                                                                                                                                                                                                                                          ",
"                                                                                                                                                                                                                                                                                                                                                                                                                                                                                                                                                                                                                                                                                                                                                                                                                                                                                                                                                                                                                                              , * * O O * * * * + > > * - - s L.Q.K.x.v.R.V.7XiXR.x.>XB.,.,.o.t.XXnX{.S ; X.H.aXZXVX:X8.7.7.7.,.7.2.,.o.J } } G G H ] D S D D S A S D Z C k a 2 v C { R ] ] ] H } } }  .] H G H ] [ S S [ C a 8 ; 5 t k a 3 > 8 6 3 9 3 3 2 2 5 6 3 2 2 3 3 5 5 2 2 3 3 2 > 5 h 5 9 3 p k V { R k a Z X.X.Z X.R k f.*X{.4.I.).G.t.F.I.L.I.G.Q.:X-XK.VXzXqXK.7.E. X!.V.M.:X).y.R X.R C E                                                                                                                                                                                                                                                                         ",
"                                                                                                                                                                                                                                                                                                                                                                                                                                                                                                                                                                                                                                                                                                                                                                                                                                                                                                                                                                                                                                                , * * * O * * * * * 2 > - 3 ; s b 8.v.V.v.B.!.R.V.qXMX.X7.7.,.J 8.XXxXeXX.V Z H.eXZXMXG.7.7.7.7.n.,.>.7.<.} H H G G H G D D D S ] c c c r - 5 k R [ { [ [ [ G | o.} :.}  .H G H ] H S D R f - - - ; 3 5 * > a 9 * 2 9 * * 3 6 3 3 3 3 3 5 5 3 3 3 > 3 5 5 5 5 g 3 2 3 5 j k *.&.k p k &.t.X.R X.V /.*XO.<.y.O.y.y.F./.L.r.G.Q.L.{.Q. X-X XK..XnXfX.XB.x.:Xm.[ O.O.X.X.I =.            ^ P Y                                                                                                                                                                                                                                                     ",
"                                                                                                                                                                                                                                                                                                                                                                                                                                                                                                                                                                                                                                                                                                                                                                                                                                                                                                                                                                                                                                                  , 2 * @ * * * 2 + O - - - 5 5 r [ M.m.V.V.B.z..XyXnX-XR.Q.1.J ,.m.m.fXaXr S D 5.=XZXwX/.8.m.8.x.1.1.x.2.} J } }  .G H D D C C c [ c : i r k D [ ] [ ] ] G G o.o.o.}  . .] ] }  .[ [ [ c 5 - > 3 3 p k 3 9 k * 3 3 6 > 2 3 3 2 2 3 3 2 3 3 3 2 2 2 3 2 2 5 5 9 9 3 9 8 p 5 X.&.j M a V X.t.O.O.O.n D 5.5.<.K.y.r.,XmXwXI.:XzXqX^.K.{.{.&XI.{.mX-XB.v.1.V.m.>.<.<.&.&.T X.=.$.      P q 0 2 0 w                                                                                                                                                                                                                                                 ",
"                                                                                                                                                                                                                                                                                                                                                                                                                                                                                                                                                                                                                                                                                                                                                                                                                                                                                                                                                                                                                                                    2 * * - > * O 2 * 2 2 @ - - - : $ y m  .7.B.v.B.fXmXmXmX!.m.:.H } 5.m.xX#Xd r v X.xXZXlXXXm.x.n.V.m.2.>.2.2.<.:.} [ [ S A A d : r f c o.| ] ] H [ S } ] ]  .} }  .] ] ] } |  .} ] A 5 + - 5 h p 3 h a 5 3 8 9 2 * > * * * 3 2 3 2 * * 3 3 3 2 3 9 3 2 p g k 3 9 9 h h p T f.X.j k C *.X.Z R ] O.R n S ,XwX<.^.%X{.Q.Q.:X-X%Xr.1XVXnX^.m.I.<X9XR.!.iXyXM.r.O.I.).t.{ T M M Y l 6 6 3 , 2 4 2 2 ,                                                                                                                                                                                                                                             ",
"                                                                                                                                                                                                                                                                                                                                                                                                                                                                                                                                                                                                                                                                                                                                                                                                                                                                                                                                                                                                                                                      2 * * * * O * * * > 2 * > - - - 5 ; y A 8.m.7.].!.7XfXC.!.1.,.L 1.m.-XxX,Xv p k ^.aXZXVX$XM.K.V.2.2.2.2.,.1.1.7.,.S c k 5 : d c S [ o.o.[ o...} [ ] ] ] ] ] | ] G G ] [ [ | } [ S - - 5 5 6 5 5 p 3 9 p 9 9 2 * * * * 2 3 3 3 > * 2 3 > * 2 3 9 h 9 9 9 g p a k g j j [ Y.e.V p k V ..X.&.[ [ [ R v S 5.f.y.5.O.F.8.m.Q.<X).).mXuXK.1XMXMX7X].B.7XfX7.7.m.Q.#XO.X.R R U k h 9 6 3 > 3 3 2 4 2 2 2 2                                                                                                                                                                                                                                       ",
"                                                                                                                                                                                                                                                                                                                                                                                                                                                                                                                                                                                                                                                                                                                                                                                                                                                                                                                                                                                                                                                        2 o , * * - * @ * * * * * > - ; - 5 d [ 7.m.V.2..XyXV.A.C.1.x.;. .m. XlX2XS r S H.eXVXVXqXK.m.2.>.2.1.2.,.<.7.<.o.O.X.D D ] } o.o.o.o.[ } ..} [ ] [ } } ] ] G G G R ] [ ]  .| D 3 - 5 p 5 5 5 6 3 5 p p 9 2 * * * * 2 3 3 3 > * 2 3 3 3 3 3 5 p 5 5 3 5 g 9 9 5 p j R Y.e.V a j k D X.*.O.] [ O.[ d p 5.<.y.y.5.<.G.G.XX$XG.,XxX/.,XZXaX(.R.E. XbXm.:XuXnXyXF.| { X.C M C g h 6 3 3 2 3 2 , 4 2 2 4 4                                                                                                                                                                                                                                   ",
"                                                                                                                                                                                                                                                                                                                                                                                                                                                                                                                                                                                                                                                                                                                                                                                                                                                                                                                                                                                                                                                          2 * O * @ * > * * * * * * * > * - 2 d ] m.v.7.!.-XN.'.;XA.x.1.,.} m.L.lXqX8.d D y.1XVXVX#X7.<.8.1.;.1.7.7.2.,.O.O.O.[ <.<.,.,.,.o.o.o.H J [ H H } [ [ ] D D ] ] D ] ..| [ [ T 5 2 2 3 5 5 p 5 5 3 3 > 5 < * * * * 2 2 2 2 * * > 2 3 6 3 2 2 6 3 3 2 3 9 8 3 3 6 l R P.e.V k k j c R O.O.k X.*.X.c d V O.2X&XX./.uXXXr.G.G.I.uXqXH.&XmXJ.'.fXDXzXQ.K.:X X:XI.| 6.X.O.k C j j 9 5 5 * 5 3 2 3 2 * < 2 4                                                                                                                                                                                                                                 ",
"                                                                                                                                                                                                                                                                                                                                                                                                                                                                                                                                                                                                                                                                                                                                                                                                                                                                                                                                                                                                                                                            , , * @ * > * * * * * * * * * * * 7 d ] <.,.2.C.`.iXmXiXtXv.:.,.,.m.K.yXlXs s v 6.*XxXlXI.G.7.m.2.2.x.x.7.,.<.<.<.O.O.o.} >.>.o.} o.G J J H H } [ [ ] ] D ] [ [ [ [ | [ { { k 9 3 5 2 3 5 - 5 3 3 * 3 2 * & * > 2 > * > * * * > 2 3 2 * > 3 3 3 3 3 5 9 3 3 - p r [ e.C V c c k c S &.Z O.O.[ [ Z p O./.^.t.qXuX{.m.K.uX,X{.$Xy.y.1X/.<XmXfXqX(.r.<XyX8.<.o.^.5.c V v k a 6 p 9 2 3 3 2 2 2 2 2 , , 2                                                                                                                                                                                                                               ",
"                                                                                                                                                                                                                                                                                                                                                                                                                                                                                                                                                                                                                                                                                                                                                                                                                                                                                                                                                                                                                                                                2 > * * O * * * * * * * 2 * * - ; n m.n.x.x.B.'.nX9X.Xv.m.9.m :.M.V.qX).x v k R /.ZXlXXXm.,.7.2.x.x.7.<.<.<.<.<.} } >.,.,.} } } J J H H ] | | [ [ [ [ ] [ o.o.[ ] [ X.X.M 9 2 4 4 3 3 - 3 - > > 3 < * * * * 2 > * > * * * * * 2 2 * 3 3 3 > 3 3 > 3 3 9 6 k d X.e.R c V Z V k k V X.X.5.X.5.O.*.c s c [ #X,X#XO.qXzX#Xy.t.=XqX&X,X/.:X:XQ.r.U.wXzXU.,.M./.U.X.c V R j a p 5 5 > 3 2 2 > 3 5 3 3 2 *                                                                                                                                                                                                                             ",
"                                                                                                                                                                                                                                                                                                                                                                                                                                                                                                                                                                                                                                                                                                                                                                                                                                                                                                                                                                                                                                                                  * * * * * * * > * * * 2 * * 2 - 7 [ } >.m.n.x..XA.l.>XfX:.7.>.;.1.7.{.aX2XR d d P.wXVXMX:XV.V.x.2.2.2.,.>.:.:. .:.,.1.,.} } H J J H H  .} } ] [ [ [ [ | O.o.[ [ R R E U N 0 4 4 4 4 3 > * * > 2 * * * * * 2 * * > > > 2 * * 2 * * 3 5 5 > 3 3 3 3 2 3 5 p r [ t.*.k V Z Z c j d D O.X.Z k R R V c Z n v S /./.5.O.xX^.lXaX2X}.).Y.#XaXuXfXxXwX:XfXK.M.t.O.R c Z R k a p 5 9 3 3 3 3 2 2 2 > 2 * 2 4                                                                                                                                                                                                                           ",
"                                                                                                                                                                                                                                                                                                                                                                                                                                                                                                                                                                                                                                                                                                                                                                                                                                                                                                                                                                                                                                                                    > * 2 2 * > > * - O 2 * * * > - r s n ,.n.B.2.l.x.:XZX).^.K.v.;.1.K.).mXwXR d R [ <XMXVX(.V.2.1.2.2.,.>.1.,. .:.1.1.>.} } } o.H H J } } ] ] | [ [ } o.,.O.o.[ R Z E #.%.! Y w 4 3 6 2 > > 3 < * & * & * > * * * * * * * * 2 * * 3 5 5 2 5 3 3 * 2 3 a g d X.e.f.j V R R Z V k j X.R ..R =.X.V X.5.[ n d G <.y.L.mX2XG.#XMX*XcXDXVX1XcXF.Q.XXM.m.7.,XG.] D D *.Z c j a a 9 9 3 3 9 8 3 3 2 3 9 * 2 <                                                                                                                                                                                                                         ",
"                                                                                                                                                                                                                                                                                                                                                                                                                                                                                                                                                                                                                                                                                                                                                                                                                                                                                                                                                                                                                                                                      O * > * 3 - - - + - O @ O O 3 - - : H ,.8.1.2.B.>XMXVXuXK.v.B.3.x.M.I.uXaXf.c Z X.XXnXfXQ.n.,.2.2.>.;.>. .;.1.1.,.} } | | >.J H } >.}  . .| ] H o.<.O.O.O.{ X.@.#.^ %.$.w.w.P 4 6 * > > > * * * * * * * * * * O + * + + * > * 5 6 9 2 5 3 9 2 5 9 k p 3 V e.P.k Z R R R R V j d R *.f.X.e.[ [ *.f.[ D d S [ {.,X1Xf.P.xXuXvXmXaX+X&XY.9XlXK.^.<XmX,XG X.5.I.Z c j k Z 8 9 9 3 3 2 2 3 2 3 > 3 2 2 ,                                                                                                                                                                                                                       ",
"                                                                                                                                                                                                                                                                                                                                                                                                                                                                                                                                                                                                                                                                                                                                                                                                                                                                                                                                                                                                                                                                        * 2 * 2 * 2 + + * O * O * * * > - ; n o.1.B.N.`.yX9XK.m.v.c.Z.;.1.R.K.yXxXv f c R Y.DXhX{.5.8.,.,.2.2.:.} >.,.1.} } o.H >.} H o.} o.H ]  .G G <.O.&.O.X.E E Q Q Y U Q %.w./ w 1 2 O - - * O O O O O * * , * O O O O , 2 3 3 * 2 3 5 2 > 6 9 9 9 3 9 p V *.e.V R S [ *.O.T d d k R e.X.X.k c V Z *.[ O.[ V n *.O.#X&XeXmX&X,X{.P.6.aXwXmX*X,XxXaXuX<.| 7.r.8.v k S Z p 6 9 9 5 3 2 2 3 3 3 2 2 3 3 ,                                                                                                                                                                                                                     ",
"                                                                                                                                                                                                                                                                                                                                                                                                                                                                                                                                                                                                                                                                                                                                                                                                                                                                                                                                                                                                                                                                          , * * > * + * * O O O * > * * * * 3 d M.R.v.z.N.1.B.:X].V.v.z.z.L R.V.$X$Xx i k k hXZXcX{.H.y.<.<.} >.,.2.1.,.o.o.o.H }  .J o.o.o.[ [  .H ] O.&.*.[ R C N C C C Z Y ^ u.( ~ q 1 * 3 3 - * * * O O * * , * O O @ @ * , 2 2 * * 3 3 > > 6 5 5 5 3 9 g U O.P.Z c S O.6.5.[ c d d V E Z X.v [ R R Z R t.I.6.X.Z v I.H.{.zXF.qXxXH.1XDXhXcXaXF././.Q.<. .(.Q.o.S O.O.Z t a p 9 6 3 3 3 3 2 2 5 3 * * 2 @                                                                                                                                                                                                                   ",
"                                                                                                                                                                                                                                                                                                                                                                                                                                                                                                                                                                                                                                                                                                                                                                                                                                                                                                                                                                                                                                                                              * * O O * O O o * * * * * * * $ ; O.7.l.v.B.1.x.B.R.R.9X.XZ.1.;.:.2.$XzXuX[ p k q.qXVXZX9XO.5.} ,.2.2.,.>.<.,.o. .J J >.o.O.o.o.o.| | O.O.5.*.v k l l l l V C Y Y ^ ) %.Y 1 2 > - > * * * O O * * * @ O * * * * * * > * * 2 2 > > 3 > * 2 > 3 5 M s.4Xf.j Z O.5.*.&.[ c k k k k [ e.t.[ [ R [ R Z O.R y.I.y.O.] G <.F.qXwXt.<XY.^.^.=XaX:X8.9X:X9XwXS G O.^.Z j g k h 9 6 6 5 3 2 5 3 2 * , , ,                                                                                                                                                                                                                   ",
"                                                                                                                                                                                                                                                                                                                                                                                                                                                                                                                                                                                                                                                                                                                                                                                                                                                                                                                                                                                                                                                                                , O * * o O o * @ - * * * - - - O.8.7.2.x.x.V.v.V.7XmXbX!.>.,.2. .7.Q.uXaXt.7 c [ {.vXZX/.5.,.7.,.2.>.>.2.,.o.} G J >.o.,.| ,.,.o.o.O.X.&.X.d g l l k V Z Z U Y Y Y / %., , + - * * * O o o O O @ O O * * * * * * * * * * * * > 3 3 2 3 2 3 2 p =.hX+Xp k R X.&.5.5.R Z V a k Z [ *.[ X.R R [ X.] R Z O.y.O.A 8.<.[ | F.O.lXqX{.xXZXnXuX8.:X%X<X:XH O.5.H.O.V a R M p 6 6 6 3 3 3 2 * 2 2 , , <                                                                                                                                                                                                                 ",
"                                                                                                                                                                                                                                                                                                                                                                                                                                                                                                                                                                                                                                                                                                                                                                                                                                                                                                                                                                                                                                                                                  o * * # * o * - 2 * O * * * - S 7.8.7.x.n.V.B.m.qXyXmX:X1.7.2.>.7.m.U.uXfXv d j R +XxXwXG.5.8.<.2.>.>.<.o.]  . .} ,.o.O.} o.<.o.o.O.o.O.Z a k k M v V C Z U U Y Q Q $.q O O > > * * @ + O O O @ O O * * * * O * * * * 2 * * * 2 3 2 3 3 9 3 9 X.cX=Xt j v R X.&.5.[ R Z f k k k [ O.O.R a Z &.e.Z R X.[ | O.8.G.5.[ X.X.H.&XI.,X2X&X1Xt.K./.8.m.S O.] T Z V X.R k 9 9 9 9 3 3 2 3 2 * * 3 2 * ,                                                                                                                                                                                                               ",
"                                                                                                                                                                                                                                                                                                                                                                                                                                                                                                                                                                                                                                                                                                                                                                                                                                                                                                                                                                                                                                                                                    X * # * + * $ - * O * * + + p v A  .2.B.x.m.1..XfXbX!.x.m.7.7.G ,.m.K.yX-Xd r a k I.ZXsX{.8.5.<.o.>.>.}  . .:.>.,.>.}  .o.o.,.,.,.O.[ j a M k k V V A C Z Z U E Q Q ! & & & 2 * O @ O @ * O O @ * O @ @ O o * * * * 2 * * * * > * * 2 9 3 3 @.hX=Xp j k V R X.X.[ R R V V j a j V R *.V R R O.R e.5.6.8.O.] <.] O.5.r.t.D [ 6.[ O.5.5.$XaXL.| 6.^.G.X.V T &.V h 9 9 9 9 3 3 3 3 2 - > 2 2 * , ,                                                                                                                                                                                                             ",
"                                                                                                                                                                                                                                                                                                                                                                                                                                                                                                                                                                                                                                                                                                                                                                                                                                                                                                                                                                                                                                                                                      , O O @ - @ @ @ O * + O = ; ; r s G m.x.m.K.m.>X9XV.7XfX X,.>.G } K.K.xX9Xv 5 d R hXVXxXI.m.5.| o.o.} }  .:.1.<.>.} >.o.J ,.<.,.o.D 5 a a k M V V V Z Z C C I Y Y ^ 0 & o , O O @ * * * O O @ O O O O O o * * * * 2 2 * > 3 3 > 2 3 p 3 5 Q 4X+X5 p k C R { Z R X.X.R R j d d k c O.R O.O.&.Z t.P.I.y.A X.b ,.5.O.O.O.D [ [ O.f.X.X.<XxX/.O.#X*X#XV [ *.f.V j p g a 9 3 3 6 2 2 3 3 - - 3 * 6 <                                                                                                                                                                                                           ",
"                                                                                                                                                                                                                                                                                                                                                                                                                                                                                                                                                                                                                                                                                                                                                                                                                                                                                                                                                                                                                                                                                        O o @ - 2 - O O * O o + - + - ; s n.x.x.v.V.B.v.!.bXfXuX>X,.,.} G 2.Q.fX4XR r p P.lXVXuXU.r.o.O.} } } J } 7.2.>.} 2.<.J  .,.o.o.S ; h p M M C C Z Z Z V Z Z N U Y B & & * O O O * * * O O O O O O @ O O * * * * 3 3 > > 3 2 * 3 6 p 3 5 X.2X+X5 p j V R R k R &.*.[ R d a k k k R k [ [ t.R t.5.[ O.b X.).I.6.D ] 5.[ [ X.[ D *.S X.f.5.O.y.y.+XX.c X.e.U V k k g 9 5 5 2 4 3 2 > 2 - - 5 O 2                                                                                                                                                                                                           ",
"                                                                                                                                                                                                                                                                                                                                                                                                                                                                                                                                                                                                                                                                                                                                                                                                                                                                                                                                                                                                                                                                                          * @ @ 3 + - O * * + + > * * - : x :.B.v.Z.x.x.R.iXbXnX$Xn.,.>.>.} >.5.H.1XaXt.p A /.lXDXuX5.O.,.<.K ,.>.,.,.>.} } >.,.<.<.o.[ p 8 9 h h l C U R C C C C C C N U U z & * O * 2 O * O O o O O O * O @ @ * * * * + * > > > 3 3 3 3 3 9 9 U P.|.3 3 a a C k v Z T R e.O.5.[ V Z k j V V X.R *.[ O.*.5.<.5.4.X.*.5.X.5.X.R Z R *.&.[ Z Z R v k Z S R Z P.D V M C @.p 5 9 9 0 9 6 2 2 2 - - - 3 , ,                                                                                                                                                                                                         ",
"                                                                                                                                                                                                                                                                                                                                                                                                                                                                                                                                                                                                                                                                                                                                                                                                                                                                                                                                                                                                                                                                                          2 * o O O + O o O * * * * - * $ r ] V.B.B.1.V.1.'.9X>XV.2.,.<.>.>. . .<.t.1XsXv s D {.VXVXm.<.} }  .<.2.,.>.} } } o.,.<.<.O.] p 9 k N B N U R E W I C Z C C N U Y P 0 * O * * o * O O O O O O O * * * * O * * + * > > * 2 2 3 3 3 9 9 9 T.rX3 5 5 p g v Z Z Z R O.[ d.*.*.R R V V Z Z c R D X.O.*.| | O.X.5.y.5.X.+.O.+.X.R C R Z R X.X.R Z d j k O.C k R R =.k 5 2 g 9 9 3 3 5 3 2 2 2 * * , ,                                                                                                                                                                                                       ",
"                                                                                                                                                                                                                                                                                                                                                                                                                                                                                                                                                                                                                                                                                                                                                                                                                                                                                                                                                                                                                                                                                            2 , O , o - o o * + O + * - - 5 A 8.7.x.1.B.x.x.V.n.x.2.,.<.>.<.H H G G r.,XH.S S L.xXFX{.5.}  .>.1.1.>.>.>.o.} } o.O.,.O.Z 5 9 N N P U ! Q Q W I C T T R I Y Q ! P 2 O * @ o O * O @ O O O O O * * * O * * + * > * * 2 2 2 2 2 6 6 p +XMX3 p p j j k C V k V v v t.X.=.O.X.D R R R R Z D ] ] X.[ X.r.t.5.<.5.] 5.G.<.y.5.+.+.C C R X.Z n V X.X.c a j k M g.9 M a k p 6 3 3 5 5 2 - 2 * > < &                                                                                                                                                                                                       ",
"                                                                                                                                                                                                                                                                                                                                                                                                                                                                                                                                                                                                                                                                                                                                                                                                                                                                                                                                                                                                                                                                                                , , O * o O * o * O o o + 3 S 6.7.7.7.1.7.v.x.C.C.x.1.,.<.7.| } o.] <.7.fXK.] I.xXZXqX8.>.} :.1.>.} } o.>.} } | ] | <.Z 5 g U P ^ ^ ^ / / ^ Y I C I R U U ! ^ ~ h O O * * O * O @ O O O O O O @ * O * * * > > * > 2 2 2 2 2 6 5 V *XNX3 9 p p j k k V V Z c c *.R X.e.X.R R Z R X.Z [ [ ] X.[ [ [ O.O.<.,.| ,.<.O.<.[ t.e.R R [ ] [ [ S [ 5.v d p d c R M h k Z l 9 3 6 5 3 3 - > > 2 * 2 4                                                                                                                                                                                                     ",
"                                                                                                                                                                                                                                                                                                                                                                                                                                                                                                                                                                                                                                                                                                                                                                                                                                                                                                                                                                                                                                                                                                  X O o o O @ O + + + + o - d [ [ ] 8.M.x.x.C.A.C.1.1.2.m.7.o.O.o.} H o.9XxX{.XXfXuXqXm.>.} :.1.,.} J J } ] ] | ] [ O.c 6 N ! ) ^ ( ( / / ^ Y Y N Z R U U Q %.^ W * o * 2 o O * * O O + O O O O * O * * * * > * * 2 > 2 2 3 6 6 R *XvXa j j h k j a k V V Z R [ Z Z 5...X.R D [ X.V [ [ ] X.X.X.O.H | <. .m.M.7.<.>. .G.O...X.O.O.[ [ R [ X.Z R k V R k a 8 h M l p 9 p p 5 3 3 > > > * 2 , 2                                                                                                                                                                                                   ",
"                                                                                                                                                                                                                                                                                                                                                                                                                                                                                                                                                                                                                                                                                                                                                                                                                                                                                                                                                                                                                                                                                                    * * - O + @ + O O * * = - 5 5 d A r.K.7.N.x.x.3.l.x.n.,.>.<.,.,.} b m.yXfXXXQ.8.Q.8.J  .1.>.,.} J H H H G H ] [ { j 9 I ^ ^ ( ( / _ _ / ^ ^ Y I Z U E #.%.%.^ 6 O * 2 O o 2 * * O O O * * * O + * * + * * * > 3 > 2 2 3 5 5 k +XcXp a 6 k k k j k V c R [ Z Z C R R X.R ..R X.R X.O.X.O.5.5.,.7.>.1.7.K.;.1.7.<.} M.G | O.<.5.] ] ] O.[ ] ] [ X.X.X.5 M k p h 6 9 g 9 5 5 3 3 3 2 > 3 o 4 +                                                                                                                                                                                                 ",
"                                                                                                                                                                                                                                                                                                                                                                                                                                                                                                                                                                                                                                                                                                                                                                                                                                                                                                                                                                                                                                                                                                      2 2 @ + O > * # # O @ * * + 3 * n <.7.x.N.x.z.c.x.>.>.,.2.;.2.>.,.G A K.G s r G o.} :.2.>.>.o.} } } } ] G ] ] [ p z Y ^ ( ( ( ( _ ` _ ( ( ^ Q R U I E %.%.$.I 0 , * * o 2 * @ O O * * * * + O * * + * > * > 3 2 3 3 3 5 5 a T.hXa a a C C U R R R V ..X.R R R Z R R Z R R [ [ *.e.e.O.5.O.,.8.:.v.!.'.R.$X!.m.;.7.7.^.^.G.8.I.t.X.X.O.y.O.X.O.X.V R R k M k p p g 9 5 9 3 9 3 3 3 3 O 3 3 *                                                                                                                                                                                               ",
"                                                                                                                                                                                                                                                                                                                                                                                                                                                                                                                                                                                                                                                                                                                                                                                                                                                                                                                                                                                                                                                                                                        O O - * O * * O + O * * * * ; r n 2.x.l.z.l.N.x.;.2.7.2.2.2.>.2.7. .J A x x }  .,.,.2.,.>.>.o. .} O.,.O.] [ [ g I ^ ~ ( / ( _ ` ` _ / / ^ ^ Q U h l E $.%.%.P 2 O 2 O * * O O O * * * @ + O * * O > 2 > * 2 2 3 5 6 9 9 - 6.rXa a V k k l X.R R V [ [ O.R Z R R V X.Z +.X.X.O.*.*.[ O.O.R.m.V.-X.XR.B.Z.B.x.1.1.R.XXQ.<.] 5.b H O.] [ [ R D ] R V R Z Z E v k j 5 9 p 9 9 3 3 3 2 2 * * * 2 2 * & * 1                                                                                                                                                                                   ",
"                                                                                                                                                                                                                                                                                                                                                                                                                                                                                                                                                                                                                                                                                                                                                                                                                                                                                                                                                                                                                                                                                                        2 * O * * * O o @ > * * - > ; - d } 2.2.v.1.1.1.2.x.2.2.1.1.1.1.,.>.>.o.} J } } 2.<.2.:.} >.} ] o.<.<.<.| ] [ g P ^ / / ( ( / _ _ _ _ / ( ^ %.^ I g k #.^ %.%.B o , 2 O + + + + O + + O + O O > * * > 2 * * 2 5 5 5 5 5 R X.}.d j j k j k R R R Z R [ [ Z R T Z R R R X.R [ X.[ O.[ O.<.7.1.R.R.z.1.1.Z.].-X$X7X-XR.,.} <.r.5.5.r.r.8.| | | [ A ..*.R Z R I V k j h p 9 9 5 3 3 3 2 > * > 2 2 * * * > 2 <                                                                                                                                                                               ",
"                                                                                                                                                                                                                                                                                                                                                                                                                                                                                                                                                                                                                                                                                                                                                                                                                                                                                                                                                                                                                                                                                                          & O O o O O O O * O - O * - - r ] <.1.x.1.1.;.1.x.1.>.1.2.7.2.,.,.2.2.2.>.} >.,.2.1.:.} |  . .>.,.>.>.O.| [ g Y ( / ( ( ( / _ _ _ _ _ / ( u.%.Y j k R ( 0.%.~ q @ o * * * * * * O + + O * O > * + * * > * 2 3 3 3 5 5 T X.&Xp p k v k k Z Z [ T R R R T R Z V Z D R ..[ X.V [ ..o...<.} 7.x.1.1.1.].7X.X.X$X.X!.1.x.m.Q.<.m.,.<.r.K.M.r.r.5.o.+...V R V C V k j j a p 6 5 3 3 5 5 3 2 > 2 > * * * * > 2 2 <                                                                                                                                                                           ",
"                                                                                                                                                                                                                                                                                                                                                                                                                                                                                                                                                                                                                                                                                                                                                                                                                                                                                                                                                                                                                                                                                                              , o O O O * @ + * * * - - 5 S 5.7.<.1.2.1.2.n.2.>.1.7.7.1.,.1.7.8.8.2.} ,.>.2.,.} o.} | O.| | >.>.5.O.X.k Y ( / ( ( ( / _ 0.0.0._ / ( %.Q N a p k W %.%./ Y 4 , O * * * * * + = * O * O * * O * * 2 * > 2 > 2 5 5 V O.eXp p k V V k V V [ R R R R R R Z v C D D R V R Z X...] D O.<.n.,.!..X-X9X].R.B.V.1.3.;.V.m.n.n.x.K.,.7.2. .<.,.[ [ +.O.v Z v v k j a j k k p 9 5 3 5 3 3 3 2 2 > > > > * > 3 & , <                                                                                                                                                                         ",
"                                                                                                                                                                                                                                                                                                                                                                                                                                                                                                                                                                                                                                                                                                                                                                                                                                                                                                                                                                                                                                                                                                                @ * o o * * @ + * O + + + p Z D b | 7.7.2.2.2.2.1.7.7.1.1.2.7.7.7.2.>.,.>.1.>.} } } ,.<.} } ,.<.8.<.O.l ^ / / ( ( ( / u.i.i.i.0.a.0./ Y N l j j z ( %.^ ^ Y P o * * * * * O * * O * + * * O * * * * > 2 - 2 5 6 a R hXp p k c V Z Z Z R [ R R R T R R V C Z Z V Z Z R D ] H 5.r.7.K.'.'.1.J.1.z.!.!.R.B.x.R.K.1.B..X.XR.x.:.1.>. .,.<.O.[ [ D R [ T Z V j j k h j a 9 6 5 3 3 3 3 2 > > > > > > * 3 2 * < ,                                                                                                                                                                     ",
"                                                                                                                                                                                                                                                                                                                                                                                                                                                                                                                                                                                                                                                                                                                                                                                                                                                                                                                                                                                                                                                                                                                  @ o O * * * + O # O * + > 3 ; : A <.r.2.,.2.2.2.2.2.2.2.2.7.2.1.>.2.1.1.>.>.J  .} <.<.o.>.7.7.8.,.O.l ^ / ( ( ( ~ _ i.a.a.a.u.a.u./ P h j d a g Y ^ Q ^ / ^ 1 , , , , * * * * O * + O O + * * * * 3 3 - > 5 6 p V hXp a j k V C T T T R R R Z Z T R C V C Z V R V ] ] o.8.Q.M.m.].R.v.:.v.v.].oX!.1.B.V.'.R.B.!.R.B.3.v.B.1.m.Q.M.7.8.<.r.8.X.[ R Z R I V k j k h g p p 9 6 5 3 2 2 > 2 2 2 2 3 O < * , 1 &                                                                                                                                                                   ",
"                                                                                                                                                                                                                                                                                                                                                                                                                                                                                                                                                                                                                                                                                                                                                                                                                                                                                                                                                                                                                                                                                                                    O * O + * O O o O * * * > = ; p D <.r.2.2.2.2.2.2.2.2.2.2.1.>.>.2.1.2.>.>.;.} } >.,.<.7.8.7.<.| [ k ^ / ( ( ~ ~ _ i.i.i.a.i.a.a.a.Y h j j k j h N Q ^ ^ / P 1 1 O & , , * = * * + O O + * * * 2 5 3 > > 5 6 k Z aXd d d k C v Z T Z R Z R V R R R Z V Z R R Z D [ 5.} m.K.,.(.Q.R.v.R.!.`.-XW.1.z.].'.!.'.7X>X`.W..X`.W.R.'.'.R.m.M.o.<.r.t.[ R Z Z U Z V Z k k k k h g 9 3 3 2 2 > > > > * * * * 2 * , * &                                                                                                                                                                 ",
"                                                                                                                                                                                                                                                                                                                                                                                                                                                                                                                                                                                                                                                                                                                                                                                                                                                                                                                                                                                                                                                                                                                    * * + o * + O o o O * * * > = ; i H <.<.2.>.2.,.2.2.2.,.>.1.>.>.2.2.1.3.>.;.} >.,.<.7.7.2.7.,.} [ k Q / ( ( ~ ~ _ ' 0.u.i.i._ u.u.Y g p p d k i a R ^ ( ( ^ w 4 1 O * * * O O * O * * * * * * 2 3 3 2 5 6 6 R R rXa a g v V V C Z Z R V Z C R R R R Z R [ [ [ X.} <.>.m.K.v..Xc.v.W..X!.-X!.Z.L R.7X7X-X`.`.oXW.R.`.8X`.;X.X'.!.7.8.,.5.<.O.O.&.R V R Z k V l k k k j g 9 3 6 4 3 2 * * * * * 3 O * * * 2 * 0                                                                                                                                                               ",
"                                                                                                                                                                                                                                                                                                                                                                                                                                                                                                                                                                                                                                                                                                                                                                                                                                                                                                                                                                                                                                                                                                                    , * O O * o O O o O * O O * * > ; A <.2.7.2.7.2.2.2.2.>.>.1.>.>.>.2.>.1.>.J ;.,.1.7.7.>.>.7.,.| ..k Q ( ( ( ~ ~ / _ _ _ i.i.a.a.u.Y l j d f d d p M Q q.^ ^ ^ P < & & * * + + * O * * * > * * > 3 3 3 6 p 9 I Z 4Xp p j Z V T C Z Z R c Z R [ T R [ R R [ ] [ | | 4.Q.'. X!.`.c.'.-X;X!.[.].b.S.8XtX`.W.Z.z.W.`.[.W.;XoX].!.V.'.K.K.m.m.5.O.Z &.X.Z X...V V Z V k h h h g p 9 0 5 3 2 * * * * * 2 * > > O 3 * 2                                                                                                                                                             ",
"                                                                                                                                                                                                                                                                                                                                                                                                                                                                                                                                                                                                                                                                                                                                                                                                                                                                                                                                                                                                                                                                                                                      O & , * o @ O O o * O * * * > ; d <.,.,.2.2.<.n.7.2.2.>.3.>.2.3.1.;.>.;.>.:.2.2.x.8.<.2.<.<.<.O.k Q / ( ~ ~ ~ ( _ _ 0.i.i.i.a.p.! l g k x n r d k l ^ %.^ ( ~ P < & * O O > * O * * * * * 2 * > 5 9 6 5 5 j j Y.a p V l Z Z Z T Z Z Z V R R R R { R R R [ R 8.| 8.'.;X`.Z.W.W.8X8X8XW.[.[.Z.0XgX7X].oX].b.;X[.`.Z.Z.].].].B.K.R.K.M.m.8.5.X.X.X.O.X...R Z C C V k k j k j g g 9 3 > > * * * * * > > > > * * * <                                                                                                                                                           ",
"                                                                                                                                                                                                                                                                                                                                                          E I I N N Y                                                                                                                                                                                                                                                                                                                                                                                                                                                                                                                                                                                                                                                                                                                                                     & X O O O @ O O o * * * * * r O.<.1.7.<.,.2.2.2.2.;.>.1.x.2.1.>.2.2.;.2.,.,.7.1.>.n.m.7.O.O.k Q Y ) ~ ( ( / _ u.i.i.i._ a.p.Q z a k f r d f f j g z ( / u.%.%.^ , * * * > > > * O * * * * * 3 5 5 5 5 5 a f.k a k k V V v Z C Z Z V R T R R { R X.[ [ [ O.} (.7X'.1.`.iX0X8XW.8XtX8X[.8XpXtX0X].W.[.8X8X[.[.].`.`.W.!.B.V.M.M.r.<.| ] X.[ [ [ X.[ R R I Z C k k k k k l h g 9 6 3 2 2 > * * * > > > * * , , *                                                                                                                                                         ",
"                                                                                                                                                                                                                                                                                      h.T.T.T.h./.P.T.P._.h.f.g.=.g.Y.                    ^ P U P @.#.I C E I =.Q I Q N g z Y E U I U Y I Y U                                                                                                                                                                                                                                                                                                                                                                                                                                                                                                                                                                                                                                                                                                                               < O O @ * o O O * o 2 * + - ] <.<.2.,.,.<.<.7.1.;.,.x.x.7.x.7.>.7.7.2.2.x.n.,.7.V.<.7.O.*.g E P ~ / ( ( / _ i.i.i.i._ a.a.^ h p d d r c f i g 9 4 P %.w.^ %.q.0 , , * * > > * * * * * * * 2 2 2 3 5 5 g =.C a g k k k l Z C Z Z V T R R R [ Z [ [ D 5.<.,.R.oXW.z.;XpX0X[.W.[.0X0X8XgXpX0X[.8X8XtXgX0X0X8X`.W..X'.R.K.m.7.5.<.o.| O.O.[ R R R R R R R R Z V k k k k M k h h 9 3 2 2 2 * * * * > * * * > * * ,                                                                                                                                                       ",
"                                                                                                                                                                                                                                                                                  g.T.h.f.H.P.f.Y.H.I.H.I.L.H.t.t.6.=.*.X.&.X.#.P P Y Y Q Q E U U E #.{ { U *.X.X.E E X.l k k U E U U C #.#.E $.Q Y Q                                                                                                                                                                                                                                                                                                                                                                                                                                                                                                                                                                                                                                                                                                                         , O @ * O o o O * % @ - - 7 r n <.O.7.<.,.2.2.,.2.1.x.n.x.7.,.m.2.>.2.x.2.,.m.V.} <.<.5.a W ~ / ( ( ( / _ i.i.' _ _ _ u.^ h a k n x s d d d j p 0 P Q ^ ^ $.^ 0 O * * O * * * * O * * 2 3 2 > 3 5 k V =.R a j k k l V Z V C C c C [ C C R Z R ] R <.| J.'.`.S.W.0X0X8XW.8X8XpXtXgXiXtX8X8XgXbXpX0X8X8X;X].oX'.x.x.m.7.<.5.5.O.O.O.X.[ R R R R R R R R I Z V k k g k k h g p 5 3 2 * * * * * * * * > > * * , 4                                                                                                                                                     ",
"                                                                                                                                                                                                                                                                              h.s.e.X.f.I.F.H.L.L.Q.'.I.G.K.G.6.4.O.f.X.[ X.R { R @.R R C X.Z =.X.T { &.&.t.e.&.=.@.I l R k l R X.[ R *.&.k X.X.X.X.R Z X.E q.                                                                                                                                                                                                                                                                                                                                                                                                                                                                                                                                                                                                                                                                                                                  , o # @ * O o * + + + $ - - 7 c o.r.8.>.<.<.1.7.x.1.,.1.x.1.x.7.x.2.1.,.,.1.7.2.2.7.5.j U ^ ^ ~ ( ( / _ i.i.' ` ` _ 0.%.h f n x c : i c d d a 9 9 N Q %.$.p.P < > * + O * * O O * * 2 3 2 > 3 5 k k =.X.6 g k j l V V v V C v C R Z T R R [ X.[ O.:.R.!.W.W.[.0X8X[.[.tXiXiXpXiXtXpX;XpXmXbXiXtX8XW.R.C.R.x.1.m.5.5.7.5.<.O.O.X.R [ [ [ R R R R D Z Z Z Z V k k j k j p p p 9 5 2 * * * * * > > > = 5 * 2 * 0                                                                                                                                                   ",
"                                                                                                                                                                                                                                                                          T.T.s.#.=.*.F.F.L.L.Q.^.E.(.Q.L.r.7.8.| 8.X.X.5.D T R V &.Z R &.[ *.X.R X.X.O.*.d.f.5.H.h.R R X.R Z [ 5.O.{ Z { &.{ [ <.O.[ [ [ O.O.E $.Q                                                                                                                                                                                                                                                                                                                                                                                                                                                                                                                                                                                                                                                                                                               , @ O O , O o + * * 3 - @ - p D 5.5.,.>.>.1.,.:.,.7.m.R.V.m.m.x.l.2.,.1.1.,.2.7.5.O.k Y ^ ~ ( ( ( / _ u.i.` ` i.0.0.%.h d f x x s i d f k d d p p h Q %.$.%.z * * O O + + * * O * > 2 2 2 2 3 a 9 X.e.6 j k j l v V c V T C R Z R { T [ X.X.[ 4.m.R.B.W.W.[.0XOX].iXiXbXiXiXpXtX0XtXpXmXiXbXiX;Xc.A.N.2.2.m.<.5.5.5.O.o.O.O.X.D [ X.[ R R Z Z Z Z C Z Z Z C C k V k a p a 9 3 2 2 > * * * > > > + 3 > * 2 O                                                                                                                                                   ",
"                                                                                                                                                                                                                                                                        s.s.=.=.*.O.G.K.Q.K.).F.L.8.m.m.G.<.<.r.m.O.X.X.R [ [ X.O.4.4.F.6.d.6.G.t.t.e.O.X.4XcX=XH.Y.R T k [ [ O.O.O.[ 5.O.X.6.<.,.,.n.8.r.5.O.{ =.Q E                                                                                                                                                                                                                                                                                                                                                                                                                                                                                                                                                                                                                                                                                                               3 * % O * O * O # O * 2 @ @ t A | <.<.>.1.,.,.x.R..XuXzX:XR.!.N.x.1.1.7.2.,.<.<.*.g Y Y ^ / ( ( / _ _ i.` ` _ / / %.g j c v x c d r f S f p i p 5 N Q ^ %.P , * * * * * * > * * > > 3 5 5 5 h p R |.a l V k l V V k C T Z R Z R [ Z X.[ { O.4.J.'.].[.W.].0X8X0XgXiXbXpXiXpX0X0XbXgXbXtX7XoX].x.B.V.>.2.7.,.X.+.5.5.+.+.X.[ [ ......[ [ R Z R Z Z Z Z C V V V V k a p a 9 5 4 3 2 2 > > > * > > + * 2 O 4 4                                                                                                                                                 ",
"                                                                                                                                                                                                                                                                    h.q.$.$.$.&.t./.I.L.I.^.L.8.L.K.G.<.O.[ o.5.5.O.S D [ O.O.t.I.Q.^.7.8. X#X6.d.6.*.*.&.ZXFXFXDXqXX.X.&.R Z S 6.{./.L.L.K.t.I.).K.K.:X X/.8.8.{ { R E Q $.                                                                                                                                                                                                                                                                                                                                                                                                                                                                                                                                                                                                                                                                                                          o * , O O o , * O # * * - $ r A <.7.>.7.1.>.b y r x <.{.MXbX-XR.m.1.1.1.2.,.<.6.r I Y / ( ( / / _ u.i.' ` ' ' u.p.p p d d f d d d d f d d r c a 8 6 Q Y Q 9 3 * * * * * O 2 2 > 2 5 6 9 6 h p k *Xp g k j k l l k v V v V Z Z C Z O.R [ F.<.m.!.R.W.].8X8X8XiX0XpXbXpXbXtX;X].8X7XoXR.B.R.B.B.m.n.,.M.7.r.<.<.O.O.O.O.X.[ [ [ [ [ X.X.X.[ R R D D Z V j a V V V c k k k g 9 6 3 3 2 2 > * > = > * * > * * 4                                                                                                                                               ",
"                                                                                                                                                                                                                                                                  q.#.Q R &.=.e.f.Y.I./.(.Q.m.8.F.F.6.O.[ *.X.V [ O.X.R 6.5.,.K.(..X%XK.K.:X:X).8.6.X.#.X.vXFXFXFX,XP.X.@.U T D L.J.$X$X X#XP.I.Q.m..XbXtX7X(.8.8.G.[ T Z Q s.                                                                                                                                                                                                                                                                                                                                                                                                                                                                                                                                                                                                                                                                                                          & & O * o o O O O @ * @ @ 7 n X.8.7.,.1.} x $ - $ + ; H.lXmX<XK.8.7.1.1.1.1.r.s k Y ~ ~ ( / / _ u.i.' _ ' ( a./ U V s n f d p i r y x n b v d d a p N Y k * * * * < * O * & * * 2 6 5 2 g g Z }.p l k l k V V k j k V C Z V Z R [ R [ 6.7.v.V.v.W.7X8X[.0XpX0X0XiXiXiX8X`.W.-XZ.R.V.m.x.K.M.8.M.7.G.m.8.5.5.O.X.O.O.X.[ R [ Z R Z [ [ X.R R R Z D V V k c k k v k j j k p p 6 3 2 2 2 * * * * * > > * , ,                                                                                                                                               ",
"                                                                                                                                                                                                                                                                =.&.#.*.&.t.t.e.f.H.d.r.t.F.8.I.H.5.O.] R 5.] X.X.X.5.O.t.8.m.(.>X>X%XJ..X7X:X#XK.&.5.{ #.=XvXFXZX&X4Xe.R M k T 9XJ.R.].<X^.wXlXuX,XL.VXmXnXqXL.7.t.[ O.R X.E                                                                                                                                                                                                                                                                                                                                                                                                                                                                                                                                                                                                                                                                                                             & & X O * * * O @ @ O + 7 k X.8.5.,.5.S s $ % + * O 3 U eXxX4XG.2.x.x.2.2.n.s a P ) ~ ~ ( / 0.i.i.i.' ` / u.%.M l n s d p p p d d x b b A Z Z V p a N k > * * O & & * * * * * 2 6 5 2 k k V P.p k k V l k k j k V V V c Z R [ X.[ [ O.<.7.!.V.].;X[.7X0X0X0XtXiXpX8X].S.!.-XK.x.m.n.m.M.M.M.K.r.m.8.4.O.O.X.[ [ [ [ [ R R V R Z R R X.R R R R D Z V V Z Z C C v k h j g j a 9 5 3 2 * * * * * * * * * , q                                                                                                                                             ",
"                                                                                                                                                                                                                                                              q.=.#.&.e.e.f.H.f.I.P.t.G.4.8.(.K.F.[ O.| r.5.| 5.O.O.t.r.8.<.v.R.;X].R.v.!.>X<X).7.F.t.O.*.e.P.&X{.G.4Xf.Z R T ] yX'.v.v.V.J.nXVXFXCX4XhXDXvXcX{.y.O.X.O.V C #.s.                                                                                                                                                                                                                                                                                                                                                                                                                                                                                                                                                                                                                                                                                                            O & O * * O O @ @ o + * 5 T 6.8.5.<.] s $ + - O O o * l 4XVX<Xm.m.2.l.l.m.d p N Y ~ ( / _ u.i.i.0._ _ _ u.w.z V ] n d d i s f f f A A c n c R Z j p g > > * O & & O O * * * 2 5 3 3 j k j e.6 g k l k k j g j k l k V R R R R X.X.O.K.| K.R.].W.W.oX8X8X8XtXmXiX].`.B.!.!.m.2.M.m.m.m.m.G.K.m.8.4.O.X.<.X.[ X.{ ] [ X.Z V R R Z V R R [ R ..D R Z R C C C V V v k k h j k a 9 3 2 * > > - * > > * * , <                                                                                                                                             ",
"                                                                                                                                                                                                                                                            p.$.6.6.6.d.d.t.H.I.I.r.<.K.8.K.:X^.O.[ 5./.XXr.5.| X.X.O.4.8.K.K.E.c.R.!.].R.R..XF.7.L.<.X.O.&.&.6.r.7.1Xd.T k V X.qXE.'.;X.XB.nXZXZXFXCX|.hXhXrX*Xe.5.e.[ R R X.X.h.                                                                                                                                                                                                                                                                                                                                                                                                                                                                                                                                                                                                                                                                                                            O o O O o O O O O * + * p Z [ | O.[ k + + * # O 3 o o R sXmXJ.m.x.l.x.n.x t l Y ~ / _ u.0.0.i.0._ _ u.u.w.l k C c x n d s f d p k i ; - 5 V X.Z k g 3 * 3 * * * O * & * * 2 5 3 3 9 a j f.a k k l k k j g a g k l Z R R R R [ X.O.F.,.V.'.R.z.].;XoX].[.iXbX0X].'.V.R.7.8.8.m.r.G.M.m.K.K.m.7.8.5.O.5.O.X.O.X.[ X.O.R Z [ R Z V Z R R R [ R R Z R V C V V V C V V j k k h a 9 3 2 2 2 > > > > * * 3 * 4                                                                                                                                           ",
"                                                                                                                                                                                                                                                          =.#.=.*.e.5.6.t.4.5.m.7.,.K.(.(.Q.,.4.| O.5.K.<.O.5.O.8.r.8.4.Q.$X;X>X].iX7XtX7XK.M.F.8.| O.] S 5.lXDXmXzXF.G.R v T ] v.J.pXiXtXiX(.yXAXDXCXT.sX4X+XH.H.t.e.V V V X.X.X.E s.                                                                                                                                                                                                                                                                                                                                                                                                                                                                                                                                                                                                                                                                                                          * , * O O o + * * * * - - ; d R { R + O O + o O 2 + + ; {.qXV.N.C.N.n.A r k I Y / _ u.u.0.i.i.i.' _ _ u.^ U j c c b d s f p i f > 8 k j p d D t.R h @ 2 * * * * & * * * 2 3 2 2 3 p k }.a j j k l k k j j j l C V Z T R R [ [ X.4.m.E.'.x.z.].7XoXc.'.gX>X X'.K.7.m.7.r.r.r.m.I.r.7.r.8.4.<.4.,.4.5.X.] [ [ { O.[ R X.R R R R [ R R R R R D R R R T Z V V Z Z V M M k k k j p 9 5 3 2 > > > > * * 2 , 0                                                                                                                                         ",
"                                                                                                                                                                                                                                                        =.q.E =.*.e.*.5.F.4.4.7.7.M.Q.Q.K.F.,.5.T 5./.m.| <.m.4.8.8.m.,.'.%X;X-XW.iX8X7X>XK.m.K.I.O.O.[ [ 6.lXVXzXuX4.O.R C [ [ :XE.7XiXyXtX'.K.+X3X=X=XDXFXVXqXG.S k c V Z X.X.R X.#.s.                                                                                                                                                                                                                                                                                                                                                                                                                                                                                                                                                                                                                                                                                                          & * O * O + > * * * * + + ; d V X.3 * + * o * o * - - t MX$XB.R.A.B. .r d N Y ( u.a.a.i.a.a.i.a./ _ u.p.Q g k b b x d f f p k p > p p 5 5 V I.O.U - 2 > * * O > * * * 2 3 2 2 t j k *X6 j a j l k a j l V C C Z Z Z R R R R X.5.7.R.(.1.!.'.].].b.-XtXK.Q.K.7.7.m.8.<.5.r.G.I.m.m.m.m.5.8.8.5.O.| | [ [ [ { [ S T O.Z V Z R X.R R R R X.R R R R R Z C V V C Z Z C M V V M k h p 6 5 2 > > > * > 2 2 <                                                                                                                                         ",
"                                                                                                                                                                                                                                                      $.$.#.$.=.e.e.5.y.F.8.K.m..X%XE.L.8.5.y.T [ y.Y.4.O.O.t.y.t.<.4.4.'.$X].W.c.7X9X>X(.7.m.M.8.6.[ D ] m.wXxXuXyXS [ v R X.T <X.X!.7X7X7XR.K.K.K.7.yXFXFXVXxXI.| X.Z d V @.&.O.5.*.{ Y.                                                                                                                                                                                                                                                                                                                                                                                                                                                                                                                                                                                                                                                                                                        & * O * * + * * * * > 7 - - - 3 V 9 > o o o > , o o 3 $ mX<XR.A.B.n.>.s a M Y / i.a.i.i.a.a.a.a.u.u.w.u.Y W T v x d d f f f f p 5 c Z k r Z {.T X.- 2 2 > * + 2 * > * 2 3 2 5 j Z k +Xp k g k k g a k V C C V U U C U R R R X.O.O.J.(.v..X'.!.c.V.].!.x.K.2.<.r.M.8.o.O.M.G.m.7.r.8.r.<.8.8.8.O.| X.O.[ | | T R D X.V V Z Z R R R [ R [ X.R D R Z C Z C V C R Z C C C V M k M k h p 5 3 > > > * > , 2 <                                                                                                                                       ",
"                                                                                                                                                                                                                                                    %.#.#.=.$.=.e.=.*.5.O.:.E.K.qX%X9.4.r.6.X.X.5.I.&.y.O.4.5.y.4.X.O.7.1.V.B.c.W.Z.'.(.K.| r.t.y.5.{ [ D X.{.<X<X).| &.X.R C R %X:Xm.R.!.$Xv.7XiXiXtXtXVXVXbXqX).b X.V V C @.X.5.O.O.O.d._.                                                                                                                                                                                                                                                                                                                                                                                                                                                                                                                                                                                                                                                                                                        < * * * + o * * * * > - @ - > M C 5 + + - o o * 2 @ - {.zXK.2.2.7.,.s p l Y / u.i.0.0.g.k.k.u.u.u.w.u.%.+X|.k p p d d f j f j 5 j C Z k 5 c j { - - - > * * > * 2 > 2 3 3 5 p Z p Y.5 k p j g g k V C V C C C Z U R R R Z R [ 8.,.K.'.$XR.R.9.v.m.v.K.7.7.r.r.m.r.5.O.G.y.<.<.8.7.r.O.m.m.m.8.O.X.| ] [ O.] O.R [ v R [ R Z R [ R [ R X.R Z R Z Z R U C Z R C C Z C V M M C C M h 9 5 3 2 2 * 2 2 2 4 q                                                                                                                                     ",
"                                                                                                                                                                                                                                                  #.Q #.$.=.&.X.#.U X.5.7.m.(.(.-XQ.M.r.y.6.X.6.H.t.5.O.5.6.X.O.O.5.8.t.7.,.J.].;Xv.7.7.} <.<.+.5.O.[ [ Z Z 5.I.(.8.X.R V Z R R ^.{.7.1.1.7.R.7XtXtXtX!.tXbXyX<XG.D S R k Z $.@.[ O.] { &.e.e.                                                                                                                                                                                                                                                                                                                                                                                                                                                                                                                                                                                                                                                                                                        * * O o + * * * * @ @ @ $ @ 6 R C $ + $ + O * , O - Z lXXX2.<.2.>.A 5 M I 0.u.p.-.0.g.T.j.p.a.a.u.a.0.s.=Xh h a k c v k c v d 5 c f.C i 5 t d t $ 7 - * * O * * > * 2 6 5 p a j P.a g j j k g j k k V C V Z M M R C Z T R ] 5.| Q.'.].B.v.V.x.x.K.Q.} <.8.m.M.r.<.<.r.<.5.7.<.r.7.5.m.m.G.r.<.4.4.O.4.[ { 5.O.D Z Z Z X.[ X.X.5.R [ X.R O.R V Z [ Z Z D C C R Z k Z Z j V M C C h p 9 > 3 > 3 * , < <                                                                                                                                     ",
"                                                                                                                                                                                                                                                Q $.X.=.E U { X.U X.e.e.G.^.'.V.1.m.M.K.8.[ X.X.P.6.5.5.e.t.&.[ e.t.t.t.r.7.E.'. Xm.7.,.<.+.[ +.+.X.R R V V [ 6.y.[ S v k l M V e.y.O.8.7.,.8.).:X>X7XJ.E.$X-X).O.S k V V R @.$.R [ { X.[ [ H.h.                                                                                                                                                                                                                                                                                                                                                                                                                                                                                                                                                                                                                                                                                                      & * O O O + * * > - - @ + 2 + U R V ; ; + + O O * - p $X^.2.<.<.<.D i p N a.( a.s.g._.+XT.p.%.%.u.a.^ s.s.^ N l 9 C C j d x k d r &.j M a t j j 7 2 @ * * O * * * @ > 5 3 3 5 g f.p p g p j a g j k V Z Z C C C I V l Z R X.X.r.^.K.K.!.R.m.M.K.M.K.>.<.r.o.8.5.7.m.r.m.t.<.8.r.m.m.F.m.5.r.5.<.O.5.5.O.O.O.*.] [ [ R X.D R R O.R T O.5.X.Z R R Z Z R V V C R V a V Z k k k M M h h h 5 5 2 2 9 0 4 < <                                                                                                                                   ",
"                                                                                                                                                                                                                                              q.=.Q X.&.X.X.O.X.X.X.e.I.I.8.7.x.V.(.(.K.4.R &.O.H.6.f.Y.H.t.5.X.e.y.t.e.r.<.M.K.K.<.O.O.O.X.Z R R R Z k j k Z R &.D k a p g h M C C D | ] G [ | O.m.t.| | 8.&.X.R Z k j C R E X.X.R ] R { R R X.#.h.                                                                                                                                                                                                                                                                                                                                                                                                                                                                                                                                                                                                                                                                                                    O , 2 O * O * * - - O + + - - e.+XR n $ @ O O * + - O.M.2.2.<.7.O.k 5 N p.g.0.k.)._.vXCXKXT.p.p.u.%.0.%.%.%.%.Q #.T.R t u v s d f a a M d t t - - + * * * * * * @ - 5 2 5 p j f.6 a k j a a k k l V I Z j k v k l V T [ [ T m.K.8.<.Q.J.E.M.8.| O.O.| 5.O.<.5.5.K.r.5.<.O.G.r.r.8.<.m.5.5.<.O.| 5.6.O.X.] [ Z D R Z ] V S Z Z Z [ Z [ R [ T X.[ d V X.&.R &.*.R ..X.Z R I Z R X.X.X.D k h * 3 2 , 2 4                                                                                                                                   ",
"                                                                                                                                                                                                                                              #.I X.#.X.*.X.X.X.e.t.t.5.7.<.V.Q.R.(.%Xm.] [ *.f.H.&.5.P.I.d.5.O.O.5.e.5.5.O.n.m.r.[ O.*.[ R R R R R Z M h k C R X.T k p 9 p p M V v Z c c c R v Z X.T R &.e.&.X.Z Z k a C R R R R R [ Z O.&.R R R s.                                                                                                                                                                                                                                                                                                                                                                                                                                                                                                                                                                                                                                                                                                      & O * * O + + @ @ @ O + o @ a /.*.] t @ * + @ + ; A <.,.2.2.7.5.D 5 M p.0.T._.).).cXrXcXKXT.g.p.%.0.%.( a.%.^ E T.{ c j d d k f ; 8 p C p t 5 - + * + * * * * * > 5 > 5 j a P.2 j a j a g l V V V V l l C C j V l C T R R 4.<.m.7.J.v.K.r.O.| <.O.[ X.[ R y.O.m.m.O.<.r.m.H [ <.O.8.X.[ O.O.[ 5.O.{ [ [ ] R D R [ X.O.[ X.R R O.Z V R R V R &.k R O.R X.e.e.X.[ R k c k j v C D X.[ D C 5 9 3 3 6 3 w                                                                                                                                 ",
"                                                                                                                                                                                                                                            s.E R &.X.X.6.R R O.O.5.O.G o.7.K.(.%X'.(.9.| 5.G.H.6.5.&.&.6.5.*.5.R X.X.O.<.O.7.<.5.[ X.X.C V R R Z Z C M h h k C k j h 9 9 9 p k Z k V f k d M Z V j V R I U Q M k h p a C X.@.[ R R [ R R V R R E U q.                                                                                                                                                                                                                                                                                                                                                                                                                                                                                                                                                                                                                                                                                                      o * * * @ @ @ @ @ O O O O 2 5 T [ S p 5 - - - y ] >.>.2.2.<.<...r g s.k.g.}.*X%X&X4XrX+XT.T.p.p.-.0./ u.u.%.#.E l l C j d c k i 8 5 p 5 a j > + O * * * * * * - 3 - - a a P.3 j p p p j l V k k k k V I I k V V C Z R { X.O.G.r.8.7.8.8.| O.5.X.O.O.[ O.P.X.O.X.] <.r.5.H [ 5.O.O.[ ] O.O.[ O.{ X.O.O.] X.[ [ O.O.f.O.[ &.X.[ R [ Z S S p *.R [ R R S S v k c V n c [ R { [ D R v d c V c p 3 9 5 2                                                                                                                                 ",
"                                                                                                                                                                                                                                          $.#.I O.X.[ X.X.T X.X.O.] | 7.m.1.V.-XyX;XJ.:.5.F./.t.8.^.I.6.O.X.5.5.[ [ R X.O.O.O.[ [ X.R D Z k j T k k k k k h g k p p p 9 5 p p h p a k p j a h M M M C C M g k h p 8 p k Z X.X.D Z C R ..X.R X.R C R =.s.                                                                                                                                                                                                                                                                                                                                                                                                                                                                                                                                                                                                                                                                                                    O * * * * - * * O O O O * > - - Z X.X.Z k j x b :. .1.x.2.,.<.X.k p =._.+X+XyXuXyX).6.P.LXT.@Xh.0.-.( / / u.%.#.$.g.E Z j c i c f p 5 3 p h 2 * * * * * * > > * 3 > - 5 a f.5 p j g g j k k j k l k l C C l Z Z R R R { O.5.O.5.8.5.<.6.] [ O.X.O.R R *.6.[ X.| 5.8.<.X.O.<.5.O.X.5.[ O.5.[ O.[ O.5.O.R O.X.[ O.[ e.[ D X.R R Z V V 5.5.V O.Z 5.X.d r r d d V ] [ X.{ X.6.6.6.y.5.O.[ [ S V p 5 5 6                                                                                                                                 ",
"                                                                                                                                                                                                                                          $.Y @.&.X.X.{ R R X.Z ] ] >.,.1.1.R.-X;X(.m.:.4.F./.5.{.%X).L.8.5.5.{ O.O.R +.O.O.| ] R X.R R R V k V j j k l M M k h p 9 g p 5 p g g 5 a M 9 p h h k Z Z c p k a p M a 9 p k D R D C V Z R I R Z R V R C U #.s.                                                                                                                                                                                                                                                                                                                                                                                                                                                                                                                                                                                                                                                                                                    & * * * * * O O O * o # * + - $ X.O.X.[ | } } :.>.l.l.2.2.<.O.] a #.Y.,X,X,XwXK.L.L.&.=.=.@X@XT.a.0.u.u.a./ 0.~ %.$.R R a f d A f V k k l 3 > * * * * * 2 > > 5 5 - 2 6 6.3 3 j j j k V l k l C l C T R R V V C Z R [ X.5.G O.8.<.O.*.O.O.e.X...Z O.5.X.[ X.X.5.4.5.[ ] O.6.6.5.O.[ X.O.X.&.[ &.O.[ [ O.O.O.O.X.X.X.X.[ [ *.V k V /.O.] F.X.D s r v D X.[ X.O.O.O.4.4.5.O.4.r.r.F.r.5.5.e.{ v r 3 <                                                                                                                               ",
"                                                                                                                                                                                                                                        =.I R X.X.R X.R R X.R [ O.7.M.x.m.n.R.R.(.m.V.} 7.Q.^.7.:XXX^.I.5.| 5.O.[ X.D +.[ [ H [ [ Z V C k k V v j g g g k l g 9 9 5 h h 9 p a 9 a 5 p p 9 9 p k p t j j a a 9 8 p p 9 j Z Z C R Z C R R X.D Z [ Z X.R E #.s.                                                                                                                                                                                                                                                                                                                                                                                                                                                                                                                                                                                                                                                                                                    * * * O O O O O o 2 * * @ + - - c T { O.| 7.:.1.x.2.2.2.7.,.<.c E s.=X=X4X%XH.6.*.=.=.$.p.a.@X+XT.0.p.( u.%.^ a.%.^ Q M p d n n a k V C 5 * O > * * * * * * 6 6 - 5 p f.9 p h j g k V V l V V k k C T { l V Z R R X.[ O.[ O.5.O.O.[ *.O.5.R R O.E R R R X.5.O.r.<.[ [ +.5.5.5.[ X.X.<.5.6.[ O.R D O.O.*.*.O.O.D O.*.X.O.O.Z [ a v X.y.Z 5 r r D 4.6.y.5.6.M.r.8.7.m.F.m.G.K.m.F.G.m.G.G.y.F.] t 6                                                                                                                               ",
"                                                                                                                                                                                                                                        Y X.E X.X.E R Z R [ O.+.8.5.R.R..X].!.V.R.8.G <.<X<X-Xx.$X).E.m.O.[ X.{ R Z Z X.Z Z Z Z R k k j k Z l k p 5 p h 9 9 p 9 5 6 9 6 3 5 6 6 5 6 9 p h p 9 3 6 5 6 9 p 9 6 5 6 3 9 p p p h R C Z R R R D R ..R R R R X.X.#.e.                                                                                                                                                                                                                                                                                                                                                                                                                                                                                                                                                                                                                                                                                                  O 2 o O * O O O * * * * * * O @ - - 3 r v [ <.2.7.n.2.1.n.2.7.k N #.+X3X+X_.s.$.%.^ ^ ^ ^ -.$.p.T.h.p.u.u.0.%.^ ~ ^ p.=.W l p a k d k a ; - @ + * * * * * 2 5 5 j g $.3 6 5 h k k k R Z V M R Z C C V C Z Z { R R R R R &.&.X.[ O.=.*.X.[ R R R R Z X.R X.[ 5.O.<.O.5.5.*.O.[ [ O.5.5.5.O.6.[ ] [ D O.5.X.8.X.X.[ ] v d P.[ [ R j p c [ o.o.o.| o.>.,.,.<.7.r.8.n.7.<.>.<.O.} o.<.8.7.m.L.Q.I.G.O.Z                                                                                                                           ",
"                                                                                                                                                                                                                                      U @.=.T R R R R R R [ O.5.,.r.K.R.R.!.R.m.,.>.G m.fX-XB.v.m.J.m.<.<.O.[ [ [ R R [ R V V c R j a a h h p h g 9 g h 6 6 9 9 9 9 9 3 3 3 5 5 3 5 6 6 9 9 9 6 6 5 6 9 p 9 9 9 9 3 6 6 9 9 9 h k Z R R R Z D R R R [ X.X.X.X.=.                                                                                                                                                                                                                                                                                                                                                                                                                                                                                                                                                                                                                                                                                                    * , O o O + * * * * * * * @ * - * - - 5 d v [ <.>.7.x.2.n.,.d g C $.p.g.^ ^ / / ^ ^ ^ ^ ^ #.p.p.j.T.j.p.a./ ( 0.%.%.%.%.#.C V d d d d 5 $ 5 + + * * * * 2 5 7 t p E 3 9 9 p a C l k l X.R V C V C V Z Z C R R Z R R [ &.X.R { &.5.&.X.{ [ R [ R Z X.....[ O.[ 8.5.O.X.] [ O.4.5.<.r.4.5.O.] O.] ] O.8.5.| X.] D v S 5 O.X.k 5 5 f Z [ ] ] o.7.r.K.Q.Q.K.n.7.K.Q.R.K.r.m.r.7.t.m.r.<.<.m.K.V.Q.(.F.t.X.                                                                                                                      ",
"                                                                                                                                                                                                                                    E $.e.X.X.X.R R X.X.....+.r.G.M.7.m.B.'.'.R.v.,.O.G.%XJ.E.%X9.,.7.<.<.O.T [ O.R R V Z V R D R j a j h p 9 j h g h h 3 3 9 9 p 9 9 3 2 3 5 6 5 5 3 3 3 5 6 5 3 3 3 6 9 9 9 9 3 5 g p 6 9 9 p j V Z R R R R R R R { X.X.X.X.X.$.p.                                                                                                                                                                                                                                                                                                                                                                                                                                                                                                                                                                                                                                                                                                  & O O O * * * * * * * - * * * * * = - ; 5 d A <.<.2.7.2.7.] t j 6 E #.0.%.Q ~ ~ ~ ! ^ ^ ! ^ %.$.%.+XT.k.0./ %./ %.%.%.=.^ p p p j c r + - + + * * * * - 3 - 3 5 M 3 9 9 g j k V R R R V D Z C Z Z T T Z T R C R R R X.R Z X.&.*.X.X.X.{ R R R R R R R R [ ] 5.O.[ *.O.5.t.8.<.| 8.O.5.] Z D ] O.5.5.X.D X.D Z [ y.[ X.R r 5 a Z X.+.O.O.<.r.m.M.K.K.n.<.>.2.m.r.8.<.8.5.<.O.5.r.m.m.m.m.7.m.Q.K.I.H.#.                                                                                                                    ",
"                                                                                                                                                                                                                                    #.R [ O.&.[ X.X.O.5.O.O.<.r.r.8.M.Q.R.Q.'.Q.7.b } ).K.(..X(.E.>.8.r.| ] T R +.R Z c Z R R R V j p a h 9 5 p h h h g 3 3 6 6 9 9 6 3 2 3 5 9 5 5 3 3 3 3 3 3 3 3 3 3 3 3 3 3 5 3 2 3 5 6 6 9 p k V Z R R R R X.R X.X.{ X.O.X.Q $.p.                                                                                                                                                                                                                                                                                                                                                                                                                                                                                                                                                                                                                                                                                                  & * O * * * * * @ * * * * * > > > - - - ; i ..O.r.r.5.<.O.c r t j j W W #.^ Y Y ! ^ ^ ^ ^ ^ p.p.T.h.j.p.p.%./ %.w.%.u.q.E $.g a j 3 3 * * * * * * * - 2 - - 3 g 3 9 h k j C T R R T Z R R Z T R R R T T R R R U U R R I [ X.X.X.X.X.[ R R R R R R Z R [ 6.8.X.[ 5.5.6.6.5.| | | O.5.] Z [ 5.O.O.[ R [ O.X.Z t.e.O.R - p f k R X.+.5.5.6.o.| } o.,.,.<.7.m.r.<.<.O.<.O...[ H G G H o.7.m.K.M.G.I.{.f.e.                                                                                                                  ",
"                                                                                                                                                                                                                                  R *.5.O.O.5.X.O.X.O.5.<.<.5.r.m.M.K.(.R.K.!.K.,. .9. Xm.'.].(.Q.,.8.8.] D Z [ X.R V V Z R V k j k j g h p 9 9 h p 9 9 9 6 6 3 5 3 3 3 3 3 3 5 3 5 3 3 3 3 3 3 3 3 3 3 3 3 3 3 p 9 9 9 5 2 3 9 9 p h k C U U U Q R E X.E X.X.Q #.E =.p.                                                                                                                                                                                                                                                                                                                                                                                                                                                                                                                                                                                                                                                                                                  O O * * * * * * * @ * * * * > > * * * - r H.e.O.5.[ d.y.S r ; 5 t v W E Y Y Y ) ~ ( ~ ^ Q ^ ^ ^ Q h.+Xp.u.a.a.%.%./ %.$.=.h p j 5 3 + * * * * > > 3 5 2 2 6 9 3 9 h k V Z S V R X.X.X.&.R R R R R R R X.R E R R R U R U U { X.O.{ R R R R R X.R X.[ O.O.| X.X.O.O.t.6.4.| O.| O.5.X.[ 5.X.D [ D [ ] Z k R X.*.R 5 p d R X.*.*.O.] S A <.,.<.5.5.5.r.M.K.m.5.8.5.5.O.O.O.O.O.O.[ G G H } ] 5.F.H.}./.g.q.                                                                                                              ",
"                                                                                                                                                                                                                                #.*.X.O.t.G.7.7.4.O.O.5.5.5.8.m.K.K.x.V.m.R.V.,.b  .v.K.J.$X-X(.7.<.<.[ [ [ Z ..R C k k V R f a j Z k j k h p 9 9 6 5 9 9 9 6 3 3 3 3 3 3 3 3 3 3 3 3 2 > 2 3 3 3 3 3 3 2 3 3 3 3 h I U g * 2 9 9 p p a M C C U U U R Q E E E E E q.Q Q %.                                                                                                                                                                                                                                                                                                                                                                                                                                                                                                                                                                                                                                                                                                  @ , * * * * * @ @ * * * * * * * * > % - - 5 t ; t 5 O.<.G.| [ c 7 5 p g z B P ) ) P Y %.Q ^ #.E W #.0.g.@X@Xj.u./ w.^ Q Q Q $.E 5 > 2 , * , > > 3 5 5 6 g 9 6 9 h l C [ { [ O.&.6.5.e.X.{ { R R R R U Z R R U C C U R R [ X.O.[ R [ R R V X.R +.[ X.5.| O.X.[ R 5.[ <.<.| | | 5.X.O.O.c ] [ c Z k 5.=.k Z r : Z O.5.X.[ R R [ X.+.5.O.o.o.X.[ D D ] ] D S D C A k k f k k A A A A A ] <.5.O.<.O.X.e.g.h.                                                                                                            ",
"                                                                                                                                                                                                                              =.&.5.O.t.<.5.8.5.5.5.5.5.<.7.r.m.K.R.(.).!.!.m.>.G v. X7.:.v.R.V.| O.[ D [ X.R D Z V k p k Z a j p M a 9 a p p 9 9 5 3 3 9 9 3 3 3 3 3 3 3 3 3 3 3 3 3 2 > 2 3 3 > 2 2 > > 2 3 3 > 6 9 k h 6 3 * 5 9 9 9 h N N C I Y Y E E E E E Q Y Q @.Y s.                                                                                                                                                                                                                                                                                                                                                                                                                                                                                                                                                                                                                                                                                                  O * * * * * @ - - * & * * * * > > > - @ - @ - - ; R O.O.5.5.H.t $ - 5 0 w B P Y P P ! ^ $.Y ^ #.W ^ p.T.@XT.a.%.%.%.Y #.^ =.#.5 * 2 , * * > * > > 5 9 g 9 6 g j V k 5.F.{ | y.F.5.d.X.X.X.R { R R R l C Z C M k M R R X.X.X.R [ X.R C M R X.X.[ [ | ] [ [ O.[ 6.X.O.<.| | O.[ X.O.O.R X.R k V V }.e.j a 5 d O.5.R V V R O.e.5.[ S ] S S H H S S R [ [ R R Z Z V k c j a d d d d p c j D [ S O.G.*.X.=.s.s.                                                                                                        ",
"                                                                                                                                                                                                                            %.$.e.&.5.4.5.O.O.5.<.5.5.O.O.5.r.m.V.M.'.(.).M.<.} } M. Xv.R.m.1.7.5.[ R ] R D R k C M Z a C C a a p M p 9 a p a a 9 6 3 3 9 6 3 3 3 3 3 3 3 3 3 3 3 3 3 3 2 2 2 2 > 2 2 > > 2 3 3 3 5 > 2 3 5 9 3 3 9 9 9 9 g k M I Y Y Y E E E X.@.#.E E $.Q s.+X                                                                                                                                                                                                                                                                                                                                                                                                                                                                                                                                                                                                                                                                                              , , * O O @ + @ > * & * * * * * * + O - 3 - 2 @ - k +.5.5.6.6.S v 7 7 3 3 0 B P P P ! Y Q #.Q Y Q ^ ^ $.$.g.+Xj.$.^ ~ Q Q #.$.h * * * * * 2 > - > 2 5 9 5 3 h h V R &.5.[ ,.5.m.t.e.[ [ X.R [ R I X.V V C M M h N Q Q X.E R R { X.Z V Z E X.R ] X.X.O.O.X.*.] O.X.5.<.O.] 8.D O.O.R [ V D R R k f.C a * p R [ O.Z Z R X.5.*.[ Z S S A v S D D D R R [ Z Z R X...Z R V j j c V c j j c k d f [ ..t.5.*.X.=.h.                                                                                                      ",
"                                                                                                                                                                                                                            $.#.X.X.[ X.<.] O.O.O.O.O.6.<.<.<.M.K.K.K.Q.!.m.} <.m.m. X'..X(.m.<.5.X.R R V R V k j k C R U C k p p h p 9 9 p p p p 5 3 3 6 3 3 5 2 3 3 2 2 3 3 2 3 3 3 3 3 3 > > * > 2 3 2 * > 3 3 2 * 2 6 6 5 6 3 5 9 9 3 h k l I I W E E E E Q #.R R @.Q X.#.h.T.                                                                                                                                                                                                                                                                                                                                                                                                                                                                                                                                                                                                                                                                                              & * 2 * + O * - * * 2 * O 2 O > * * * * - - 2 - - X.O.X.R V t.{.S - - - 3 4 N w P ~ Y ! $.Q E E #.^ E ^ $.+XT.h.p.%.E Y #.#.P 4 , , * , 3 > - > 5 5 g g 2 p j k [ &.5.8.G.8.m.5.{ [ X.X.R T U U R Z C k k k N C R Q X.R R [ X.[ Z c C X.Z [ 5.5.<.] 5.O.6.O.<.4.r.,.] | 5.[ t.5.X.Z V Z D k 5 C p 5 a R O.V Z Z [ X.O.R c v Z c [ [ R V R X.Z Z Z R Z V k M M C C M a j M V Z V V M V V k f A [ +.+.*.*.X.g.q.                                                                                                  ",
"                                                                                                                                                                                                                          Y U R X.[ X.X.O.[ O.O.O.O.*.5.5.5.<.m.K.K.R.(.Q.7.} >.m.4.M.(. X).J.7.*.R [ Z k R j k h k N C M k k a p h p 5 9 p p a p 6 3 3 3 3 3 3 3 3 2 > 2 3 3 2 > 2 2 2 2 > * * > > 2 2 > * > 3 2 2 2 3 5 3 6 g 9 3 3 3 9 g g k h z N Y W I P N I C C R R E U $.T.                                                                                                                                                                                                                                                                                                                                                                                                                                                                                                                                                                                                                                                                                                , O O O + > * 2 * * * * * o * * * * * 2 2 - - o > p p p 5 k t.Y.V d 7 2 3 6 4 w P ! ^ ^ Y W ^ E Y Q ^ ^ s.h.T.T.%.I E ^ #.E , * * * * 3 > > > 5 k g > 2 g g T T 6.K.L.t.X.4.O.Z R [ [ R R E U R V k h N N C N M U Q R R R { X.R R R X.[ [ O.O.O.X.O.O.5.| 5.5.8.r.<.<.] O.y.X.V R R k V *.&.5 3 j R R [ C [ R R V v V V Z X.*.X.X.R V Z R k k a a a p p p p p p p 9 p a a j h k C Y Z V C D S S A [ 5.5.X.X.#.                                                                                                ",
"                                                                                                                                                                                                                        Q #.&.&.O.O.6.+.5.O.5.6.5.5.5.e.6.8.5.V.R.'.!.).K.>.} <.m.K.K.(.Q.Q.m.O.5.R R Z V R k a p a M M h a k M h h p 9 9 9 9 5 9 6 5 3 3 3 3 3 3 3 2 * 2 3 3 > > > * - * * > > > > 2 2 2 * > 2 > 2 3 3 3 3 5 h k 9 9 3 9 6 9 h h l I Y E U N l C C C R ..&.R [ e.T.                                                                                                                                                                                                                                                                                                                                                                                                                                                                                                                                                                                                                                                                                                  , , 2 O 2 * * 2 * O O O * * * - - 2 2 - * * O * > 2 - 3 V H.X.&.v - - $ 5 0 w P Y Y Q ! ^ ^ E #.^ Q E &.h.T.@Xh.#.=.#.E 2 , 2 * 2 5 3 3 3 3 h k 2 9 h g R T G.L.m.X.O.6.[ Z R R R U R U R Y C M k M M M l M U E X.X.{ [ X.Z [ [ X.O.O.4.<.5.5.X.<.O.| m.m.5.,.,.G.] 5.[ V R R V Z C *Xs.5 9 M R Z Z Z [ D V V V Z R [ X.*.R R R C V l a h h a p p h k k h p p 9 p p 9 p 9 2 9 h h M R ....S S D D 5.5.R &.                                                                                                ",
"                                                                                                                                                                                                                      E X.X.{ O.5.5.F.6.5.5.5.y.6.e.e.t.r.r.8.K.V..X!.R.m.S ] t.m.I.Q.Q.M.8.<.[ X.X.Z R R R R a p j M M a p h M h h p p 9 9 5 3 6 6 5 3 3 3 3 2 3 3 2 * 2 3 2 > > > 2 2 2 2 > > > > > * * > - > 2 2 * > 3 3 3 6 h k C g 5 3 6 9 9 9 g z z h 9 9 U U C Z R O.R R O.=.                                                                                                                                                                                                                                                                                                                                                                                                                                                                                                                                                                                                                                                                                                    , * 2 * * * > O * + * * * * - - 2 2 * O * > + > > * > - e.=.t.e.*.*.k - * & 9 g l U P U Q ^ ^ Y #.Q E E E ^ h.@X@X6.#.k 2 2 > 2 5 5 3 3 3 3 k 9 9 g h R [ 5.6.I.y.&.[ R R [ R T U R Z Z M C U C C k N N N Z C T X.[ R { R X.&.O.*.O.4.] 4.8.| 4.X.O.8.7.F.,.m.).5.5.[ [ R [ k k Y.Z 5 p M k k D X.R Z v f D [ Z Z Z c c j j V V C C M C k j h h k k k h h h p p p 9 a g k g a p p p f k A A *.+.[ D c R R Y                                                                                             ",
"                                                                                                                                                                                                                  Q E X.X.*.5.5.5.5.M.5.<.<.<.y.5.r.t.t.r.m.m.E.R.`.!.K.r.S <.t.F.<.,.7.8.| O.O.D X.R X.R k R C k M C V a 8 p k 9 9 p p p 9 9 3 5 5 5 5 3 3 2 > 2 2 2 > > > > > > > > 2 2 > > * > > * * > > > - 2 > * * 3 3 3 3 5 p U U 5 3 5 3 9 9 p h h g 9 9 U C l C D [ R [ R E #.                                                                                                                                                                                                                                                                                                                                                                                                                                                                                                                                                                                                                                                                                                    < O , 3 * O * 2 O O O * * * * > * O + + * * * * * > o p Z R R v T T T p * > 5 9 h z P P Y Y Y ^ #.E W W #.f.h.+X+XP.k * 2 * * 3 3 - - 5 5 h 3 3 5 a R { 5.5.I.6.X.R R R U R R R R V Z k l C C C l C U M C l C { [ T { [ [ O.O.O.O.8.] 8.8.<.8.<.5.5.| m.x.%X(.<.] D Z X.[ R p 8 8 + M M k V X.O.R v V D X.R k k V V k R Z Z V j p 9 p h p 9 9 9 9 8 5 9 5 3 5 5 5 9 p 9 9 9 p h a a d Z f C X.X...R V R C U U                                                                                         ",
"                                                                                                                                                                                                                  =.R [ O.[ <.5.O.+.r.<.<.O.<.5.5.r.t.m.r.M.V.E.`.R.!.Q.r.X.t.+.F.O.,.| 8.X.O.X.D C X.Z k j k Z Z C C k p 5 p a 9 5 p h p p 9 3 5 3 3 3 3 2 > - 2 2 2 > * * * > 2 2 2 2 2 2 > > > 2 2 * * - > * * > > 2 3 3 3 5 5 3 k U 9 5 3 5 3 5 9 g g g 9 9 U C C R R [ D X.[ R $.                                                                                                                                                                                                                                                                                                                                                                                                                                                                                                                                                                                                                                                                                                        4 O 2 3 * * O * O * * * > * * O + 2 o 3 > * 2 * > * 3 + - - 5 R e.=.j $ - 5 6 q P Y ~ ~ ^ ^ Q E #.I #.&.&.Y.+XY.=.- > * * 2 2 > > 5 C l > 3 6 6 V [ t.5.*.[ O.X.R R U R E R Z M V M k M k M M C C M U R R { R T { [ T { X.[ 4.F.<.r.8.,.<.O.8.m.7.K.K.-XK.,.G G D ] R e.[ k > 9 k k Z X.X.Z Z D X.*.X.C k c Z R R V j j p 5 5 5 9 9 9 5 5 5 5 5 5 3 3 > 3 5 3 3 3 3 9 p 5 9 h h p a C M M C R X.R C Z U C Y                                                                                       ",
"                                                                                                                                                                                                                E =.T *.X.O.<.5.O.<.5.5.7.<.7.7.r.m.m.m.m.K.V.E.!.R.K.V.<.<.5.O.K.r.G.<.8.5.O.T R k R k j j d V Z k j a p p a h 9 5 9 p 9 9 9 3 5 2 2 2 3 2 > > 2 2 2 > > > > 2 2 2 2 2 2 2 2 2 2 2 2 * * * > * * 2 3 3 3 3 3 5 9 3 6 h g p 3 5 3 3 5 9 g g 9 9 N N C Z Z R S [ [ R E s.                                                                                                                                                                                                                                                                                                                                                                                                                                                                                                                                                                                                                                                                                                          & * * O * 2 * * * * * * = + + 2 O 3 * * * # * = > * > 7 - r S 8.| d 7 2 - 3 q P Y ~ ( ^ P Q Q #.R { &.#.6.T.f.- 2 * * > 2 2 2 3 I k 6 9 p p p Z &.[ O.O.X.R R E R R R U C M M C M l k C V V M M C R R R T T ] [ [ ] X.[ 5.r.9.5.8.} } ] <.F.v.!.J.K. .m n S [ ] k +XR > - M a C R [ C k [ [ X...V k V Z Z C V j p p 5 > 3 3 3 3 3 5 5 5 5 5 9 5 5 5 9 9 3 3 3 - 5 5 - 5 p h p p M M M M a V R C k M C M ^                                                                                     ",
"                                                                                                                                                                                                              E X.*.X.O.5.] o.<.O.5.5.r.r.<.r.8.m.m.m.r.v.K.B.R.R.W.x.7.<.y.O.t.I.8.m.O.5.5.X.R C V R V j p k V k p 8 p a a j k 9 3 9 9 3 3 9 5 5 2 > 3 5 2 > 2 2 2 > > 2 2 2 2 * * * * * - * - 2 2 2 2 * > > > 2 3 2 2 3 3 2 3 2 5 9 9 C k 5 3 3 3 3 5 9 9 9 9 N N C Z V R S [ [ R X.s.                                                                                                                                                                                                                                                                                                                                                                                                                                                                                                                                                                                                                                                                                                              & < * & * * * > * * + + + - 2 * * * * = = * > > * > - $ r S F.t.T t - 2 2 4 q P P ~ P ^ I E *.{ *.6.&.6.X.- 2 * * > 2 2 3 5 p 9 h 5 p k t k *.R Z R R R R R U U U M C U C k k V V Z V C V Z Z R R R { { [ V R D [ O.r.m.m.4.F.<.4.,.O.K.7.K.K.J.| ] ] v ] V Z e.p - k p Z X.R V k V 6.X.Z V k k Z D Z V j p 5 p 5 5 p 9 9 9 9 9 p p 9 5 5 9 9 5 p p 5 9 9 5 5 5 5 6 6 6 5 3 a N N M M M a R D M k M N P                                                                                   ",
"                                                                                                                                                                                                            E U { { { 5.X.[ [ +.O.O.<.8.m.<.8.m.8.K.m.m.V.B.V.K.!.R.M.8.| e.t.6.8.4.m.O.6.*.R Z Z V R k k a p V V p a p j M k k 9 6 6 6 5 6 6 3 3 3 2 2 2 > > > > > 2 2 2 2 - * * - - > > > * - * * * * * * * * 2 3 2 2 > > 2 2 2 3 3 5 p k h 9 3 6 5 3 6 9 9 p M k C R R Z R Z Z R R =.h.                                                                                                                                                                                                                                                                                                                                                                                                                                                                                                                                                                                                                                                                                                              & , & * * * * + * + + * * * * * * * * * * * * * * * * > 7 X.[ *.X.5 5 > > 6 9 k z Y Q E X.U X.E #.#.#.$.2 * * * * * > > 3 p Y 5 3 a p 6 a R R R R R R R R C R I C k C U k k N M V Z V Z I R C V C X.[ T C d v O.[ | O.O.5.5.G G n A S 5.| | 7.] v T S V d k j 5 5 j V ..X.Z c V X.&.[ c V Z Z V l j a a p 9 9 9 p 9 6 6 5 6 9 6 6 6 5 5 6 6 9 9 5 5 5 5 9 p p 9 5 5 9 9 9 5 p h h Z M C M V Z V h M N z                                                                                 ",
"                                                                                                                                                                                                          #.6.X.{ O.O.6.5.O...5.X.*.5.6.m.r.M.m.m.K.v.x.V.R.R.K.m.x.m.| v X.I.f.t.8.7.O.X.R R +.R V V V Z j j Z j 6 p 5 h a 9 3 p 9 9 9 3 3 3 3 3 > > > 2 2 2 3 > > 2 2 2 * > > * * > > > > * * * * * * * * * * > > 2 > > > 2 3 5 3 3 2 3 p h g 9 2 6 5 5 3 * 9 h h M U U R R Z R R X.Z =.T.                                                                                                                                                                                                                                                                                                                                                                                                                                                                                                                                                                                                                                                                                                              & & & 2 * * > + * + * * * * * * * * * * * * * * * * > - - - 5 - a R Z 3 - * 5 0 4 0 P I C E Y ^ #.#.#.* * * > * > 9 a N l 9 p h - a p a R R Z R R R R R Z V Z Z R C k M k C C R U R R V Z V C C I V C V Z O.4.[ | 8.5.7.m.).<.] O.t.X.d.O.] [ X.Z j X.P.C > 3 k R R V k Z [ R V c V Z Z R V a a j a p p 9 5 5 3 2 2 2 3 3 5 3 3 5 5 3 5 2 3 5 2 2 3 2 3 3 3 3 3 3 9 9 5 9 k h 9 h h M C V a a Z C g k N                                                                               ",
"                                                                                                                                                                                                      Q Q #.s.&.{ 5.5.&.*.5.O.e.O.*.O.8.t.m.M.J.R.!.Q.V.m.V.R.Q.J.v.m.| ] 5.{.r.5.7.O.| ] V Z R V k a j C k l l V k 9 9 k 9 5 5 p 9 9 9 3 2 3 2 3 2 2 2 2 > > 2 > 2 > * * * > > * * * * * * * * * * * * > * * * * * * * > > 2 3 3 3 3 3 3 5 9 9 h h 3 3 5 3 g 9 9 p k C R R Z D R D R Z E q.                                                                                                                                                                                                                                                                                                                                                                                                                                                                                                                                                                                                                                                                                                                  < o , , o 3 * * 2 * * * * * * * * * * * * * * * * 3 * - - + 3 5 e.=.k 3 - * 3 g p h l Y Y Q $.$.$.* * * * * * 3 8 C M 5 9 k 9 a p j R R Z T Z T R V R Z R Z R C M U M C U R R C T R U C Z V l v R { [ { O.4.5.F.O.r.G.{.7.n ] O.] S 5.&.&.{ C V f.P.k > k Z Z R j R X.X.R Z Z R [ V Z k p a j a p 5 5 5 3 > > 2 2 2 2 > > 2 3 3 3 3 > 2 2 > 2 2 > 3 3 2 3 3 3 5 9 9 9 k h a a a p V V M j a k k p h N                                                                             ",
"                                                                                                                                                                                                    #.X.=.6.6.5.[ 5.O.{ O.5.O.5.e.=.O.y.r.r.m.Q.R.(.(.!.V.7.m.K.F.7.<.[ O.5.H.] } <.4.| [ R D Z f k j a k V k a V V p 9 j 5 5 5 9 6 9 6 3 3 3 2 3 3 3 3 2 > * * > * * * * * > > * * * * * * * * * * * * > * * * * * * * * > 2 2 > > 3 5 3 3 3 3 h N 9 3 2 > p > 9 g h M I Z V Z k X.Z E X.#.h.                                                                                                                                                                                                                                                                                                                                                                                                                                                                                                                                                                                                                                                                                                                        < * * O * > * * * + O * * * * * * * * * * * > > * 3 > @ +Xs.e.T 7 3 - 2 6 9 h N P U Q ^ ^ * * O * > > 3 8 k R 9 p 9 h h p a R R U T C C C k R U U Z C k C C M C U I C k C R R V V k k v R [ X.O.&.O.[ 7.O.G.G.Q.[ | S X.6.O.5.{ *.[ k V Y.*.3 3 M V M k V R X.Z p k Z Z Z V k j j k p 5 p 3 3 5 3 2 > 2 2 3 2 2 2 3 5 5 3 5 3 3 3 3 3 5 2 3 3 3 9 9 5 5 9 5 3 p p k k M M j M Z M 8 p k p p k                                                                             ",
"                                                                                                                                                                                                  X.&.e.e.5.F.O.| 5.O.[ O.*.X.X.t.e.5.t.r.m.M.Q.K.R.~.'.(.K.M.m.r.8.| | 5.5.8.O.O.7.G.| D c V U k k k p a V p 5 a k k k M 5 5 5 9 3 3 5 3 3 3 2 2 2 2 3 2 > > > * * * * * * * * > > > > - - > > * * * * * * * * * * * * - * > > 2 > > > 2 2 3 5 3 2 l g 3 6 2 9 9 9 g k Z C V Z [ R { l Z $.q.T.                                                                                                                                                                                                                                                                                                                                                                                                                                                                                                                                                                                                                                                                                                                        4 1 , * , * * O + * * * * * * * * * * * 2 < * * + * + &.P.6.e.O.k $ ; - 2 0 h N N U Q #.* * * * > * > 5 C =.> N 9 3 h h 5 C R U Z V T Z R R Z V Z k k k M M Z U I V l I C I C C V Z Z R X.X.[ O.{ O.4.[ 5.F.8.] 5.D [ X.X.&.T [ V j 5 k a > k C k a p R X.[ c a Z [ Z V V k g g a 5 7 5 9 9 9 6 5 3 3 3 3 3 3 3 3 5 3 2 5 3 3 3 3 5 5 3 3 2 3 9 p 9 9 p p 9 p 8 9 8 k M h k h h M h 9 M 9 9 w                                                                           ",
"                                                                                                                                                                                                =.[ d.e.t.6.t.F.8.y.O.] O.O.O.O.=.e.e.5.6.F.m.K.Q.K.K.!.!.R.K.M.8.5.S [ 5.m.5.m.7.>.r.] R V k Z Z j j p j V 5 6 9 j M k k 9 5 5 9 3 3 3 3 3 3 2 > - 2 3 2 > * > * * * > - > * * > > > > * > > > > * * * * * * * * * * * - > > > 2 > * * > 2 3 3 3 > g 9 5 g 5 2 6 9 9 g M V Z R R V V R V R X.s.                                                                                                                                                                                                                                                                                                                                                                                                                                                                                                                                                                                                                                                                                                                            < , , * * * * * * * * * * * * * * * & & & & * 3 + 2 3 V 5.d.5.p $ 3 @ 2 3 g h C Q $.O , * * * + * p U Q 3 N p 9 9 h 5 k Z I V C R R R C l k V k M C M M U U Z V k Z I R Z C V R T R C X.&.O.[ 5.5.O.5.t.X.6.O.X.[ V X.Z k Z v k r j > 5 Z C k j p X.Z c j V [ R k f k c j 6 5 p 6 5 9 9 6 5 3 3 3 3 2 2 2 2 2 3 2 > 3 2 2 2 > > 2 > 3 > 2 3 5 5 5 5 h p p p p 9 j p h k k k k h p p g g q B                                                                         ",
"                                                                                                                                                                                              e.f.F.t.F.6.G.5.8.F.y.*.[ O.X.&.=.X.*.6.O.5.t.r.r.K.K.F.K.F.m.M.r.F.5.[ <.G.).M.m.,.} O.] O.X.R Z R C k V V Z a j 9 p h 5 9 5 9 5 9 3 3 3 3 2 2 2 2 > 2 2 > * * * * * * > > > * * - > * * * * > > * * * * * * > * - * * * > > > > * * 2 2 2 3 3 > > 5 3 6 h Q q.N 9 3 5 9 g k Z R R R C R ..R X.X.f.                                                                                                                                                                                                                                                                                                                                                                                                                                                                                                                                                                                                                                                                                                                            1 * * * * * * * * * * * * * * * * < 2 * * * * o - 5 - - a ] t.8.] i 5 = 3 3 9 M U o , 2 > 2 2 9 U U h h k h M 8 h a k V C Z R [ Z C V V V l l C I l k Z C V l k C Z R V k k Z Z R R R { R O.d.5.[ O.R [ [ X.R *.V v Z R R =.f.R 5 9 p 9 8 j V V D j k Z R C j j V j k g 5 9 h p 9 - - > > > > > > > > > > - 2 2 2 2 > 2 2 - - 2 2 3 3 3 3 5 5 5 3 5 5 3 a j k M f a h C M p a k 8 5 p * 0 z                                                                       ",
"                                                                                                                                                                                          =.=.f.H.G.G.8.t.r.r.r.r.5.5.O.5.O.&.*.*.O.5.O.6.t.r.t.G.K.I.Q.K.m.m.4.X.R X.<.G. Xm.:.,.4.| ] R R C p k R Z Z M k a 6 p p k 5 9 a a p 9 3 3 3 2 > 2 3 > * - - * * * > * * * * > > > > * * * * * * * * * * * * * * * 2 * * * * - - * * * 2 2 > > 2 3 2 3 2 3 3 3 h M p 9 3 5 6 9 h C Z Z Z R D R R R [ 6.&.E                                                                                                                                                                                                                                                                                                                                                                                                                                                                                                                                                                                                                                               $.$.$.Q E ^ #.#.#.*.s._.T.T.I.T.Y.T.P.d.6.                                  , * * * * * * * * * * * * * * * * * , * * * * - + 7 - - 5 [ 5.6.O.Z ; - - 3 p h * 2 * * > > 6 C U 9 9 h M 9 p k j k k C R X.X.Z l C Z U V I C l k h l k k V V Z k C V Z Z R U X.R Z *.{ O.O.] [ X.[ [ R D X.X.C k j V I =.&.5 * > a p h k k V d k V V j a k V k j j a a h a 9 5 3 3 5 5 3 3 2 * - > > - - 2 2 3 3 2 3 3 2 2 5 5 3 3 5 5 9 p p 9 p a 5 a 5 p j k p h h k M a 9 h 9 3 p 0 0 w                                                                     ",
"                                                                                                                                                                                        $.R t.t.m.r.M.r.r.K.t.5.y.y.y.y.5.O.O.5.O.=.5.O.O.6.t.y.m.F.m.G.K.G.G.t.O.Z [ m.F.8.7.8.m.8.O.S R Z k k p M V j p a h p p h a 5 5 p p 5 9 3 2 3 3 > * 2 3 > * * * * > * * * * > 3 3 2 * * > > * * * > > * * * * * * * * * > > > > > > > * > 3 3 3 3 2 > 2 3 3 3 6 9 9 9 g 2 p 3 6 k V C R R Z Z D D D Z [ e.{ Q                                                                                                                                                                                                                                                                                                                                                                                                                                                                                                                                                                                                                                           E z N N g C k l k V T R { { X.e.e.d.H.I.L.G.G.t.H.L.H.H.I.I.H.H.d.6.&.6.        - * @ * > > * * * * * * * * * 2 * * O + + @ * > - - - - 5 C O.5.6.v 5 - - 7 5 * 3 * * 2 2 5 I k 9 p p l 5 9 9 g 5 l R R X.R V Z I I l Z Z C j j V I R C k k C k Z R R Z X.U X.R R [ R [ R [ [ O.X.*.O.Z Z [ [ c a R M h k 5 * 8 5 k C Z k j V Z Z k d a V R V j 9 9 h h 5 3 5 5 5 3 3 3 3 3 3 2 > 2 2 2 - - 5 3 2 3 5 5 5 3 5 5 5 5 5 p h k k p k V C V j a j C k k j k k a p a 8 5 9 4 0                                                                     ",
"                                                                                                                                                                                      #.O.6.F.r.8.8.m.m.m.M.r.5.5.t.t.y.5.5.*.*.*.*.5.*.5.6.5.5.5.8.8.y.t.y.r.5.O.] X.m.).<.8.Q.F.5.{ S R Z j a p k V a p a k k k k h 8 3 9 9 3 3 2 > 2 > * * 2 5 2 2 > * * * * 2 2 3 3 3 3 > * * - > * * * > > * * * * * * * * > > 2 2 > - - - > > 2 2 3 2 2 > 2 3 5 5 6 9 9 6 9 6 6 5 p p j V V Z T Z V V C R [ H.R X.E                                                                                                                                                                                                                                                                                                                                                                                                                                                                                                                                                                                                                                       z P h g h h 9 p k k V C c k c V V Z ] O.5.5.8.m.Q.Q.Q.Q.L.J.m.M.F.K.L.K.K.K.8.8.p 2 * > > * * 2 * * * * * * * * > * * * @ + @ * * * > > * > 8 k O.5.O.n d ; $ 5 - > - 2 2 3 p k g 5 5 9 C h l k V 5 j X.X.R Z R C C Z l Z Z R Z V V C I Z V C I R R R Z I I I R Z R R V [ R [ X.5.X.O.O.R [ X.X.C j 9 k h 9 - 5 8 8 k Z Z j a V Z V j k M V V a 5 9 p p 5 3 5 p a p 6 3 3 5 3 3 3 2 2 2 2 * - 2 5 3 2 2 2 2 3 5 5 5 5 5 5 9 p h j k M Z R R R X.M M Z C V a p a p > > p 9 4 q                                                                   ",
"                                                                                                                                                                                    #.X.X.t.5.m.m.m.m.r.8.8.t.6.<.r.y.t.5.6.5.5.*.O.*.5.y.6.5.O.&.6.6.y.t.t.y.5.] v X./.9X7.7.Q.F.<.X.R [ R k a a k M a 9 9 h M k h a 9 5 5 5 2 3 3 3 2 > > 2 3 2 > 2 2 * * 2 > 3 3 3 3 3 > > > > 2 2 > > 2 2 2 * * * > 2 2 > > 2 2 2 2 - > > > 2 2 2 2 2 2 2 2 2 3 5 5 3 3 3 3 k k > 3 p p a l v C Z Z Z V Z R ] 6.5.*.&.E                                                                                                                                                                                                                                                                                                                                                                                                                                                                                                                                                                                                                                   Q U 5 p h g l 6 k a f j j j p a f c V V S D R X.5.4.<.5.<.O.[ ] [ | O.,.4.7.K.).I.C k p 2 > > * * * * > * * * * > - - - - * * O * * * * * * * * - s G r.t.I.O.5 $ 3 > 2 3 > 3 k k N a p 9 k k C Z X.C k R Z Z R R Z M M k Z C Z Z k k C Z M j M R R R R Z R V I I I X.R Z X.R Z { X.Z X.O.X.X.[ R Z a j $.a > > 5 5 p C Z k a f V a p p M Z V M a 8 h k p 3 3 9 9 9 9 3 3 3 3 3 3 2 - - - - - - > - > 2 2 3 5 5 5 9 p a p p p j k V V k V R R X.X.R R O.X.R C f p a p 5 9 5 2 6 6                                                                 ",
"                                                                                                                                                                                U X.[ O.6.8.m.<.m.m.r.8.5.4.t.t.5.6.5.t.*.5.5.t.5.*.*.5.y.6.5.O.X.5.5.5.y.6.6.&.[ Z 6.).:X8.8.I.I.O.R R &.+.R k k k M h 9 8 9 a p 9 p p 9 5 3 > 3 3 3 2 > 2 3 3 * * 2 3 2 2 3 3 3 3 2 > * * > 2 * > > > * > 2 > * * * 2 2 2 2 > > 2 > 2 2 2 2 - 3 3 2 2 2 2 2 2 2 3 3 3 2 3 3 3 N M p 9 6 p p k v C Z I Z Z Z Z R O.d.[ { X.                                                                                                                                                                                                                                                                                                                                                                                                                                                                                                                                                                                                                                  N g 9 p k h h p p p p p a a a a f p f V C C D R O.[ ..[ H D [ [ ] D | 5.4.4.y.^.H.{ l g h 9 - O 3 * * > * * * * > - - - * * * * * * * * * * * * > 5 s ] X.F.5.c - 5 3 5 5 2 > M C U M k 9 k j k k X.E k Z V R { Z Z k k k I C V k k l Z R V h k R R R Z R X.C T Z Z R R Z X.T V Z X.R X.*.*.O.R Z V a U =.9 - 5 3 8 h V j a V c j p p a V M a h p h k h 9 5 9 9 5 5 5 5 5 3 3 3 3 2 - - - > > > 2 2 5 6 6 9 p p 9 p h k k k k V Z R R R Z Z Z R X.O.X.+.+.O...A f j a 5 3 5 5 5 2                                                                 ",
"                                                                                                                                                                              Q E &.*.t.t.t.G.m.4.5.4.5.4.O.t.t.5.5.5.t.O.6.5.t.e.y.y.5.5.5.O.X.[ O.O.*.6.e.5.O.Z X.^.^.8.<.5.5.[ R X.Z c d c R k k k M h 9 5 9 5 5 9 p 9 5 3 > 2 2 2 > > 2 2 > 3 3 5 6 3 3 3 3 2 > * * * * > > 2 2 2 2 > 2 2 2 2 2 > > 2 2 2 > > > 2 2 2 2 2 2 3 2 2 2 2 2 2 2 3 3 2 > 2 3 3 3 5 a R Z 5 5 5 k j v I R V k k Z V D X.P.O.X.E                                                                                                                                                                                                                                                                                                                                                                                                                                                                                                                                                                                                                               h k g k a p j a h 9 9 a h h p p a k k M Z R Z V k k X.[ R S S [ [ [ ..D [ H 5.t.8.X.d V l p 3 6 5 > * * * * * > > > > * * = * * * * * * * * * * * > * + - - d C =.R 2 5 3 9 p 5 R @.U N k 5 V M k h Z l a U X.[ R V C k k k Z V C C { T Z R R Z C Z R R v R R Z C C R Z R I R Z [ R X.Z R R R Z c c a 6 h h 3 > 3 9 h a a 5 a Z k i f k j j p 9 k a p 9 5 5 9 9 9 3 5 9 9 9 6 5 6 6 5 5 3 3 5 5 5 5 p p 9 5 3 5 5 5 3 3 5 5 9 9 a g p j k k V Z R &.5.+.5.5.t.t.<.O.R V p 5 8 5 2 3 1                                                               ",
"                                                                                                                                                                          C R E X.O.O.5.6.O.8.t.&.X.{ O.O.O.y.t.&.6.6.t.*.y.y.5.8.r.e.*.X.O.O.X.X.O.&.=.5.e.e.X.D *.{.XXm.G.r.5.X.R R M V k v Z k h k M M h p 9 5 5 5 9 8 3 3 > > * * > 2 3 3 2 3 3 6 6 3 3 3 2 > * * > 2 2 > * 2 2 2 2 > 2 2 > 3 2 2 2 2 2 2 > 2 2 2 2 2 2 2 - 2 2 2 2 2 2 2 2 3 3 2 > 2 3 3 3 3 5 R C 5 5 5 g g k M C V k k V V D R O.t.V { #.                                                                                                                                                                                                                                                                                                                                                                                                                                                                                                                                                                                                                            N 2 p p a 5 j j a h p h h h a a h h h j k V Z Z R R O.R Z Z Z S D [ ..o.O.[ | X.| X.a p a p 6 3 2 5 2 > * * * > * * * * * = = * * * * * * * * * * * > > - > > 5 I g > 5 3 p Z V &.*.C N M 3 k M M R R V j v R R T Z M k M k k k T [ X.R Z Z Z C C Z Z Z k Z T R C Z R V R U R T { R [ R R Z R Z V V 5 3 p 9 3 > 2 9 k p p a a a p a V k a i 8 a M h 8 5 3 5 5 3 3 3 9 9 9 9 5 3 6 9 9 6 5 5 5 5 5 5 3 5 5 5 5 5 5 3 9 9 9 p p p g j l V V V Z Z D R ....O.O.<.y.5.y.5.X.C 5 - 3 > 3 4                                                               ",
"                                                                                                                                                                        U Z R X.+.<.5.O.5.O.t.f.6.X.X.X.&.*.6.t.*.5.y.y.5.y.t.5.5.5.5.<.O.X.O.O.X.X.O.*.*.e.e.R Z O.K.m.F.m.5.5.R R R M V k c R k a a k k k a 9 5 3 5 5 3 3 3 2 > * > 3 5 3 3 3 3 2 3 5 3 2 2 > * > > > 2 2 2 2 - 2 2 2 2 2 2 > 5 3 3 3 2 2 2 2 2 2 2 2 3 3 2 - 2 2 2 > > 2 2 2 2 3 2 > 2 3 3 3 p 5 j j g 6 5 p g g g l C I C V i R S *.d.{ R {                                                                                                                                                                                                                                                                                                                                                                                                                                                                                                                                                                                                                           N 2 h h p k p j a p a j a a a j k k a k k k k k V Z R R V k V c c V Z *.+.[ [ | O.O.] k l k 6 5 6 5 2 3 3 2 > * * * * * * * = = * * * * & * * * > * + * * * * * - 6 5 2 5 9 j D Z e.@.Z N C 5 k k k R R I Z p c C R Z l k k g j j T [ R T Z l k k N C v c k V T R C Z V k Z I T V C c V S Z Z Z Z f p a k M k - - p p p 9 k k a 3 5 V Z k p p 9 a a 5 8 8 9 9 3 3 2 3 9 5 3 3 3 3 6 9 p 9 6 5 3 2 3 5 3 5 p h h p 6 5 5 5 5 5 5 5 6 p 5 p p a V V V Z [ [ O.o.O.5.5.y.+.+.X.p - 5 5 3 O 4                                                             ",
"                                                                                                                                                                      U R R R +.O.O.5.t.*.*.*.&.*.R X.&.6.e.=.6.e.&.5.t.6.5.t.e.*.O.O.*.O.X.O.*.*.O.*.5.*.e.d.R V F.I.| K.8.4.[ R [ E M C c c Z k h a a h h p 9 3 3 3 3 3 3 3 2 > * 2 5 5 3 3 5 3 3 3 5 2 > > * > > > * * * 3 6 9 9 9 9 9 9 9 9 6 6 5 3 2 2 2 2 2 2 2 2 3 3 3 2 2 2 2 2 2 2 2 2 > 2 2 > > 2 3 3 8 8 p k Z 5 3 p p p k M C C I R E V R R +.6.C U                                                                                                                                                                                                                                                                                                                                                                                                                                                                                                                                                                                                                           g k h k p a a j j k p a j j p p g j j p j k v C C C C C Z Z V c V Z Z R X.D ..] ..5.Z [ Z k g p 6 6 9 5 5 3 2 * * * * * * * = & * & * & & * * * > - + * - * & & * O 9 3 9 j k c S f.X.C k k 9 U C 9 p 5 a R j Z Z Z v k h g p k M U R Z Z l k k M N k V k Z v R R v l V C Z C R C C Z R R R Z Z Z p 5 R s.k 3 > 9 k C p p k V j 8 8 k a p 8 a a a a 5 5 9 9 5 3 3 3 3 3 3 > 2 3 6 9 p p p p 5 3 2 5 5 p p g k h 6 3 2 5 5 5 3 3 3 5 5 6 p p p a a a j Z D [ [ ..+.+.<.5.O.O.Z d 6 - 3 3 , 4                                                           ",
"                                                                                                                                                                    C R X.X.*...O.5.5.5.5.5.&.X.&.O.O.*.5.5.5.=.5.*.e.e.*.=.e.e.e.=.&.&.&.O.O.&.5.O.5.y.5.d.d.C 5.P.I.O.O.t.O.R [ X.X.R R Z R X.M a 9 p k a 9 p 6 3 5 2 2 3 , 2 2 * 3 3 > > 3 3 3 3 2 2 - - > > > 2 2 * 3 N R Q @.X.X.$.=.$.E I Y Y N N N h h h h p p 5 3 3 7 3 3 2 3 3 2 3 3 2 2 2 2 2 2 3 3 3 3 3 9 h C 9 3 9 5 9 h M V C I R R Z V D +.t.k Z                                                                                                                                                                                                                                                                                                                                                                                                                                                                                                                                                                                                                           a a j h p h k h p p a j g j k k k j p p p j c V C C Z V Z R C k R { C R T T R { X.[ R V &.a k a p p 5 3 5 3 3 2 * * > * * O * * * * * * * * * * * * * * * * * * * 2 3 p R [ R c O.+.V U k p a M k a p t p a d V k Z V a h M N M M C C M N C M h h k h k j j k v c v V V Z R Z Z R R R O.R Z Z V Z 5 g f.U 5 * 3 a C M 5 k p p 8 8 Z M 5 5 5 9 p 9 5 5 9 9 3 > > 3 3 3 * 2 3 6 9 9 9 p 9 9 p p p 9 9 9 6 5 5 5 5 5 6 6 p 9 5 5 5 5 5 5 9 5 5 9 9 9 p p h k k C R ..O.*.O.O.O...Z a 5 3 > 3 2                                                           ",
"                                                                                                                                                                  Z @.R ..X.O.O.O.O.5.*.*.O.O.O.X.O.O.*.e.e.e.e.*.X.&.=.&.=.e.=.=.$.&.*.*.*.5.5.O.6.6.5.G.t.&.V O.I.Y.O.[ *.O.X...[ R R X.X.R R k k h h h p 5 6 9 3 6 2 2 3 , * 2 2 3 3 * * 5 9 3 2 2 2 > > - > 2 + * 9 U =.=.=.e.f.e.f.q.$.=.q.#.$.@.$.q.q.q.=.#.@.X.X.X.X.U k 6 2 2 3 3 3 3 2 2 2 2 3 3 3 3 3 3 3 9 9 l h p 5 9 p h M Z Z Z Z T R R [ O.+.[ Z Q                                                                                                                                                                                                                                                                                                                                                                                                                                                                                                                                                                                                                         a p h g a g h h p a j a g j j g h h k j k l l v V C Z V v v c k Z R R R C V T R { [ R M C 5 5 p p j 5 2 5 3 * 2 3 3 * > > * * * * * * * * * * * * * * * * * 2 9 9 5 9 a R Z d ] t...C C C a 9 C R k a d j v d I Z k M M M k M k g k N k k N M k k k h a k V v k c Z R R [ [ R R R R R [ E k V Z j p a @.k 3 * 9 p p 9 h k 8 8 9 a V h 5 5 5 3 3 3 5 5 6 5 3 3 3 3 3 3 2 3 6 6 5 3 3 3 3 5 5 5 6 6 5 5 5 5 3 5 5 5 5 5 5 5 3 3 3 3 3 3 3 > - 3 5 5 5 9 a p a h k Z R X.O.X.[ [ R Z j 8 - > 2 &                                                         ",
"                                                                                                                                                              #.=.E X.O.*.*.X.O.5.4.4.5.5.X.X.O.{ O.&.*.e.e.5.&.&.X.X.&.&.=.e.&.=.&.#.&.&.O.O.5.5.5.y.t.H.6.*.Z 5.P.e.X.[ R Z [ X.R V c V k p p j k k j h 9 5 5 5 3 3 2 2 3 2 2 3 2 > > > 3 6 5 2 > - - > > > - 2 3 g k U X.X.&.=.f.e.e.=.=.=.$.q.q.$.q.s.s.s.q.@.=.q.e.e.s.s.q.e.q.Q h 2 > 3 > > * > 2 2 3 3 3 3 6 9 3 p M M 5 9 9 p a k Z R R R T R [ O...t.R                                                                                                                                                                                                                                                                                                                                                                                                                                                                                                                                                                                                                         P g a a p 9 9 9 p p a a a a a a p a h k k M V l k c V V C k k k c V R R Z V k V R R R T j V ..j 5 5 V V k 5 6 p 9 2 2 3 > > > * * * * * * * * * - - - - * > * 3 9 5 5 k V c R O.t.H.Z j a M p 8 C U k R Z k I p k C I R C M k M k 9 p k g 9 p g h h k h [ X.X.R R R { { R [ Z [ [ Z R R R R V j V j p a k 5 > 3 k 9 3 p h a k M k h p 5 h g p 5 5 5 9 9 3 3 3 6 5 2 2 3 > 3 5 3 2 2 2 2 3 2 2 2 2 2 2 > 2 > > > 2 > - > > > > - * > > 2 2 > * 2 2 > > 2 > > > 3 3 5 a f k Z X.X...R C C p * * 2                                                         ",
"                                                                                                                                                          $.=.$.X.X.[ *.5.5.O.5.5.<.<.5.5.O.X...X.*.5.5.=.=.&.X.&.X.X.&.&.=.5.&.e.=.&.O.O.O.O.&.t.5.y.t.5.X.X.v *.I.6.X.[ S R &.O.[ C c c k j j p h h p p 9 6 5 2 2 2 2 , 2 3 6 3 > * > 3 6 5 2 2 - - - - > 2 2 3 6 p p V X.R Z X.e.P.=.=.h.P.s.s.e.&.q.g.s.e.q.X.=.q.=.$.q.e.s.$.q.q.Q 9 > 2 3 * * > 2 > > 2 5 3 5 5 2 3 h k 5 5 5 5 p j k R X.R R Z D ....t.X.                                                                                                                                                                                                                                                                                                                                                                                                                                                                                                                                                                                                                        9 g a p 9 9 9 9 p 9 p a a p p a g h h h k M V k v V V k V k k v V V C C V k c C R R R T c k &.k p k Z a p p h k 3 3 3 2 3 2 2 > * * * * * * * * * - - - 5 9 5 5 g p g R ] Z *.F.H.e.V k a a p 9 C U k R k a X.R Z Z E C N k h k k g g h g 9 9 p a h k k R Z V V Z R R Z R R V R [ V R D Z C V j k k R j 9 > > 9 k 5 p C C p k M a 5 3 p p p 5 3 3 5 6 5 2 2 3 5 3 2 > 3 * 2 2 * * 3 3 3 3 2 - - - > - - - * @ @ @ @ @ * * * * * * * * * 2 > * * * * * * * * * * > - - ; 5 p k Z R E R Z C > 3 2 O                                                       ",
"                                                                                                                                                        E X.{ 5.O.5.O.5.O.4.O.5.<.<.<.<.5.5.5.O.O.5.e.e.=.*.&.&.&.&.&.&.&.&.*.*.e.6.=.*.&.&.5.6.6.6.6.t.O.{ [ R O./.e.R R X.O.X.R V k c C Z k a 9 a p 8 9 9 6 5 3 3 3 3 2 2 3 3 * 2 3 2 3 3 3 2 2 2 > > > 2 3 5 2 6 j a j T R R Z &.e.X.&.d.}.T.P.f.e.g.P.s.e.e.$.q.q.=.$.%.q.$.w.w.s.p.Y 9 2 3 3 3 5 5 3 > 2 3 3 3 5 5 3 p h a p 5 5 h k h M R R R [ R D D +.e.@.                                                                                                                                                                                                                                                                                                                                                                                                                                                                                                                                                                                                                      g g 9 a 9 9 p g p 9 p p p p a h h h h h M M k k v Z V c k k k k l V V k k k k V Z I R [ D k R f a X.Z 5 p p 9 h * 3 3 3 9 3 3 2 2 * * * * * > > > - 2 5 9 h 9 p U R Z [ b 8.m.t.H.O.c k k h h 8 C @.C p k k R R R Z Q C h h h g g g p 9 g a k N k k k k I V k V Z Z Z Z T R V R R V Z V k R g V l a g.k 3 * 3 9 a p M V k 9 h h 9 5 3 a 5 5 3 > 3 5 5 2 2 3 3 2 > > 2 2 2 2 > * * 3 3 > * * * * > > * * * O O O O O * * O O O O O O O O * O O * * * * * * * * * * - - - - - 3 5 g M Z U C p 3 + , <                                                     ",
"                                                                                                                                                    e.d.X.*.&.[ [ *.X.<.4.7.4.4.7.7.5.<.5.r.8.5.&.5.5.5.&.O.&.&.X.#.&.#.O.O.&.*.5.5.5.5.5.&.&.5.5.6.6.d.X.O.X.[ 5.I.X.Z [ 5.O.Z [ Z Z Z Z C M j a k p 5 9 p 6 5 2 2 * 3 6 3 2 @ 2 3 2 > 3 3 3 2 * > > > > 2 5 5 h 6 6 p j C R X.X.e.*.&.6.e.}.H.P.H.f.H.P.s.e.e.=.q.e.q.=.$.q.q.w.w.w.$.@.R k 3 2 2 5 5 5 2 > 3 3 3 5 9 9 p k U j 5 3 p j k M Z R R R R D ..X.e.=.                                                                                                                                                                                                                                                                                                                                                                                                                                                                                                                                                                                                                      N h a p 9 9 g p p p p p p a j h p p h M M k j j k V v v g k k j k Z C k k k k k k k Z R R Z R k p R V a R l g N 6 5 3 9 6 3 3 3 5 3 2 2 3 5 5 2 - - 3 5 5 9 9 p V R D [ | m.K.G.f.[ V h h 9 k p V X.l p r k g j U Z M k g h h p a h h p g h M N k k k h Z j a k C l k k V Z V R R Z R C Z I k l j j e.p - > 5 6 p k V 5 5 8 k p 5 p p p 5 3 3 3 5 5 5 2 3 3 3 > * 2 2 2 > > > * > 2 > O + @ * 2 > * O + + + + O * O + + o o o O O O O O O O O O O * * * * * = = + + * - @ - - > - 3 p k C a 9 9 * ,                                                     ",
"                                                                                                                                                E Q &.t.O.] [ 4.O.y.O.O.<.5.8.8.8.8.8.8.8.8.6.5.6.*.*.*.&.X.X.$.$.&.$.$.*.*.&.*.5.5.6.5.5.&.4.4.5.6.&.5.[ X.{ k e.H.O.O.O.*.X.O.R C Z V j j M V h k a 9 9 9 6 5 > 2 * 3 6 3 2 * 3 3 > * 2 3 2 > * * - > 2 3 5 5 5 3 p p 5 p Z e.t.f.t.e.6.H.H.&.=.f.f.t.f.g.h.g.e.e.s.q.$.#.=.q.w.q.q.w.=.q.X.p p 5 - 2 3 - > 2 2 5 5 p p h k U M h 9 9 p h M U R T Z D R X.X.=.q.                                                                                                                                                                                                                                                                                                                                                                                                                                                                                                                                                                                                                      k p k 9 p 9 9 9 p p a p p p h a p p h k k k j k k k k k j V k k V Z V V k j j k j k V Z R Z c c k c a p R R U h g h h 9 5 3 3 9 9 5 5 5 9 5 2 - ; 5 p a p h j k V V D | G.8.K.t.X.Z Z M a p k p M R k C k a 5 p p k k M h h h h k k k h p g k h a h h p k p p k Z Z V l k V Z Z Z R R C E k V a p j C 5 > > 9 9 h k g 3 5 p a 5 3 p h h 5 2 2 3 3 2 > > 3 3 2 > > > > > O * * > > * * O * * > * * + o o O O O O O O O o O o O o O O O O O O O O O O O O * * & + + @ * > - @ + @ > 2 > * 5 h h 5 3 * 0                                                   ",
"                                                                                                                                            =.s.&.C Z X.I.{ | ] [ 5.4.6.5.4.5.5.<.4.7.r.8.4.O.*.t.5.*.5.e.=.*.=.=.=.$.$.6.6.&.&.6.6.6.6.5.6.8.y.{ t.[ C 5.6.R C 5.y.[ O.*.f.*.O.X.Z V V a a j a 9 p p 9 9 5 3 3 3 6 3 5 3 * 3 3 * 6 3 * * * * 2 - > > 3 5 6 6 5 6 5 9 9 9 a a c H.P.{.f.O.+Xd.*.X.f.t.&.&.e.f.f.f.e.q.e.s.e.e.e.q.$.$.=.*.&.*.5.Z d 5 7 3 3 3 2 2 9 5 5 5 p 9 h C C V a 5 9 a k T R [ ] S D [ X.=.                                                                                                                                                                                                                                                                                                                                                                                                                                                                                                                                                                                                                    z g 9 p 9 h 9 6 5 9 a a a p p p p h j h a h h k C V j g k j V l k C V k k g g k k V V Z R V R V R R f p j p p k p k 6 h h 5 5 9 9 9 5 5 9 a 9 5 5 d V R { U R R O.O.[ ] | <.7.K.O.[ R j h M U C 3 k X.Z U R p Z E p M k p h h k N M k p p 9 g N M k k h 9 h k C C k k k l V R R Z C R Z V Z a p 5 p 9 p 3 > > 5 p N 5 3 p p 5 3 9 p a 9 > 6 5 5 6 5 > > 3 3 > * 2 2 * * > O * * > * + O O * * * * O O O * * + O + + O O + O O O O O O O O O O O o o O O O o O O O + + + + + + @ + o o O + > o 2 5 2 9 O                                                   ",
"                                                                                                                                        { t.P.Y.f...k [ f.R X.X.X.O.6.5.5.5.O.O.<.5.5.5.5.O.O.*.&.O.*.*.*.e.5.e.e.&.=.&.&.e.=.5.6.4.8.8.8.y.t.I.y.6.O.&.f.R R C *.X.5.y.t.y.*.*.R Z C C k p p k p 5 5 p p 3 > 3 9 6 2 * > 3 5 3 2 2 2 > * > 2 2 2 3 5 5 5 5 5 5 3 5 9 9 a 9 j j f./.Y.P.X.=.e.5.X.=.e.q.=.s.h.f.d.H.d.e.f.d.e.f.O.O.R [ [ S D S { Z p 3 5 3 > 3 3 5 5 5 5 5 5 5 h M R 9 5 9 9 h C R R R ..V X.#.^                                                                                                                                                                                                                                                                                                                                                                                                                                                                                                                                                                                                                     z p 9 p p 9 9 9 6 5 9 p a p p p 9 p h h a Z k k V j j k j V V l k M V l k g C j k j k k k V Z R Z R R p 5 5 g k p h p h k p 9 j p 9 p 3 g V p 5 j c d a v k R &.X.X.] b [ m.v.8.| C R k k M C M p C R C p a a V R a h k g k p g k k h j M k h M M k h 9 9 l k k l k k M C M Y R U R I V V C j p 5 k Q h * > > 3 g g 9 5 p 3 > 9 p 9 9 3 5 5 6 5 2 * * > 2 * > > > * * * * O * * * * * * * 2 * O O O O O O + O O O O O + O o o o o O O O O O O o o o O O O o O O O O O O O o O O O O O O O + * * > * * 2 4                                                 ",
"                                                                                                                                      X.e./.G.t.H.*.c Z e.[ X.X.X.X.5.5.O.O.X.O.5.6.5.5.5.O.X.X.O.O.5.*.*.=.*.5.e.&.=.O.&.e.e.t.5.6.y.y.t.F.t.t.6.5.[ Z X.C v O.R O.y.6.5.5.*.5.X.[ R Z M j j k 9 5 5 p p 5 3 3 9 3 * > 3 9 6 2 2 > > * * * > 2 2 3 5 6 6 5 5 3 8 3 9 3 9 9 a a &.Y.|.f.X.*.f.f.e.e.e.q.q.e.f.f.d.H.d.5.5.O.[ [ Z [ [ O.5.8.t.y.G.5.v 5 5 9 5 5 3 5 5 5 5 6 9 9 9 h C 9 9 p 9 p j T R c [ [ X.Y                                                                                                                                                                                                                                                                                                                                                                                                                                                                                                                                                                                                                       w p 9 p p 9 9 9 6 9 9 9 9 p p p p p h h h l j k k g g k j V k k k k k l M j l a k k j j j V R R [ X.X.R V p p 5 3 p j V C p k R k p p p R R j r t d k R X.O.X.X.R Z S S O.Q.G.8.X.S R k k Z Z M 8 C R l a a k v Z h h k C g p h k a p h h h p h 9 9 p 9 9 g p g k k k k k p M R U R Z k l M 9 9 p @.U 3 > * 5 p p 5 3 5 9 5 3 9 9 3 3 3 5 2 3 3 > * * * * O * * * * O * * > * * O O * * > * O O O + O O + + + O O O O O O o o O O O O o o O O O O O O O O o o o O O O O O o O O O O O O O o + * * * * 2 2                                                 ",
"                                                                                                                                    X.H.L.m.I.K.r.5.D k X.+.X.R [ [ *.*.O.X.[ O.t.t.r.6.e.6.*.*.&.&.6.5.5.*.&.6.e.*.6.&.O.e.6.e.G.F.8.8.8.6.5.O.d [ 6.R [ [ V Z O.t.H.5.[ [ R [ R R Z V V Z C M 5 5 6 9 9 5 3 3 3 2 > 2 5 9 3 * * * * * * * > 2 3 3 5 6 6 5 5 3 3 3 9 9 a a a a D e.P.t.f.e.f.*.&.=.q.e.e.e.=.&.{ { R S S [ *.6.t.K.K.I.Q././.I.P.Y.P.*.D j 5 > 3 3 3 5 5 6 9 p 3 5 j 9 9 9 8 p k Z R R R V R $.                                                                                                                                                                                                                                                                                                                                                                                                                                                                                                                                                                                                                      h 9 9 p p 9 9 9 9 9 9 9 8 p 9 p p p p h k k j k k h k M k k j j k j j j k V l a V l j p g C D C R ..R O.[ Z V j p 3 p d j p a k j k k p k p p k C Z X.5.e.e.*.] D Z V ] 4.F.<.| ] V V h M U Z V 5 Z E V R V k 6 a k C M U M C C M k k k p p h p 3 3 9 9 9 p 9 p h h l l h M M k h h h k C k 9 9 p $.k + > > 9 h 9 3 5 9 p 5 5 p 9 2 2 2 5 2 2 > * > > * * * * * * * * * * 2 * O O O * * * O O O O O O O O O O O O O O o o o o o O O o o o o o o O O O o o o o o O O o o o O O O o o O O O O O O * * * * 2 4                                               ",
"                                                                                                                                  X.L.L.m.m.R.M.7.5.O.V X.e.E ..O.X.*.*.X.[ [ O.y.y.6.6.e.5.*.*.*.&.6.6.5.&.&.5.e.5.e.*.O.5.5.5.t.G.t.t.t.t.t.6.X.S G.[ V k R X.t.t.y.X.X.X.R R R R Z k k V k 9 p 9 6 5 5 5 3 3 > 2 3 3 3 2 > * * * > > > > 2 3 3 3 5 5 5 5 5 5 9 5 3 3 5 p a f V O.f.t.G.&.6.t.e.e.=.X.X.R V V { X.4.5.y.I./.^.^././.I.K.F.t.e.t.6.t.I.Y.e.V a 5 3 3 5 5 6 9 p 5 5 h p 5 9 8 9 5 k V Z R R U E                                                                                                                                                                                                                                                                                                                                                                                                                                                                                                                                                                                                                       g 9 9 9 9 9 9 9 9 p p p 9 9 9 9 9 p p h M j j k k h M V k g g j V V j j j C V j V V k a g V k j V Z Z X.....[ R R V V V V p p t 5 5 r p T X.5.P.P.e.*.*.O.O.O.R R D Z O.5.<.G S D S V k U C C C 5 C R V &.Z g 5 g M U M M U U U U C Z M a p h p 5 3 5 5 9 h h g g g l N l C M h h k k k M p p p 3 M h * > 9 g p 5 5 g g 9 5 3 9 5 2 3 2 2 > 2 > * * > * * * * * * * * * * * O O O * * O O O O O O O o o O O O O O o o o o o o o o o o o o o o o O O O o o O O O O O O o o O O o o o o O O + + O * * * * 2 , ,                                             ",
"                                                                                                                                  Y.Q.I.Q.K.x.(.M.7.O.S R X.Z *.6.*.5.O.O.X.X.5.e.y.y.y.y.6.*.5.4.4.5.5.O.&.&.5.5.5.t.6.*.5.5.5.<.F.G.m.y.8.t.&.R [ P.T c R O.{ I.8.O.] O.*.O.X...X.R k k M a 3 p p 9 5 3 5 3 3 3 3 5 3 > * * 2 * * > > > 2 3 3 3 3 5 5 5 5 5 5 5 9 9 9 p p i i d R 5.F.F.O.[ [ T X.X.[ O.5.e.t.P.I.Y.^.I.I.I.t.<.O.O.X.[ [ ] [ R [ [ [ y.^.H.[ 5 3 3 5 5 5 5 9 p p g h 9 p 9 8 h M V V V C U Y                                                                                                                                                                                                                                                                                                                                                                                                                                                                                                                                                                                                                       q 9 9 p 9 9 5 5 9 9 9 9 9 9 9 9 9 p p h k j h g g h k M h h h k M M k j k k k h k k M h k k p j k V R R R O.[ R O.X.&.X.R X.{ R C c v [ f.H.P.Y.P.X.Z { &.] [ S D ] X.e.6.X.S v S S k k R Z C C 8 C Z d R j a k R k j h h M k V C l k h p p p p a 9 5 9 g 6 9 g h h N U U l l k k M M M M 9 3 5 3 3 5 * 2 g p 9 3 5 9 9 3 5 3 5 3 2 3 2 * > > > * * * * * , * O @ * * @ O O O O O * O O o O O O O O o + O O O + o o o o o O o o o o o o o o o o o o o o o + + O O O o o o O O O O O O O O O o O O * * * * 3 ,                                             ",
"                                                                                                                                  I.I.m.Q.K.Q.x.n.r.5.Z V &.[ &.5.O.5.O.O.5.5.y.5.6.y.t.t.e.6.t.5.6.y.5.5.6.6.e.*.*.6.t.6.6.6.8.8.m.m.F.5.[ [ X.X.{ [ v V R R t.#Xt.O.X.6.*.*.X.R R R C C C k p 9 9 6 5 3 3 3 2 6 3 3 2 2 2 > 2 * * > > > > 2 3 3 3 5 5 5 5 5 5 3 5 8 p p p i i v H [ 8.G.I.I.I.Y./.Y.G.d.t.y.5.5.X.| [ D S S c S v V V V V V R Z V S ] ] | 8.G.k p 2 3 5 3 3 5 9 5 8 g p k h 8 9 9 a C C M Q Q                                                                                                                                                                                                                                                                                                                                                                                                                                                                                                                                                                                                                       q 9 9 p 9 9 8 6 9 9 9 8 9 9 9 9 9 p p a h j g p p h k k h k h h j k h j M k M k h h M h j j p k k V Z V Z [ R Z R R [ [ [ V k k T O.t.H.Y.f.[ k c T [ R S b S A [ *.f.H.5.] S v c V k Z R R Z V p Z Z p j a p M R p p k k k k V C g 6 p h M k j M g 9 h h k N U I k g g 9 k l h 9 9 g N U C 9 M U p 5 3 p 9 8 5 3 3 3 3 3 9 3 3 3 2 3 > * - > > * O * * * * @ O O @ @ O o O O O O O O O O O O O O + o + O O O o o o o o o O o o o o o o o o o o o o o o o o o o o o o o o o O O O O O O o o o O O O + O * * * *                                           ",
"                                                                                                                                  ^.).K.K.K.R.n.2.m.m...V e.*.O.X.O.5.5.5.y.r.F.O.5.5.8.y.8.6.t.8.t.F.8.5.6.6.y.5.5.5.y.6.5.8.t.K.8.y.t.8.X.{ 6.e.d.S c T X.R *.&Xy.O.X.6.*.5.X.R R R Z C k h p 6 6 5 5 3 3 3 3 9 3 * * 2 2 2 * * * * * * > 2 3 3 3 5 5 5 5 5 5 5 3 - 5 r c D o.m.U.Q.(.Q.Q.Q.L.L.m.8.O.[ [ | [ V v v V v c V v V v C V V V k k k k V G A G } <.O.v 5 2 3 3 3 5 5 3 2 9 9 k M a 9 g h k C Z Z                                                                                                                                                                                                                                                                                                                                                                                                                                                                                                                                                                                                                         9 9 9 p 9 9 5 5 9 9 9 9 9 9 9 p 9 p h j a j j h h k h h k k j a p h h h k M M k h h V a a a k k k k k k V V V Z Z ] D ] X.R Z D ] O.t.H.y.X.D V S Z V V S v b [ *.e.f.t.*.T S V c S T X.X.R Z M a Z Z k c h a p k 9 k l M k k V V a p h M U M k V h p k p g g l N N k k k h l k g g h h h k 9 U C 5 * * 3 > 3 5 8 3 3 3 9 9 3 6 5 2 > * - * * * * * * * * * @ O O O O O O O O O o o o O O O + o O O o o O o o o o o o o o o o o o o o o o o o o o o o o o o o o o o o o o O O O O O O o o O O O O O O O * > * , <                                         ",
"                                                                                                                                T.Q.Q.Q.K.n.V.V.7.<.<.O.V &.{ O.X.4.y.8.8.y.r.m.6.6.6.8.r.8.6.t.5.t.F.5.O.&.&.&.e.5.*.y.5.O.5.6.t.m.F.6.6.d.6.&.Y.t.V R 5.&.5.t.&X5.[ ] 5.O.*.R R Z C V k a p p p 9 5 5 5 5 5 6 6 3 * * > > * * 2 * * * * > 3 3 3 3 3 3 5 5 5 3 5 t p S ..t.G.I./.K.m.K.m.7.5.O.<.] G G S S D S Z V V V k j k V k k Z M M Z k a j a V R S b A b H.[ t 2 5 5 5 5 9 9 6 9 > p N h 9 p p k N N Y                                                                                                                                                                                                                                                                                                                                                                                                                                                                                                                                                                                                                         q 9 9 p 9 9 3 3 6 p p 9 9 3 9 9 9 p k k a j j h j k a h M k k j h k k h p k h p p h C p a p M a a a p k Z c c V Z X.R V V V Z [ O.y.I.H.D V c k c R R Z Z S A <.5.*.5.*.O.T T S k C R X.R Z Z M a M V Z U a g 9 p g k g k j a a a a j C U C h h k a g M 5 h 9 9 g g g k k M C M k N U M g 5 g X.p > * 3 2 > 3 5 8 5 3 3 8 3 3 9 9 3 * O 2 2 * * * * , * * O O O O O O O O O O O O O O O O + o o O O o o O o o o o o o o o o o o o o o o o o o o o o o o o o o o o o o O o O O O o o O o o O O O O o o O * * * * O <                                       ",
"                                                                                                                              I.Q.K.M.K.K.m.x.K.r.8.o.X.V [ [ [ O.*.t.H.t.6.5.5.6.8.4.y.t.5.5.5.8.8.G.y.*.5.&.t.e.*.X.O.&.&.5.t.r.K.G.I.*.*.O.R &.X.V [ O.e.y.F.#X5.{ R [ R [ R Z V V Z l a p a 6 6 5 3 3 6 9 6 2 2 > * * * * * * * * > 2 2 3 3 5 2 > p - 5 p 5 t s 8.I.^.^.y.t.y.5.[ ] X.X.] D R V Z R C Z T C k C C V C k k l k k j h C R R C M h g k k j k C f.t.p t 5 3 - 6 6 9 9 9 6 9 p h p p p M M U Y                                                                                                                                                                                                                                                                                                                                                                                                                                                                                                                                                                                                                         g p p 9 3 5 p 5 9 6 3 9 9 5 p p 9 h k 9 9 j V j a j g j k k Z k k h V j h a j k k h a p p h h p 9 p k C C j Z R Z R R C Z S ] [ X.e.H.*.k V c C V R l V c v [ | 4.y.O.S Z V S Z v v R { Z Z C h h V C V R 9 9 3 p k a h C M j p j C Z Z V j a k k p M j 9 9 9 g h h g h l M I C N k C l h 9 2 U 9 O * 5 2 * 3 6 3 3 6 6 3 > > 5 5 > > 2 * 2 * O * * * * O * O O O O O O O o O O O O O o o o o o o o o o o o o o o o o o o o o o o o o o o o o o o o o o o o o o o o o o o o o o o o o o o o O O O o O O * 2 o * 2 O ,                                     ",
"                                                                                                                            I.K.!.R.V.M.K.~.K.8.G.t.X.[ V *.*.X.*.*.e.t.y.6.5.5.4.8.5.5.8.6.6.4.5.5.t.6.*.5.=.f.e.=.O.O.*.O.&.t.t.t.t.6.X.5.*.R R R Z O.5.6.6.5.H.] R [ R V T X.Z Z C V j a p p 5 5 5 3 5 6 6 5 > > * * * * * * > * > 2 2 2 2 2 3 3 5 3 5 ; p r n O.Q.I.6.X.] X.V S v V Z Z Z R T Z R R C C Z C k Z C k k j j k h p h k V U U Z M h p h h h h k X.t.Z 5 7 5 6 5 6 6 6 9 9 9 g h p p p a C Y                                                                                                                                                                                                                                                                                                                                                                                                                                                                                                                                                                                                                           g 9 9 9 3 5 8 5 9 6 3 6 0 3 6 9 6 p g 9 p k k p a V k k k k M h k h M k M h k k k h a h h h h a p p p h M Z Z Z I C V C Z S S [ 6.t.&.Z V Z R X.R U l M v v { O.&.5.[ v c j k c v v Z Z C k Z p a R M p k 9 k C h j j U R R C j k k j j a p 5 a j p p p p 6 9 9 p g g p 9 h k k g p k g 9 5 5 N 3 * * 2 > > 3 3 3 3 9 6 3 > 3 5 3 > > 2 * * * * * * * O o * O O O O o o O o o O O O o o o o o o o o o o o o o o o o o o o o o o o o o o o o o o o o o o o o o o o o o o o o o o o o o o o O O O O O O O O * o O * * 2 2                                   ",
"                                                                                                                          Y.{.Q.K.!.(.m.<.M.K.7.8.y.4.] d [ O.R X.X.O.5.5.5.5.<.5.8.5.5.8.5.5.4.5.5.5.6.5.6.e.d.e.6.O.X.&.O.&.t.r.6.5.5.*.e.f.X.R R R O.*.6.6.O.t.&.X.S v V Z R C I C k g a a p 5 5 5 5 5 5 3 2 * * * * * * * * > > > 2 2 2 2 2 5 5 p 5 ; V c S y.t.t.5.[ R D c V Z R Z D Z Z R T R R T Z C Z Z V R Z k j k k V j h h k M M M V k h h h h h h a k &.O.p 7 3 5 2 3 3 3 5 6 9 9 p C i a k N Y                                                                                                                                                                                                                                                                                                                                                                                                                                                                                                                                                                                                                           w 9 9 9 5 8 5 5 5 6 6 4 0 5 5 6 5 6 p 9 h k k p g k g j k k h p h a k k M k k k h p p a h h h h h a p h C Z k V l a g k j k ] &.6.&.Z k C R E X.R Z k V C [ 5.5.O.O.O.[ { c k k Z R R Z Z V U p p R p 5 3 p M R h k k R M k j p p p 9 p 9 h p j h a 9 5 p 3 9 9 9 g h g 9 5 6 9 5 6 6 6 3 3 h g 2 * * > 2 3 2 > 2 3 6 3 2 3 5 3 > > 2 > * * * > * * O O O O O O O O O O O o o o o o o o o o o o o o o o o o o o o o o o o o o o o o o o o o o o o o o o o o o o o o o o o o o o o o o o o O O O O O O O O O O o o * , * 2                                 ",
"                                                                                                                      +XY.I.L.K.Q.M.m.K.M.<.,.8.O.5.8.5.Z X.5.e.] [ O.5.5.r.t.8.r.r.8.r.t.5.5.y.4.O.{ O.&.O.&.&.&.=.5.5.e.5.&.5.5.8.5.6.[ v *.O.R R R O.O.5.y.X.O.&.[ d j Z Z C V C M k a a a a 5 5 5 5 3 5 3 > > > * * * * * * * > 2 2 2 2 2 3 3 5 p p Z ^.y.I.H.5.| ] D V Z R c V V Z [ [ ] R Z R R T R T Z Z C T C V j k k Z M k k k k k j k j j h h j k j h a R 6.X.p 3 3 3 3 3 3 3 5 6 9 6 8 i 9 k U Q                                                                                                                                                                                                                                                                                                                                                                                                                                                                                                                                                                                                                           q 0 0 9 9 9 3 5 5 6 9 4 9 6 5 6 6 9 p p j j j a j j a j j h p h k a h j a j k j p p p a a h h h j h h k C l C Z k a k k p c 5.t.O.R Z Z R R U R C l k Z R O.*.| V c V C V v k k Z X.R v k C k p k U M @.k h 5 h p k k k p p p 9 p h h k k a h h 9 M M k h g g g g g g 9 6 g g k g k h k g 5 l 3 * * 2 2 3 3 2 > 2 3 3 2 > 5 5 - - > > * > * * * * * O O O o o o O O O O O o o o o o o o o o o o o o o o o o o o o o o o o o o o o o o o o o o o o o o o o o o o o o o o o o o o o o o o o o O O O O O O O O O o o * * O * 1                               ",
"                                                                                                                      ).).L.G.r.K.r.7.K.Q.M.<.8.m.5.<.*.R Z R [ ] [ O.<.5.r.G.m.m.r.m.m.F.r.r.G.G.t.5.*.*.O.&.&.&.e.6.*.5.e.6.y.5.<.X.[ D R [ X.Z D [ O.*.5.5.R O.O.R V T I l j j h h h p 9 p p 6 5 5 5 3 3 3 * 2 > > * * * * * * , 2 2 3 3 3 5 5 a p k P.I.5.G.6.Z D Z V V k Z v V k c R X.[ R R R R T R R Z v V V l Z j j j V k k k k k M k j h k k h h h h a a j @.e.a 3 3 3 3 3 3 3 6 6 5 5 a 9 5 N Q                                                                                                                                                                                                                                                                                                                                                                                                                                                                                                                                                                                                                             q 4 0 9 9 9 3 6 5 6 9 3 0 6 3 6 6 9 p p h h h p g k V V a h a k j h j j 9 p h h p p p h h p p p p p j k k k Z Z k k l k j R *.*.R V k v R U C k k k l R &.&.&.[ V V Z v j c v c C R R k k U k p a M h Q h k - 3 p h j p p 9 p 9 p p p j h h k p 8 V M k h h g g h h p p h 9 9 g 9 g p p 6 5 g * * + > 3 > 2 3 3 3 2 > 2 3 3 3 > > 2 * + > * * * + O O O O o o o o O O O O o o o o o o o o o o o o o o o o o o o o o o o o o o o o o o o o o o o o o o o o o o o o o o o o o o o o o o o o o o o O O O O O o O O O O * * O O 1                             ",
"                                                                                                                    Y.I.I.I.M.r.<.U.K.7.7.K.G.5.G.5.O.*.X.[ X.5.X.X.O.O.<.5.8.8.5.8.r.8.r.F.m.F.H.y.&.O.X.R R { &.=.*.X.X.5.d.d.8.X.O.] *.I.X.X.Z R X.O.*.*.*.S 5.t.O.R R R M a h g a g p 6 6 p 6 5 5 5 3 5 3 * > * * * * > > 2 * 2 2 3 3 5 5 5 3 r V P.{.I.I.y.{ c V c V R k j R R Z V R R [ R R R R R R R Z k k k k R k V l V k k h h k V M j j k k h p p p p a 8 Z e.a 3 3 3 3 3 3 5 5 6 5 3 3 9 h U P                                                                                                                                                                                                                                                                                                                                                                                                                                                                                                                                                                                                                               4 3 9 9 5 3 5 5 6 6 3 6 3 2 5 6 6 p p p g h g j k V C a h h j p h h h 9 9 p p 9 5 9 p 9 9 9 9 9 p k k j j l k g k a a C X.&.{ V k j k Z V k g k k V R *.X.[ Z V Z T C k k V Z Z Z C V V M M p h R l C k k h k a p h a k M M k k k k V M M M h h M p p h g 9 g k k g h M g p g p g p 9 5 3 3 * * O * 3 * > 3 5 3 2 2 3 5 3 3 > 2 > + O > > * + O o O O O O O O O o o o o o o o o o o o o o o o o o o o o o o o o o o o o o o o o o o o o o o o o o o o o o o o o o o o o o o o o o o o o o o o o O O O O O o O O o * 2 o * ,                             ",
"                                                                                                                  I. XL.M.m.K.^.M.m.m.r.<.r.m.5.m.t.y.5.X.Z R 5.5.*.5.5.5.6.8.8.5.5.8.5.8.t.8.6.t.5.5.&.X.X.R X.{ X.*.5.&.5.t.e.5.8.t.X.e.f.R R R ..X.[ *.*.*.Z X.6.R V k R U k k k h g a a a p 6 5 5 5 5 5 3 * * * * > > > > 2 * 2 3 3 5 5 5 5 i k I.*XM.8.r.D Z Z R C c V Z V Z R R Z R R ] [ R R R T Z R T j l V C U l R Z C M k h k k k k h k k h h a p p p j f V e.U 5 5 3 3 3 3 5 5 5 5 3 3 l p N                                                                                                                                                                                                                                                                                                                                                                                                                                                                                                                                                                                                                                 4 3 9 6 5 5 3 6 5 3 3 3 3 2 6 6 5 p p p p h j k a a k a a p h p h p p p 9 p p 5 5 9 9 5 9 9 9 p h k k k k j g g g g V X.=.&.R k k V Z M j j a j c R { X.X.R C C V V l k j k V M k k M V C M p j Z 9 3 5 k C R h a M k k h k h h h h k k g k 9 g g 9 9 k k h h l h 9 9 p p p p g p 9 5 3 2 * + * * > > > * 3 3 2 > 3 3 3 > > 2 > * * * * * * O O O O O O O O o o o o o o o o o o o o o o o o o o o o o o o o o o o o o o o o o o o o o o o o o o o o o o o o o o o o o o o o o o o o o o O o o o o O O O O O O O o O O O , O ,                           ",
"                                                                                                                  ^.J.R.E.M.m.t.G.5.K.Q.r.8.m.<.X.y.y.*.X.Z R &.X.[ X.5.6.y.y.8.t.5.5.5.y.y.O.5.&.X.6.6.=.*.R O.*.X.O.*.X.*.f.G.t.H.*.] f.*.X.Z V R X.[ 5.*.O.Z X.X.k V k C C C k M k a a k k p 5 5 5 5 5 6 3 > > > 2 2 > > * * , 2 3 5 5 5 5 5 r X.eX/.5.O.A S S R D R Z V Z k V R R R R R Z V R R R Z V T R k V R Z R g I V a C k h k k h a h k h h h h h h j j f k *.#.5 > 3 5 3 5 5 5 5 5 5 3 q N                                                                                                                                                                                                                                                                                                                                                                                                                                                                                                                                                                                                                                   4 9 9 9 3 6 3 6 6 2 6 3 5 5 p 6 3 p a p h p 9 h j j k a a a a a M p p p 9 p p 9 9 p p 9 a p p h k j h h j a g a 5 j R X.*.R l g a k M k j k p j V &.X.R V j j l k j k l l j k M k k C M C 5 5 C C p 9 k h k R p V U M h g k g p 9 5 9 9 9 h 5 5 3 5 9 9 9 9 g g g p 9 9 5 5 5 9 5 5 - > * * O * 2 2 O > * 2 2 * > 3 3 * * > 3 * + * 2 + O O O O O o o o O O o o o o o o o o o o o o o o o o o o o o o o o o o o o o o o o o o o o o o o o o o o o o o o o o o o o o o o o o o o o o o o O o o o o O O o O O o O * o o * * * &                           ",
"                                                                                                              T./.L.R.m.x.n.t.r.5.r.m.<.r.G.<.r.5.O.5.6.O.R R *.*.T X.O.&.O.5.f.G.e.y.e.5.&.6.f.O.X.H.e.=.X.X.R X.f.f.f.6.&.e.&.] v D X.X.X.V R X.R R [ O.5.O.[ O.X.*.C l U h p h p k j 9 p p p 5 6 5 3 5 5 2 > * > - - 2 > > 3 2 5 9 5 k j t V t.5.X.6.<.[ A ] Z X.X.R R M k k R V V D R Z Z [ R R T R R R R T j V j V j k V j h h h k k a p 9 9 p a h j a p p 3 p c R f.2 5 2 6 - 3 5 6 2 5 5 6 h                                                                                                                                                                                                                                                                                                                                                                                                                                                                                                                                                                                                                                     q 4 9 0 6 3 3 3 3 3 3 2 3 3 3 5 9 p p p k h h h j k M h h p a k h 8 5 p p 9 9 p 9 5 5 5 9 h p 9 h k k k l l l j C R X.X.R j a k k j h 9 p p k Z Z T V j l k j j j k k k h C k k k h C k h h 3 V R h.k p k 3 3 k U M k h p 9 p k M h p p 9 p k g 9 p k p g g h g h l h h 6 5 9 C 5 9 2 h M O O > > 2 * 2 3 > > > 3 3 2 * 2 2 * O O * * + O O O O O O o o o o o o o o o o o o o o o o o o o o o o o o o o o o o o o o o o o o o o o o o o o o o o o o o o o o o o o o o o o o o o o o o o o o o o o o o o o O O O O * O o O O 2 <                         ",
"                                                                                                            |.f.8.F.K.R.x.m.7.5.r.,.8.r.<.7.r.5.t.O.X.*.*.c Z R =.R R { O.5.5.O.*.&.5.e.t.*.*.*.&.X.e.e.e.*.6.&.5.6.f.f.5.*.e.5.5.[ O.5.R &.R Z R D X.5.y.y.<.[ [ *.&.R V Z g a p p M k p p p 9 5 6 3 3 5 5 > * 2 2 > - > > 2 3 9 2 6 k k d Z X.*.*.O.5.[ D S R Z R R Z R Z V M R R Z R R R Z Z R R T Z T R R T l C l k j j l a k h a h k h p 9 p p h k k j j j a i d k X.p 3 5 > 5 6 5 6 p p 6 q                                                                                                                                                                                                                                                                                                                                                                                                                                                                                                                                                                                                                                         4 4 9 6 3 3 3 5 5 3 2 3 3 3 5 6 9 p p p p h h h k k p h p a k a 8 9 p h p 9 p 9 5 5 5 p p p p h h j k j g j a V R X.R Z j a k k j h 9 p a k C C V k p j g p p p h M C k M h M M h M h p 3 5 C k R h k k 9 5 M h k C h 9 9 9 p h p 9 5 9 p h p 5 9 9 3 h h l h h h g g p 6 3 p 3 5 3 C g O O 2 > 2 2 3 3 > > 3 2 - * * 2 > * O * * * + O O O O O O O O o o o o o o o o o o o o o o o o o o o o o o o o o o o o o o o o o o o o o o o o o o o o o o o o o o o o o o o o o o o o o o o o o o O O o o O O o O O O O O O o o O O O 2                       ",
"                                                                N Y I X.=.X.I I W I #.s.=.Q Y Y I           P.H.G.8.v.J.K.7.<.8.t.<.5.m.<.O.6.O.8.O.[ O.*.c R R R R R *.X.*.*.&.d.f.t.e.f.*.X.{ R T { 5.*.{ *.*.X.*.*.O.5.5.X.6.F.[ [ e.X.[ Z X.X.R X.O.5.6.5.O.T 6.&.X.R V a g p h M h 9 p 9 5 3 5 3 3 9 6 3 - @ - * @ 2 5 6 9 5 p j a r j k /.X.*.*.O.R D Z R X.X.R [ [ R V M V Z Z V Z R R k R R T V Z R R Z C Z I l l k V p j h h h h a p p h a a h h h j k a d a V &.p p 5 6 9 3 2 2 3 5 q                                                                                                                                                                                                                                                                                                                                                                                                                                                                                                                                                                                                                                           q 2 6 4 3 3 5 5 5 3 3 3 3 5 5 5 5 9 p p p h j h h h p a a h k a 9 9 p h p 9 9 6 5 5 5 p 9 p h a p h k k j j j R E X.R k a p k j h p 9 9 h k M V k p p 6 9 p p p p h k M k 9 h k a k h p > 9 Q M V j p p V p k 5 p k h a p p p h j a 9 p h h p 9 p p 5 9 9 g p 9 9 9 p 9 p 3 p 9 3 3 M 3 O * 2 > 2 3 3 > * > 3 2 * * 3 2 * O * * * O o O O o o o O O O o o o o o o o o o o o o o o o o o o o o o o o o o o o o o o o o o o o o o o o o o o o o o o o o o o o o o o o o o o o o o o o o O O O O O o O O O O O O O O O o * * * * 2                       ",
"                                                        N N l C R R T *.Y./.5.T R 5.P.6.d.e.H.6.T U &.$.*.*.5.6.m.L.F.8.M.K.m.5.8.y.5.r.m.<.o.<.*.6.*.X.X.V R R P.&.X.e.&.&.&.5.&.f.H.5.&.X.R e.&.R R O.O.&.*.6.5.t.5.*.F.d.5.y.O.X.] R X.[ Z X.X.R X.X.O.5.<.O.] *.&.*.R V d a k k N 9 3 9 9 9 5 5 3 3 9 6 3 > 2 5 2 3 p g p 5 5 k k p p p O.*.&.*.O.[ R R R R R R R ..R R V Z k Z C k V R R V T R R V C R R C l k C V V k k g a j k j p 9 p h k h p p p p p j k M c k R X.p 3 2 0 3 0 9 q 5                                                                                                                                                                                                                                                                                                                                                                                                                                                                                                                                                                                                                                               q 3 3 3 5 5 5 3 3 3 3 3 5 5 5 5 9 p p p p a p h h p a a k h a p p p p 9 5 5 5 5 5 5 p 9 p k h p h a k a a g R R U C a p a h h p 9 9 9 k M M k a 5 6 6 9 p p p p p p k h 9 p p p j j 9 5 5 R 3 9 a h k $.9 9 M V h p h p 9 p h h h p 5 9 p 9 9 p p 5 g 9 g 9 6 5 3 9 6 9 5 p p > > 3 * O * 2 * 2 3 3 * * 2 3 2 O * 3 > * * * * * O o o O O O O O o o o o o o o o o o o o o o o o o o o o o o o o o o o o o o o o o o o o o o o o o o o o o o o o o o o o o o o o o o o o o o o o o o o o o o o o o o O O O O o O O O * O * > , O                     ",
"                                                      l #.&.R [ { D ] 5.&XqX&XQ.<XeX9XqXlXaXxX*X[ G.#X{.I.O.A G G y.5.r.8.K.m.8.<.r.6.<.m.r.o.r.X.5.5.O.R R c R t.Z { &.5.&.X.5.*.e.f.e.f.Y.X.t.5.[ O.{ [ O.X.t.t.y.y.G.F.F.H.[ D [ O.D X.Z R +.X.R X.O.5.6.5.4.5.O.5.5.R R V k k M N 9 3 9 9 p 6 6 3 3 5 5 > - 3 5 7 5 a j p 5 r Z d d v f.H.O.O.[ R Z Z C Z R [ R [ X.R R V Z V Z Z M M Z R Z V Z Z V C T T C j a a k j j g j p j k h 9 5 p h k h p p p p a h k p l M #..       , 0                                                                                                                                                                                                                                                                                                                                                                                                                                                                                                                                                                                                                                                       2 6 3 3 3 3 3 3 3 3 3 3 3 3 5 6 9 9 p 9 p p p a h p a a a a p p p p 9 5 5 5 5 5 5 5 9 9 a h p a h p j p p a I Z C k p a h h h p 9 9 h M N N k p 3 5 p p p p p h h h a j h a p p j j 5 9 5 U h p p h p =.U M R k k R k a p a h g p p p a a p a h a p 9 3 6 9 9 3 3 g 9 5 5 9 3 * 5 * * * * > * > 2 > * 3 5 3 * * * * * * * * * + o O o O O O O o o o o o o o o o o o o o o o o o o o o o o o o o o o o o o o o o o o o o o o o o o o o o o o o o o o o o o o o o o o o o o O O o o o o o o o o o o O O O O O O O O * O * O O * ,                     ",
"                                                  R Z T f.5.n G.{.I.m.4.K.XX$X$X9XyX:X$X9XqXqX&X#X<XuXuX:XF.} ] [ ] [ 5.r.,.m.K.5.5.5.5.5.r.5.6.O.O.X.O.[ X.f [ &.[ 5.*.t.t.y.t.P.G.G.t.Y.+XO.*.e.O.t.O.O.5.[ 5.5.5.&.d.F.F.F.S [ [ t.6.X.c X.&.X.R X.O.5.6.5.<.4.] | [ V V k j g k k p 9 9 9 p 6 5 3 3 6 6 5 5 p 9 6 p k V l c c V s n 6.#XX.O.[ Z C l V k C R X.] X.X.R R V k V V Z V V C Z R V v v V C C C C V h a k a j g k h h h p p p p p a p p p p a h k h k k R #.I                                                                                                                                                                                                                                                                                                                                                                                                                                                                                                                                                                                                                                                                   2 6 3 3 3 3 3 3 3 5 3 3 3 5 6 9 9 9 9 p p p h h p a a k a p p p p 9 9 5 5 5 5 5 5 5 9 p 9 9 p h p j p g k R Z V j p j h h a p 9 9 h k M k h 9 5 9 9 9 9 p p a p p 9 h k h h h a p 5 3 p R $.M h p h C h k U M C j M k j k M k h h h k h a k M k k 9 3 9 9 9 9 9 h p 5 6 9 2 5 h 2 * 2 * * > > 2 * * 3 3 2 * > > * * * * * * O o O o O O O O o o o o o o o o o o o o o o o o o o o o o o o o o o o o o o o o o o o o o o o o o o o o o o o o o o o o o o o o o o o o o o O O o o o o o o o o o O O O O O O O O O * - * + O O & 4                   ",
"                                            N W &.T X.I./.G.L.(. X XXXXXQ.'.Q.(.>XK.:X X$XXX$XXX/.^.^.Q.Q.Q.K.$XX.[ Z R ] A >.>.<.<.5.r.<.5.r.<.6.5.X.X.X.R p V H.H.&.{ &.5.8.O.6.t.G.5.t.e.{ *.H.e.G.5.d.H.6.5.4.y.5.t.Y.I.y.O.[ O.f.5.Z R *...R R O.5.y.y.O.| 5.5.4.[ X.V Z V g k k 9 9 9 9 g 5 6 6 6 p p p h p 9 6 t p p p j X.U.I.I.U.[ 5.[ Z c V k M k N U Z c [ Z Z R Z V k k k M M V Z R R V k Z T V k v Z k k j g k j j h h a p p p p 9 p 9 9 p p p p h a k 5 k U Y                                                                                                                                                                                                                                                                                                                                                                                                                                                                                                                                                                                                                                                                     4 3 3 3 3 3 3 2 3 3 3 3 3 5 5 5 9 9 p a p h h a a a a a p 9 8 p 9 9 6 5 5 5 5 5 5 9 9 9 p p p p p p j l U l j a p j j a p p 9 p h h h h 9 9 9 9 5 5 9 p p 9 5 5 9 9 p h h h 9 5 3 3 h M M 5 h k 5 p p k k k k p k k k k l k g a p g p p g k k M M l N h g h p p p 9 g p 5 h g 2 * 2 * * 2 > 2 * > > - > > 2 > * * * * * O O O O O O O O O O o o o o o o o o o o o o o o o o o o o o o o o o o o o o o o o o o o o o o o o o o o o o o o o o o o o o o o o o o o o o o o o o o o o O O O O O O O O o O O O O O * + + o * O O 1                   ",
"                                        N I $.{ #X&XX.m.(.(. XQ.XX!.!.-X(.:X!.(.$X X:X(.$X-X'.:X).:X%XR. X!.(.G.5.e.[ Y.[ ] n | o.<.O.r.r.<.y.O.O.5.X.] [ Z k V X.H.&.6.5.4.F.d.5.t.f.*.t.O.O.&.&.6.F.[ O.&.d.I.5.4.5.y.F.F.5.| [ X.[ X.Z R [ O.X.R X.O.5.6.5.5.O.t.4.[ 5.k c k V V k 9 9 9 9 k 6 9 9 9 p 9 p k p a g k k j k T F.qXF.t.O.O.O.Z V k l k V N M M Z Z *.] Z Z R R k k k j k V Z R X.Z c R R V k k k j C a j k j 9 p h h a p p p 9 p 9 9 9 9 9 9 p a a N 9 U %.                                                                                                                                                                                                                                                                                                                                                                                                                                                                                                                                                                                                                                                                    4 2 2 3 5 5 3 2 2 2 3 3 3 3 5 5 5 9 p p 9 p h h a a h k a 8 5 9 9 9 5 5 5 5 5 5 5 9 9 p h p 5 p p p k Z R k g p p k j a p p p h l h h g 5 5 5 3 5 5 9 9 9 9 9 p p 5 5 p h h 5 3 5 5 p h 5 9 p 9 9 V j M k M p k M C Z V k k a 6 a j p 6 a j k M p h l 9 9 h g 9 9 p p 5 2 g 3 + + 2 * > 2 * 2 * 3 > * * 2 > * * * * * O o O O O O O o o o o O O o o o o o o o o o o o o o o o o o o o o o o o o o o o o o o o o o o o o o o o o o o o o o o o o o o o o o o o o O o o o o o o O o O O O o o o O O o o O O O o + + > * * O 2 ,                   ",
"                                      P I *.1X+X:XuXK.K.L.Q.'. X7X'.Q.:X(.uX).(.:X(..X(.>X$X.X7X$XyX%XQ. XQ.&X^.Y.t.5.*XO.D ] M.8.m.<.<.6.5.X.5.4.] 5.] R R M N Q l { 5.8.G.d.t.6.*.e.f.6.G.F.m.4.<.8.O.*.5.O.*.5.6.d.d.6.5.5.] S 5.X.[ R O.O.R ] D [ O.6.y.X.[ O.5.*.6.v 5.[ R R Z Z p p p a M h p l 5 9 p p k g j j T t.O.[ X.y.O.R [ &.*.[ c k V V j k N N R X.R O.&.V Z X.Z k v j k k d C R U I C V V M k k h h h g h h h a p h k p 8 8 9 9 9 9 9 9 9 p p a h p h M N ^                                                                                                                                                                                                                                                                                                                                                                                                                                                                                                                                                                                                                                                                       2 , 4 6 2 3 3 3 3 3 3 3 3 5 8 5 9 9 9 p k k p p a h p 9 5 9 p 9 9 5 5 5 5 5 5 5 5 p p a h 9 p 9 p C Z C 9 5 9 8 k p a h h 9 Z M h 9 5 5 5 6 9 6 5 3 6 6 9 9 p 9 6 6 6 p g 9 3 5 5 k 9 5 9 p 9 5 M h h C k k a g k k l k a j a j j a a a g k C 5 h p 5 h h 8 5 9 g 6 5 > 3 * o * * * > 3 > * 3 3 > * * > * * * * * O O * , * O O o o o o o o o o o o o o o o o o o o o o o o o o o o o o o o o o o o o o o o o o o o o o o o o o o o o o O o o o o o O O O O O o o o o o O O O O o o o o o o o O O O O O O O O O = * * * O @ *                 ",
"                                  N C Z C t.qXwXK.K.(.).Q.L.:X'.:XXX X:X'.:XQ.%X:XQ.'.(.%X.X.X7X.X:X XXX#XL.^.).{./.H.5.| 5.wX,X9X7.r.O.5.t.5.6.4.O.5.X.R R h N U X.{ *.4.t.F.8.H.6.H.H.8.8.F.v.F.O.t.5.t.6.5.O.&.&.t.d.t.5.O.] [ e.=.X.Z X.*.X.[ D [ X.O.5.X.[ ] 5.*.O.D e.6.[ [ Z Z a j V k p k l a 9 p 9 M M C C c { H.G.t.t.&.[ [ O.5.X.Z c j v C j k k h M X.Z T X.R v V Z v k a k V c C V j j h k k k k h h h h g p p p g a p p 9 9 9 9 9 9 9 9 9 p p p p a j k k h                                                                                                                                                                                                                                                                                                                                                                                                                                                                                                                                                                                                                                                                           0 , 6 6 > 5 3 3 3 3 3 3 3 5 3 9 5 9 p g j p p p a p p 9 9 p 5 5 5 5 5 5 5 5 5 9 p p p p 5 9 9 h M k p 3 5 p 9 p 9 p a p 9 U p p p 9 6 5 5 3 5 5 6 6 6 6 6 6 5 6 9 9 9 9 5 3 5 p M N 5 p g 9 9 h j M C p a V k k j j j g k k l j a p p p j M 9 h 9 5 p g 9 9 6 p 9 3 O + + > * * > 3 2 * > 2 * * * * > * * > * O O O O @ O o O O o o o o o o o o o o o o o o o o o o o o o o o o o o o o o o o o o o o o o o o o o o o o o o o o o O O o o o o o o O O O O O o o o o O O O o o o o o o o O O O O O O O O O O O & * * * + @ *                 ",
"                                k E M Z O.{ y.L.,.K.:X:XQ.'.$XQ.:X#X(. X).Q.K.Q.'.K.(.(.!.(.!.'.).'.(.#X)./.G.I./.#X X5.,.Q.zXyXqX<.<.5.O.5.O.O.4.O.O.5.[ R k M R f.R 5.G.5.| 5.G.e.T.H.F.K.E.9.).7.r.8.8.5.*.X.O.X.=.t.G.5.5.&.[ X.+.R Z X.O.*.X.[ X.X.O.O.X.X.5.5.X.[ [ D X.] O.c C Z V p r p l k p p a h I C R E C R &.*.&.6.{ [ [ O.X.R C Z v Z I k j M l C Z T C Z { R Z T j j g l V k V k k k M M C M k k h a p g p 9 p h p 9 9 9 9 9 9 9 9 9 9 9 p 9 9 9 k j g h Y                                                                                                                                                                                                                                                                                                                                                                                                                                                                                                                                                                                                                                                                           < q 2 6 * 3 3 3 3 3 3 3 3 3 5 8 5 p h p p p p p p p p 9 9 p 5 5 5 5 5 5 9 9 9 p p p p p 9 p 9 j V M 9 3 5 p p 9 9 p a 5 9 M 9 9 6 5 5 5 5 5 5 5 6 6 6 6 6 5 5 6 9 9 9 3 3 3 5 k M U 3 9 g 9 9 9 a p p p a l p h h M M k M k h p h j p 9 h k 9 9 9 9 9 9 9 9 3 9 9 3 9 5 * O * O 3 5 * * 2 * + * > - * > 2 2 * O O O O O O o O O o o o o o o o o o o o o o o o o o o o o o o o o o o o o o o o o o o o o o o o o o o o o o o O O O O O o o o O O O O O O O O O O O O O O O o o o o O O O O O O O O O O O O O O & * * * O O *                 ",
"                              I R M Z X.5.T ] 4.K.).uXyX:XK.-X X^./.K.G.F.K.G.m.m.m.K.K.K.Q.K.Q.Q.~.Q.(.Q. X). X X X'.K.J.m.<XqX<X] A | X.O.t.O.<.O.| O.O.[ C a R e.{ F.F.4.7.8.G.F.Y.F.G.K.J.,.L.r.F.Q.G.F.*.O.O.X.O.*.e.&.&.*.R R X.R Z X.O.O.X.X.X.O.5.5.X.X.X.O.5.y.O.V O.P.H.X.R C c j c j R k k j k Z Z V P.f.R Z [ X.D v R R R R Z Z Z Z k V V h h M M C k Z V v R X.R R j k k V V k k k k k M M l k k h a p 9 g g 9 9 h 9 9 p a p 9 9 9 9 9 9 9 p 9 9 9 p p k h P                                                                                                                                                                                                                                                                                                                                                                                                                                                                                                                                                                                                                                                                             < , 3 3 2 3 3 3 3 3 3 3 3 8 9 9 p p 9 p 9 p p p p p 9 5 9 5 5 5 5 5 5 5 5 9 p p 9 p p 9 p p M C V 9 5 5 9 p 8 a p h 5 p a p 9 5 5 3 5 6 9 5 5 5 5 5 6 6 6 6 6 9 9 9 5 3 5 9 C k k 3 9 9 9 9 3 h a p j p p 9 h j C C k h p p 9 h k a a j h 9 6 9 9 9 9 9 9 6 6 3 5 C g * o * * 3 3 * * 2 * O > 2 > * > > - * * O O O O O O o o o o o o o o o o o o o o o o o o o o o o o o o o o o o o o o o o o o o o o o o o o o o o o o O O O O O O O O o O O O O O O O o o O O O O O o O O O O O O O o o o O O O O O O O = * * * * * *                 ",
"                            I #.P.X.Z C 6.H.I.Q.%XyXmXmXMXyX(.7.G.K.t.r.r.*X#XG.I.Q.I.G.m.G.m.Q.M.m.m.m.7.8.K.).(.:X(.iX$XQ.J.Q.uX/.I.] S D X.[ <.O.<.X.*.R R h V H.t.5.8.,.7.K.G.H.^.). XQ.v.v.m.M.m.8.5.y.O.e.*.&.&.X.X.R R R O.R ..R [ O.O.O.X.[ X.5.6.5.O.[ *.O.X.X.X.O.Z S f.f.I.H.&.R &.6.[ C Z R { &.X.R R X.C V V R [ X.R T C l V V V k g j M k k C M M C l k V V k k V V k k k M M h a a j h h h h h h h p 9 h h a 9 p p 9 9 p 9 9 9 9 9 9 9 9 9 9 p p p a l g l                                                                                                                                                                                                                                                                                                                                                                                                                                                                                                                                                                                                                                                                               0 2 3 3 3 3 3 3 3 3 5 5 5 9 8 5 5 5 9 5 p p p p 9 5 5 5 5 5 5 5 5 5 5 5 9 9 9 5 p p 9 p k C k h 3 5 9 p 9 5 h 9 h 9 k p 6 5 5 5 6 5 5 3 3 3 5 5 5 5 5 5 9 6 6 9 9 5 3 3 p U h 5 9 9 9 9 Q 9 h p 6 a p C k M M M k h h h h 9 p h p p j p 9 3 5 9 9 9 p 9 p 3 > 3 k 2 o 2 * 2 - * - * * * * > > * * > * * O O O O O o o o o o o o o o o o o o o o o o o o o o o o o o o o o o o o o o o o o o o o o o o o O O O O O o o o O O O O O O O O o O O O O o o O o o o O O O o o o O O O O O o o o o O O O O O O o o * * * * * * 1               ",
"                          M E l Z [ I R H.^.Q.{.).<XxXmXzXmX<Xm.G.K.F.m.t.1X$XF.F.H.G.L.L.H.K.&XG.m.F.m.7.| 7.m.E.$XtXzX7X$X.X!.-X1XI.] ] 5.S 5.O.O.6.[ O.Z R k Z O.F.m.7.7.V.m.4.5.r.G.(.Q.7.1.m.Q.).r.G.t.*.5.&.&.&.X.X.{ R R &.X.R C X.X.X.O.[ [ [ 5.e.5.*.[ X.X.O.X.] 5.O.&.*.[ { t.G.6.5.O.O.*.R &.*.X.&.Z R R v C [ &.O.R E C j j k k k l k k V M k M M M Z C C V j j k j M k M k k k h h j k k h g h k k h p p g h g 9 9 p 9 3 5 9 9 9 9 9 9 9 9 9 9 p a k g p h E                                                                                                                                                                                                                                                                                                                                                                                                                                                                                                                                                                                                                                                                                   2 3 3 3 3 3 3 3 5 5 3 8 5 5 5 9 p 5 p p p p 5 3 3 3 5 5 3 3 5 5 5 5 p 9 9 5 p h p p M k a 9 3 5 5 9 9 9 h 5 p p k 9 5 5 5 5 6 5 5 2 3 3 5 5 5 5 3 3 9 9 5 5 6 5 3 3 k U M 3 h 9 9 8 U 9 k M Z U j a k k h k k p h k p 5 9 p p p h 9 5 3 3 5 3 5 9 9 6 6 3 * 2 O + * * 2 * + - * + * > * * O * * * + o o O O O o o o o o o o o o o o o o o o o o # # o o o o o o o o o o o o o o o o o o o o o o o o O O O O O o o o O O O o o o o o o O O O o o o O o o o o O O o o o o o O O O O O O O O O O O O O O = * * * * * * ,               ",
"                        I I S T O.Y.e.X.F.^.).#X-X).yXiXzXuX#XK.m.G.I.K.r.^.K.t.F.F.G.I.I.H.K.{.8.t.F.8.8.7.4.,.(.qXmXyX.X.X!.Q.K.1X8.G 5.I.v X.X.X.6.X.X.Z Z V c [ O.M.!.!.R.R.K.m.m.>.m.K.R.v.B.E.(.9.r.m.t.t.O.X.X.*.X.&.X.{ R R V k [ [ X.*.[ [ R O.5.*.O.[ X.[ R [ R *.e.e.O.O.R v R O.5.R O.e.R X.R c C j k Z R R R R X.R U C h h h h M C l h M M h h k l j C Z k l I C k h h V k h k g k j k k h p a h h h a 9 9 p p 9 9 9 9 5 5 5 9 9 9 9 9 9 9 9 9 p p p p p l Y                                                                                                                                                                                                                                                                                                                                                                                                                                                                                                                                                                                                                                                                                   0 < 3 3 3 3 3 3 3 5 5 8 5 8 9 8 9 9 9 p p 5 5 5 5 5 5 5 3 3 5 5 5 5 p 9 p 9 a h p a h p 9 5 5 5 5 5 p p a 5 p p h 9 5 5 5 3 3 5 5 5 3 3 3 3 5 5 3 3 6 9 9 5 3 3 3 3 k C C 9 p 9 9 3 h p k h V R V a 5 9 6 p h p p p 9 9 9 9 p p 9 5 5 3 3 3 2 3 5 3 3 9 5 * * > O o > * * * * * O * > * @ * * * O + O O O O O O O o o o o o o o o o o o o o o o o # o o o o o o o o o o o o o o o o o o o o o o o o O O O o o o o o O O o o o o o o o o O O o o o o o o o o o o o o o o o O O O O O O O O O O O O O * * * O O * * * & ,             ",
"                      N C C ] ] [ P.e.t.G.L.).:X#X X<XyX-X).L.L.I.G.K.K.I.t.y.F.K.t.F.G.K.Q.Q.H.G.F.H.t.8.8.5.F.Q.uXmX]..XJ.R.!.).$X$X] ] 5.v [ X.X.5.*.*.[ Z V c O.,.K.Q. X(.K.K.m.(.M.V.J..X'.R.!.'.V.m.K.t.5.*.X.R &.R X.R R M R V k [ R X.5.[ [ Z [ O.X.X.R R R R X.R R 5.*.5.*.R j d r d t j V k k d k k Z Z R R R R Z R l h k M h h k M M h p C U k g h k p j j k U U M V a p j j k N h h j l M h p a h h p p 9 5 5 9 9 9 9 p p 9 5 9 9 5 9 9 9 9 9 9 9 9 p p 9 h P                                                                                                                                                                                                                                                                                                                                                                                                                                                                                                                                                                                                                                                                                     4 2 3 3 3 3 3 3 3 5 5 3 9 p 5 9 5 5 5 5 3 5 p p 5 5 5 3 3 5 5 5 5 9 9 9 9 p p 9 p g 9 9 5 9 5 9 9 9 9 p 9 j a p 9 5 5 5 5 5 5 5 5 5 3 3 3 3 5 9 9 3 9 p 6 3 3 3 3 M k U p 5 9 9 3 5 p V M g a j C j a p h j p h a h h 9 5 5 5 5 5 9 9 9 9 3 3 3 > 5 3 3 9 2 + o > 3 * > 3 * * > > > * * > > @ + + O o o O O O o o o o o o o o o o o o o o o o o o o o o o o o o o o o o o o o o o o o o o o o o O o o o o o o o o o o o o o o o o o o O O o o o o O o o o o o o o O O O O O O O O O O O O O O O O * * + O + O * > * &             ",
"                    P l C R O.K.5.&.G.t.^.{.^.{.%X(.#X).K.m.Q.Q. X).).G.K.I.G.t.r.H.G.m.G.I.I.I.P.f.I.H.t.t.8.r.K.XXyXE.K.E.(.R.K.I.yX$X,X6.S Z [ [ O.X.[ O.Z Z D 5.m.K.'..X!.V.!.7.K.$XQ.!.7X].R.'.].v.v.L.m.4.O.X.*.X.R k C R V R V k R X.X.X.[ [ [ X.O.X.[ R T R U R R R X.X.&.&.X.T V S Z V c S v v V C R R R R R R C V V k k g h M M k M U k j j j j h h h k k k k k k k l h h h h k M k h k k k j h p p p p p 9 9 9 9 9 p 3 5 5 5 5 9 9 9 5 9 9 9 9 9 5 5 h 6 h h                                                                                                                                                                                                                                                                                                                                                                                                                                                                                                                                                                                                                                                                                         0 6 2 2 5 2 5 3 5 5 > 8 3 5 5 5 5 3 6 6 6 5 3 5 5 3 3 3 3 3 5 5 9 p 9 9 a p 9 h p p 5 5 5 9 9 5 8 8 5 9 j p 9 h 9 5 3 5 5 5 5 3 5 5 5 5 3 3 5 9 3 6 6 6 6 2 2 g M k p 9 k p 9 > 5 h M R &.Z a V U U C p k p p g p p p 9 9 9 6 5 9 9 9 9 p 9 3 9 9 2 3 5 * > + > > + * 3 2 * - > > * * - > * + o O O O O O o o o o o o o o o o o o o o o o o o o o o o o o o o o o o o o o o o o o o o o o o o o o o o o o o o o o o o o o o o o o o o o o o o o o o o o o o o o O O O O o o o o o o O O o o o O O O * * O + * * , 2 ,           ",
"                  h h U Z S $XqXt.8.I.F.I.L.{.L.m.m.^.L.E.(.K.:XK.m.#X:Xm.8.8.r.r.t.m.m.K.K.K.t.e.f.T.H./.<XH.8.4.| 8.m.m.E.E.(.(.m.r.L.^.[ 4.b ] [ X.&.*.O.X.V f S } <.K.R.R.R.K.V.Q. XR..X>X].W.'.'.!.].K.m.5.5.&.&.[ { V R 6.+.R j V X.[ [ [ [ [ [ O.O.O.[ Z Z I U R R R R O.&.O.[ Z V C S S T [ T [ R Z R R Z Z T R Z Z V h a k k k k k k h M V M j h h h h h h j k k k j k h l M k h g g p g j h h a p p p 9 9 9 9 5 5 5 5 9 9 9 5 3 3 5 9 9 5 3 5 9 9 9 9 6 9 g U                                                                                                                                                                                                                                                                                                                                                                                                                                                                                                                                                                                                                                                                                             4 6 3 5 6 3 9 p 3 p 5 3 3 3 3 5 6 6 6 3 3 5 5 3 3 5 5 5 6 9 p p 9 9 p 9 9 p h p 5 5 5 9 9 5 p 8 9 p p p 9 9 5 3 3 5 5 5 3 5 3 3 3 5 3 2 2 3 2 3 3 3 3 2 5 N C k h h 9 k 5 Q a p a j C R R j g C U C M h 9 6 p p 9 5 3 3 5 5 3 5 5 5 5 3 2 5 5 2 9 2 o * 3 3 2 > > * O O * * * * * * * + + + O O O O O o o o o o o o o o o o o o o o o o o o o o o o o o o o o o o o o o o o o o o o o o o o o o o o o o o o o o o o o o o o o o o o o o o o o o o o o o o o o o o o O O O O O O O O O O O O + O * * * * * * * , 4           ",
"                N g N V Z D qX{.b 5.G.K.#X/.Q.F.F.L.(. X(.Q.^.(.K.J..X$XF.G.5.8.F.8.G.L.8.m.8.I.P.f.H.4XlXuXm.m.r.<.,.<.8.J.Q.^.K.K.4.7.F.K.).G v Z [ X.5.X.O.c c D m.m.!.].].R.Q.Q.(. X!.-X!.`.W.].].R.(.V.J.m.5.5.O.X.*.[ { e.*.Z a C X.R R [ ] ] [ X.O.O.[ D R U E @.E I R &.=.&.R Z C Z Z T R T T [ R v V R V c l V C C M h h h k M M h p p k M M h p h h p k k M M M k k k k M M M h p p p a g h h p p p p 9 9 9 9 8 5 3 3 9 9 6 5 3 5 6 9 p 5 3 5 6 9 9 9 4 z q                                                                                                                                                                                                                                                                                                                                                                                                                                                                                                                                                                                                                                                                                                 4 4 3 3 9 3 5 - 5 3 5 5 6 3 3 5 6 5 3 5 6 3 3 3 5 5 5 6 9 9 9 9 9 p p p h h 9 3 5 5 5 5 5 9 5 p p 9 p p 3 3 3 3 5 3 2 3 5 3 3 3 3 3 2 2 3 3 3 3 2 2 > 9 I C X.M h h a h Q p h j p p c V a h C R R C I I N h g 6 5 5 6 5 3 9 9 p p 5 3 5 5 5 * 3 + o * 6 3 * 3 2 O + * * - * * - * + o o O O O O O o o o o o o o o o o o o o o o o # # o o o o o o o o o o o o o o o o o o o o o o o o o o o o o o o o o o o o o o o o o o o o o o o o o o o o o o o o o o o o o O O O O O O O O O O o O O O o O * * * * + * * 3 4         ",
"              k h N U R X.[ 9X7.7.G.#X#XQ.K.8.m.L.M.Q.).qX XF.F.K.J.:X(.m.r.F.r.r.m.8.t.K.m.L.qXd.Y.hXDXhX1Xm.L.m.m.m.<.7.8.Q.L.K.K.K.m.J.K.-Xb v Z [ O.*.O.*.] i A }.K.Q.!.!.R.R.V.K.'.'.-X`.].].].7X!.E.K.m.r.&.&.O.&.6.X.R R R V h C R R R R R R R [ X.X.[ R R U E @.X.R U #.=.#.E I Z Z R R R Z T R T v V Z Z c j j k k k h k p h l M k h M p h j h h h h h k k M M M k k k h h h h h h g a j j h h p p p p 9 9 9 9 9 8 5 5 6 6 5 3 3 5 6 6 9 6 9 9 9 5 6 p g 0 q                                                                                                                                                                                                                                                                                                                                                                                                                                                                                                                                                                                                                                                                                                   1 q 6 * 6 5 5 5 5 5 5 3 2 3 5 5 5 3 5 9 3 3 3 3 3 2 3 5 5 5 5 5 9 9 p j a 5 3 3 5 5 5 9 5 8 p 9 9 a p 3 3 3 3 5 5 3 5 5 3 3 3 2 2 2 3 5 6 5 3 3 > > 9 I Z X.j p M p h a 9 h g k R X.R U U I N C h I Y I k g 6 5 9 9 6 3 p 9 9 9 3 3 5 3 3 * * + * > 2 > O 2 > O * > * * * * - * O o o O O O O o o o o o o o o o o o o o o o o o o o o o o o o o o o o o o o o o o o o o o o o o o o o o o o o o o o o o o o o o o o o o o o o o o o o o o o o o o o o o o O O O O o o o o o o o o o O O O o O * * * * + - - 2 2         ",
"            h N M C C Z D G O.7.m.G.{.&X(.I.7.8.G.F.L. XyX<X$XF.K.K.:X(.XXG.8.r.8.8.t.t.t.F.eXeX*XvXVXZXvX4X{.F.M.8.7.M.r.m.m.Q.K.(.E.K.E.(.uX| S Z X.&.X.*.X.X.R c ^.G.K.E.v.J.J.B.J.E.!.-X;X-X7X`.;X!.E.m.5.5.O.X.X.X.R U R l R C j M D R R Z R R R [ X.X.[ R Z W U E R U U R #.@.R U Z C Z I I R R R R Z V c R V j h h h k k h j j a j V V k h h h k k h h k j j j j g a j k h h p p p p p p j j h h p p p p 9 9 5 5 5 5 5 3 3 3 5 5 5 5 3 2 5 5 6 p 9 3 9 9 h q                                                                                                                                                                                                                                                                                                                                                                                                                                                                                                                                                                                                                                                                                                       4 g 9 5 3 5 5 5 5 3 2 3 3 5 5 3 3 5 6 2 3 3 3 3 2 3 5 p 5 5 5 5 5 9 p 9 3 - 5 9 5 5 9 5 p p 5 p h p 5 5 3 2 5 5 5 5 5 3 3 3 2 2 3 3 5 3 3 3 3 * 2 g U U Z p a p h * 9 5 p j V R R R @.E N l I g h h h h h g 6 3 2 3 9 9 3 3 3 3 3 5 2 5 h 3 O * * O 2 * * O O > * O O * * * * * + + + O O O o o o o o o o o o o o o o o o o o o o o o o o o o o o o o o o o o o o o o o o o o o o o o o o o o o o o o o o o o o o o o o o o o o o o o o o o o o o o o o o O O o O O O o o o o o O O O * O * * * * > * * > 2 3         ",
"          h l h C I R Z S | | 4.I./.F.Q./.8.4.8.8.K.F.).(.(.<XQ.L.x.$X$XK.5.F.y.5.<.F.*.O.qXaX^.hXvXcXhXuX&XH.8.G.M.M.M.r.m.F.K.Q.>X].R.!.(.$XG S Z X.+.[ &.[ X.C ; X.4.K. Xv.9.!.R.E.E.R.].7X;X>X!.'.Q.K.<.6.*.&.X.X.R j V R R E M a V R R R Z R R R [ O.O.[ Z R U E X.X.E U U @.@.Q R C C Z C Z R R R R R v d V k j h g g h h k k j j k k M M M k h k k a h k g a a a a a k V C M k j p p p a a a a p p 9 9 9 9 9 5 5 3 3 3 3 3 3 5 6 6 5 5 3 6 5 5 5 5 5 3 9 0                                                                                                                                                                                                                                                                                                                                                                                                                                                                                                                                                                                                                                                                                                             9 9 5 9 2 3 3 3 3 3 5 5 5 3 3 3 3 3 3 3 3 3 3 3 5 p 9 9 9 5 5 9 p 5 3 - 3 5 5 5 5 5 p 9 5 p p 5 5 5 3 2 5 5 5 5 5 2 3 3 3 3 3 3 2 2 > 2 3 > 3 h C p a 5 p p 9 p p M k R I d j R R I g k I h p g h h h h g 9 3 3 3 9 5 3 3 3 5 3 > h Y 6 + O 3 * * > * + O > > * * - * * * * O + o O O o o o o o o o o o o o o o o o o o o # # o o o o o o o o o o o o o o o o o o o o o o o o o o o o o o o o o o o o o o o o o o o o o o o o o o o o o o o o o o O O O o o o o O o o O O O O * * O O * * * * > > - - - 2 q       ",
"        h N h j k [ C [ D | $X8.M.L.Q.$XK.,.G.L.^.G.K.Q.E.K.K.:XL.M.m.r.r.8.8.5.<.5.[ X.#XxX#XO.T.uXcXlXuXI.8.G.8.M.G.K.m.7.G.m.Q.'.E.!.!.B.9.A D Z X.O.O.*.O.X.Z V *.F.K.(.m.7.!.J.Q.!.R.!.;X;X'.!.'.E.K.r.6.O.O.X.X.Q k M R $.U M j Z R D R R R D R [ O.O.[ Z R E Q $.$.Q Y R Q #.@.U N C C N C U R I I R C c k h h k h g h g k j j k k j j V l j h h h a a h j h j j g g k V C V k k h h p h a a p p p 9 9 9 9 9 5 5 5 5 5 3 3 3 3 5 6 6 5 5 6 5 5 5 3 5 3 4 w                                                                                                                                                                                                                                                                                                                                                                                                                                                                                                                                                                                                                                                                                                               6 6 g 6 5 3 3 6 3 3 3 3 5 5 3 3 3 2 3 3 3 3 3 5 p 5 5 9 5 5 p p 3 3 3 3 5 5 5 5 8 9 9 9 p 9 5 3 5 3 3 5 5 5 5 5 2 3 3 3 3 3 3 2 3 > 3 3 > 3 h M - 3 5 6 k p =.k C h j k a k I k l 9 p h g 9 g h g 9 9 p g 9 3 2 8 8 3 2 3 3 > > h h > O * 2 > O > O O * > > > - * O O O O + + + O O o o o o o o o o o o o o o o o # o o o o o o o o o o o o o o o o o o o o o o o o o o o o o o o o o o o o o o o o o o o o o o o o o o o o o o o o o o o o o o O O O o o o o O O O O O O O O * O O * * * * > - - - - * 2       ",
"      z l h k k R c *.e.S 4.G.K.Q.(.Q.(.8.M.m.#X{.Q.Q.L.Q.L.L.G.K.L.m.r.G.5.8.r.y.5.*.#XaX/.*.X.6.t.8.5.y.m.m.G.K.K.8.9X#XM.8.L.:X-X'.$X!.R.-X .S V Z R O.X.5.[ R Z Z G.K.(.(..XR.J.!.!.v.v.(.].].E.!.<.5.F.X.*.X.E R #.R Z C Q M k M Z C C R Z R Z Z R X.O.[ R U I E $.$.R C U E #.#.U k M V k k k C k k I Z T k j h k k k k h p j j a a j k k a a p p a h h p g g g g a a a j j p 9 p h h a p a a p p p 9 9 9 5 5 5 5 5 5 5 3 5 3 3 3 3 3 3 2 > 5 6 6 5 5 9 9                                                                                                                                                                                                                                                                                                                                                                                                                                                                                                                                                                                                                                                                                                                     6 6 9 5 2 3 3 3 3 3 5 6 5 3 2 2 2 3 3 3 2 2 9 3 5 5 3 3 9 5 5 5 5 5 5 9 p p 9 3 9 a 9 5 5 - 3 3 5 5 3 2 3 5 3 3 3 3 3 3 3 3 3 > 2 3 > 5 k N R 5 5 a h k R p V V Z R R C V R U h g g h p g 9 9 5 3 3 3 3 6 9 2 5 3 > 5 5 3 3 5 + + 2 3 o > * > * * > * * * o * + + + + o o + O O o o o o o o o o o o o o o o o o o o o o o o o o o o o o o o o o o o o o o o o o o o o o o o o o o o o o o o o o o o o o o o o o o o o o o o o o o o o o o o o o o o o O O * * O O O O o O O O O * * * * * * - - 5 3 2       ",
"    z k k h h h V { +XH.T t.m.E.'.(. X).m.r.G.K.L.L.^.Q.L.L.G.F.G.G.t.t.t.8.8.5.6.5.6.y.m.t.5.O.r.m.r.r.r.r.G.G.G.8.G.Q.K.M.K.'.$X;X;X>X.XJ.'. .| v Z X.*.O.5.[ R C Z H.8.E.!.'.Q.K.Q.m.K.K.V.R.R.E.L.r.4.*.*.=.X.R R [ R V V R M k k C C Z R R R R Z Z R X.X.R U U R Q $.X.E I Q $.Q U U k M V Z k Z R R C R T v j k j h k p h k k j p p a j g p 5 p p p k h a p a a a p h h h j k j h h h p p p p p p p p 5 9 9 5 5 5 5 5 5 5 6 5 3 5 5 5 5 5 3 5 5 5 5 6 9 g                                                                                                                                                                                                                                                                                                                                                                                                                                                                                                                                                                                                                                                                                                                     h g 9 5 5 3 3 3 3 3 5 5 3 2 2 2 2 2 3 3 2 3 5 3 3 3 5 9 9 3 3 > 6 5 5 5 5 5 3 9 9 5 5 6 3 3 2 3 6 2 2 3 3 2 3 2 2 3 3 3 3 3 3 3 3 > > 6 9 Q Z 2 5 5 h 9 9 p h M R Z k k Z Z X.I h g k p g 9 9 9 4 6 2 4 3 5 p 8 5 5 > - 3 o 3 2 O 2 + O * * * * * * * O * * * O * * O O o O o o o o o o o o o o o o o o o o # o o # o o o o o o o o o o o o o o o o o o o o o o o o o o o o o o o o o o o o o o o o o o o # # o o o o o o o o o o o o o o o o o o O O O O O o O O O O o o O O O * * * * * * 3 3 2 2 3 6     ",
"  0 N g l l p k R S O.R R {.L.Q..X'..X'.m.m.K.I.L.L.^.Q.L.I.K.F.F.G.t.t.t.y.y.8.5.5.<.5.8.r.8.<.7.r.r.m.m.t.M.m.K.r.m.r.7.8.K. X-X;X-X;X.XR.>XK.$XX.c V &.X.O.X.R U v 5.:.!.$X>XR.m.J.8.G.I.K.E.m.m.m.<.[ [ R R R Z Z Z Z v V Z M k l Z Z Z R R R R Z C R X.X.I Y U R E &.X.E I Y #.#.Y U k v C V k Z R R C R Z V j M h h k 9 p h h h p p p a a p 5 p p p k h a p a a a p h h h j k j h h h p p p 9 p 9 p p 5 9 9 5 5 5 5 5 5 5 5 5 3 5 5 5 5 5 3 5 5 5 5 6 9                                                                                                                                                                                                                                                                                                                                                                                                                                                                                                                                                                                                                                                                                                                       h g 9 5 5 3 3 3 3 3 5 5 3 2 2 > > 2 3 3 3 3 5 3 3 3 5 9 9 3 3 > 6 5 5 5 5 5 5 9 9 5 5 6 5 3 3 3 6 3 3 5 3 3 3 2 2 3 3 3 3 3 2 3 2 * 2 9 p @.R 5 9 5 p 3 3 5 h k Z V j j V V #.I h h C l N g g g 0 9 4 6 3 5 p p a h 5 2 6 * 3 2 O * + * * * O O * * * O * * * O * * O O o O o o o o o o o o o o o o o o o o # o o # o o o o o o o o o o o o o o o o o o o o o o o o o o o o O O o o o o o o o o o o o o o # # o o o o o o o o o o o o o o o o o o O O O O O o O O O O o o * * * * * * * * * * * * * 2 q     "
};
