/* XPM */
static char *_51d3af747f346a7aba301d30a10c18c3wSDwZpgbCk2eELC[] = {
/* columns rows colors chars-per-pixel */
"781 781 59 1 ",
"  c #040404",
". c #080607",
"X c #060807",
"o c #090906",
"O c #070908",
"+ c #0B0B0B",
"@ c #0C0C0A",
"# c #0B0B0D",
"$ c #090D0C",
"% c #0B0C0C",
"& c #0C0C0C",
"* c #0C0D0C",
"= c #100E0F",
"- c #0C100F",
"; c #0F100F",
": c #10100E",
"> c #11110E",
", c #10100F",
"< c #0F0F11",
"1 c #110F10",
"2 c #0D1110",
"3 c #0F1010",
"4 c #0F1312",
"5 c #101010",
"6 c #131311",
"7 c #131313",
"8 c #131413",
"9 c #131414",
"0 c gray8",
"q c #171716",
"w c gray9",
"e c #141817",
"r c #171817",
"t c #181817",
"y c #191A16",
"u c #171818",
"i c #171B1A",
"p c #181818",
"a c #1B1B1B",
"s c #1B1C1B",
"d c #1B1D1C",
"f c gray11",
"g c #201E1F",
"h c #1E201D",
"j c #1E201F",
"k c #1F201F",
"l c #21211E",
"z c #211F20",
"x c #1E2120",
"c c #202020",
"v c #232323",
"b c gray14",
"n c #262826",
"m c #292926",
"M c #262929",
"N c #2A2A2A",
"B c #2F302B",
"V c #30302F",
"C c #313131",
/* pixels */
"                                     .......      .... . .................            ..............%%..................**%%+%%%%%%**555***.           .****55**055***5505**********35555555055**55500955005**55.        .00*5500085*505550000800000005550p0555500ppfpp000000pp05*.       *5500ppfppp0000ppp000ppppp0000pppppppffp000ppp0pppppppppp* .       5pppppfffcp0000000pppppppppppffppppppppf0000ppppp0pp0pfp9%       .5pfgfppp000ppfppp0555555pp00ppfpppppp000pfccfppffpp00505.        .0fppppp0ppp0000ppdpppppppp00p000ff000p5500000ppf00550005+        50p98555000555988555000005955555508555*5555555555**** %.          *5*****5;;;33*1<1555******.*****35555**************..              ........++++++++++++...    .........................                           o                      ",
"                                   ........         ........... ..........            ..............%..................+++.......%*****..              .*;**55**5**...%*355555555555***1<15553****55555*.**.  #.         .005500000559005000pu00000000000000555500pppt00555555*...        *55000ppp0000000p000ppppppppppppppppppfppp000pp005555****....     .5p095500pfpppppppppp0055555550pffpp000ppp000pppp0005***.         .50pfffpp000ppp00555****5pppppffppp00555550pfppppp0055551*        .0pppppp00055555000ppppppp000055500555000000000005*......         *00000000000059955550000000000000055515555555511****%.*.          *****************5*33**********<3555*#..****%%%***%..              ........++++++++++++...    ........ ................                                                  ",
"                                    .......         ........ .. ..........            ...................... ....+++..............*****...             .****55***..   ..%*********************%%.**5555535*. .***.       .5555000005555555000000000000000005555500p00855************      .*5550000055555555500pffpp00pppppppp0ppppu0550fp0005555*****.     .505*#**50ppffffffppf051*****55pffp005500055500pppp055555*.       .500ppp000000pp05<*******0ppppppp0055*****50000ppp005*****..      .0p00000051*******5555555****5***55***5555555000055*.......       *5990055855555555555555000000000055****5555*******%...**...       .*..**.******************************.................             .......+...............    .......   ...............                                                  ",
"                                    ......          .... . . ..............            ....................  ....+++...+..........%********....         %%..***....   ..............%.............**5**500;+.*555*       .****555555**...**35555555550000055***5500055***...*5500005*     .*****555555**115**50pppp000000005000000p0***5pppppp0000555*.     .****..**55pfffppppppp05*****50ppp055**55*****50pffppppfp0*       .*55000555555505********10pppfpp055***..#**5500ppp005**.***..     .50555805**#.....***.........*...***..***..*50000005*.**555       .**355555555***********5555555505**..**5555***.......****3*   .   .*...............******3111********%....................           .......++..............    ......    ...............    .                                             ",
"                                                  ..........  ..............           .. .................  .....++...............*********....        ........*........................        ..%***55*....*55*.       ....*****..     ..**.#*****55555**.#**5555***......*000p05.     ..******11*******..*5000005555555*****555**..*50ppp00055555*.      .***1**<*500000005550p0555*5500005**..#**...**50ppcffp005*..     .***5<*********511****55500pppp055*********550ppppp05*..****.     .*51*******.......******%....*.#*****...  .%50005053*..**55        ......................*%%+***353.....***<*..........***555   *   .*. ................%****3****.....................%%+... .        .......................    ......     .           ...  ..                                             ",
"                                                  ..........    .............           . ..........  ..................................    **..        ... .............................         ..***..     ....          ...........  ...**%......*****.....***1***.........**005.     ..**.%***********..**55555*********..*5*...***.50055**.. *5*       .**555551*555555****55*****..**55**...**55**..***50p055**.        .**************1*****555500pp05*********1*5500000055*..*5*.      .***..***********************..#*%#**..*#...*3**.%...    ..           ..   ....................+***.. ..%****...........**555   *   ..  .. .........  .....%***%.......................%.......        .......................    .....                   .    .                                             ",
"                                                  ..  ......     ......    ..           . ..........  ................... ..............    *...        ........          ................ .      ........ .%*....         ...........#....****.......***.......******#...#***.**505*.    .*********************555**********..55#. **5*.*5555**#..*5*       *5551*5*555111*************..*.********555**#****.**50005*.       ..**55*1155555********15*50005**************555553*#...*5*.      ..**********************%%.....%*..**. **...***%..**%......        ............*%+++%%%%*......+***.....*****.......... .****   .    .  ...........................................  .........*        .......................    .....                        .                                             ",
"                                                  ...   ....     ......    ..           . ..........  ..................  ...........+%%..%%....        .......           ..............................*..%**....        ...***%%*...*%....*................*..*..***#..#**********      .*553*1***********1******************55*.#*55*.*************   .   *55******11****1****1***55****..**55*115<************5*55**       ...55555555555************5055***1********.********...*5**.      ..******5**********1<1******% .**..**. ....******.***%.  ..       ....%%+%%%%***%%%+%%%%*.......%**.....%***........... .....   .    .  ...........................................  ....    .*        .......................    .....                                                                      ",
"                                                    ........     ......    ...          . .......... .......%........... .............%%++*+...          ....      ...   ............................. .*  .**.           ...........***%..... .***......*******....***..******..*..      .*****1**********555**..********111*5***115***.*..*********.   .   .**<<************11*55***51*15*.*15555*1******5****55*..***.       .*55555***5551***********555****5********.************1*.       ..******5**********555*******.***..**...**%*.+***.****.  ..       .*....%%...%..+++......%%%.............%............. **...        .  ........................................... .....    .*          .....................    .....                        .                                             ",
"                                          . .       ........     ......    ...          ....................%..........................     ..           ..     ..........          .......%%+*%.....  .*. .**            ...........***#%.... .***%.....********...**...**********..     .********<11*****555*....*******11555**5555**.***1551*<****.   .   .**5555**.*******<1*5**.****15***5555****1*5555**..*55555*.        **5**********555511******555***551**<*******<***11555*11*.       ..*******************.***....*55.%<5*.*15**.....*555*....%       .*............................   ......... ...........**. ..          .............%%......     .......................    .*          .....................    ....         .........   .   .                                             ",
"                                                       ........ .          ..          .................................................  ...  .        ...   .........%%.          .......*%%....................       ......*%************...************%%**..*%*%...******55***      .*555551****************155*<*<555555****55**<*5555555=**5<.       .**5555555***155555<55555555555555511***5555555555555**555.       .*5*******1*55**15555**.**555****5*******555*********..*55.        .*555<**************<55************%*%*#*****..**.......         .**********%..........***%+...............***%%*%%%. .. ..        ........................................................ .         ...+%%++.................. .....  .....          .  ...                                              ",
"                                                       .......  .          ..           .. .............................................. ...  .         .    ....................................................       ..........%**********...%%%....%*******..****..*******<<***      .*555****************************************************55*        .***11115555555555555555555555555**<***551*****<555***555.       .<555***5<1*55***5555*****555************1551**1*1****.*5*.        .*3553***********..*********5******%....******.**........        *********...................................+.............         .............................................           .             ... ..................  ....  .....                                                              ",
"                                                        ....       ..      ..          ... .............................................    .  .         ..  ................................................... .       .............**#%***************.....++...*..*.*******1****       *************************************..*****************55*        .********50000055555555315*<********<55**********51***555.      .**55555555********5555***1555****************55555****.*5*.       ..****<******************...*1***+........**<<*****.......        .****#%**.................................................        .............................................. ..        .         ................... ....... ...........                                                              ",
"                                                        ....      ....     .           ... .............................................  . .  .          .  .................................  ......%%*......   .      ...****.........%.**************.....++...*..**************       .***.************1*******.********11*.***11********;*55555*.      .**5555***5500055******************<55555**1115**1551***55.       .55055555511<<***<555555***551***************=111*******5*.       ..*****5*****************...****%.... ....**55**#****.....        .***********..+............%%**%..........................         ......................................................  .        ..++++....................   ...........                                                              ",
"                                                        ...       ....                 ... ..................................................  .          .............. ...................     ....%***%....   ..      ...******%... .....*************......+...***********=*****       ..*..************551*****#*******155*.***1111***<355550005*.      .550055555555555**..**************3555555555555555555**555*       .50055555**111*****55555***<5555***********.********..*555*       .**..%*5**********555***%*#***....    .....*355*.***.. ...        .***********.++++....+...%****3*..........................          ...................................................... .        ........  ..........          .  .......                           ...                                ",
"                                                         ..       ....  ..             ... ..................................................  .           ............  ..................      ....%%%**....   ..      ...%*..............%***....***............*************..**.      .****55**********11****....**********.***<1*******35555555*.      .*550555*5555555**............****3555555555555555555***55*       .*55515**************155****1555**555511**************<5**%.      ......************555**..........     .....**55*.***#.  ...       .......*****...............%****..........................          .................................. ................... .        .++++...  ..........          .  .......          .  .              ..                                ",
"                                                                        ...                  ................................................  .             ........... ....................    .............    .                   ......+%+.....................%%*********%..**.      .***555*************......  ...........+*****%....%%******.        .********3555555***..........%*****;355***********51***53*.       .**.%********55*******3**#.*555**555555533;55555*******...             .*************..     ........   .....+****..%..                     ..............    ......         .................          ..................................  ....               .        .++++...............           ......             .  .                                                ",
"                                                                        ...                   .......   ....    ....  .......................  .                .............................. .................                      ...............   ...............%++++....  +*.      ....*****%...%.+......        ...........%%................          .......***5555***.............*******..........********%         .  .....****555*%..%**....*555*.**********555553****#.                 .%**%.....**..        ... ............***.......                      ...........          .... .....................           ... . ......... ......  ........    ....              .         .....    ...    ..            . ....                                                                 ",
"                                                                        ...                     ......  ....    ....    ........  ...........  .                   .......  .......    . ............. .........                     .................  ............ ..........   %*.           .................. .. .......... ................. ..              .  ....*****..................................**..%%.              ...#***555*.......   .*5*. .......%%********#...    .              ............      ..       ................   .   .                 .............. .      ...  .....................                   ......  ......  ........    ...               .                  ...    ..              ....                                                                 ",
"                                                            .           ...                         ..  ......  ....    .         ...........  .                    ......        .   .. .............     ......                 .................................   ...... ..   .*.             ..........    . .......*..%*%................... .              .. ..    ....  .******................................                ...**55*%.......   .*5*.        ........... ..    .               ....  .....     ..*       ........ ......                        ...+..........+............. ............... .. ..                   ......  ......  ........    .....  .....      .           .......         ..  .         ....                                                                 ",
"                                                  .....     .     ......                                ...    ...     ..           .....  ...                      ...          ... .+.. ....*..   ....                                  ..     .    .**.  ....+.  +.+...XX                      .. ..****#..      ...  .  .*....***...%............                      ..*.. .....**.. .............%*******....**.                      ..   .***.... .**.  5. *#  ..5.  .....  %..                      ..........  .**  .  ..  *  ..+...    ... ....                  ..   .........***.  ...       ............                              ....++*%.. ..  +.   ...........                                     .                               ..                                                  ",
"                                                                                                                        .   ..              .                              .....     ..    .. .       ..    ....                          .........    ..  ..  ...  ...X        ...                     ....     ..*5*       .    ..               ..                      .+*..      ...    .            .... ........                      ..   .....+....++...*  #.  ..*          ...                           ....        .  ..  .    .      ...                         .   ......    ..         ...      ..                                              .   ..             ...                                                                                                                       ",
"                                                                                                                                                                                                                                                ..              ..  ..X                                ..  ..     ....       .                                             ....                                                               ....    ..         .  .. .  .           .. .                                            .                                                                ...                                                                                                                                                                                                   ",
"                                                                                                                            ..        ........               ..     ...                       ...  .............                 ... ......                     ....++..................   ...**.......*%..%..                 ....... ...**%%.%%+%.   ..... .**...........%**.. ...       ..    ..**......%.***...   ....   .......  .........***.   ..         ...****...................%........*****.....**...                   *.....  ........                  ....  .......              .     .................     ..                                                                                                                                                                            ",
"      ....       ....           .....                    .......................    ...%.*...............                 .********#.#*****...%*..********55555************........         .*55555555500055555555555555555505555000005553**....              ..*558853333333899993338888900000pp050000000055****5555.       . *0005555550000000000005500000000000550000000ppp05555**.     ..   .*50p000000000pp00055550p5000000000000000000050005**..**..     ...*0pp000000005555000555500000000000000000000000005........         .*0000055000000000000000005555555000000055509955******.       .     ****<5*=*******5*******55555****555**35******.....               .....%....*****#..#****...%**%.................  .                 ...         ...    .          ..          ....                   ",
"    ......      ...+....    ...........                 ...+%%+++++++++++++.........%************%*******..              .*55555555*******5**3;55555555580000000005500550555533*.          .509000000000pppppppp0pppppppppppppppppfpppfpppppppp0**.        .*550ppffdsuuuuuusddddduurrrusfffffffcfpffffpfpffpp00pppp0*         5ffppppppfffffffffffccfppfffcccccffppfpffffffffffpffpp05*****.   *0pccffffffffcccffpp00ppppsffffffffcccffffffffffpppp05*5*.   .... *pffppppffffpppppfffffffffcccfpppfffffffspppfffffcffp005*..       *0pppppppppffccfffppp0pfffppp00pppppffffppppppp0055555*.      .   *0dp0900000000000000555500000055555555800055500000000555.          ***3355555555551<*<555*****333******#.%%***%%%%.....              .................  ...      .........    ........                 ",
"     .  ..       .....      ............                ...+++++....++++............******%%++++**********+...           .********3**********3;5**55****555555*555550000005**....          *00555555055000000000000000000pp0005550000pffppppppp05**..       *50ppsfffdsuuuuddsusduur9990ppfdpp0pffffffppppffffppp005,*##      .5pppp00ppffpppfffdssffp5000ppfccccxffpfffppppffffp095**..        *0skccfffffffccfpp0555500ffffffffffffppppppppccfppffp0**..        3ffffppfffppp0pppdfffffppffffp00ppppppppp00pffffpp05***..        .5ppp0pppppp0ppp00000000pppp0000000000000000ppu00555555*..         *0fp00ppp00055000000000000005555555555555555555**5***..            ..****3*5*************+.....**3;*****................             ....%........%..    .    .........          .....                 ",
"          .        ...      ............                 ..+....................%......%............******%.....         .33*********...************....******.*****55000p05*...***.       .0000000000005555000000p0pp00pppp0055550000pp009555555555**.     .50000upspurrrruuuupdddsuuuupfffp00ppppspp0550fffpppppp00505. ..  .50055550ppfpppppppppff0555000pffccfp00pfpppppffffffp00555*.      *9pffffpp00ppffpp05555005pffffffpp0pp00500000fffpfff05*****..     ucczcffcfpp005580up0000000000555890000000550pfffpp05***55**.     .5pp00pppppp00085500p000ppp0000ppp0055550000ppu00555555****.       .55550p0005555555550000050000005555555555555555555555**....          ...%****5555555**;;*+....*********..................             ......  .......        .........            .....                ",
"        ....        ..      ..   .......  ....           ..+....................**%#.................*%***+%....         *55*..***.........#**%......  ..*%%........**500pp0*%.*;55*..     .*55000p00055***5500000000000pppp005555000000551***15550005*     .5055;5000883355889rsdffdssppfff05500pppp05**0ppppddfppp0ppp*...  .*******50ppppffffffpfp05505550ppppp055000000ppfffcccfpfpp05..    *50p000005500ppp055550055pfffffp000555**55500ppfffpp05**5005.   . pcfpffff0005***5550555555****1<*155555555*55pfffpf05**50p00.      1055500pp005551535000000000000ppfp05**50ppp0005555555550005.      .*...30055****%***3500055550555533555*35553*3559000055*****.          ...%*%*55555555555*+.....*****%.....    .....%%....             ......   ......    .  .......                .....               ",
"      .......       ..     ...   ..............          ..+..........++........******...    .........#****%+....        .**.   .....    ...%....      ...%*.........**55005*****...%.      ....*****.......%*5555555555500055***15555555555555000pfp0*     .555***5553;****;*%;9rpppur000p05**550ppp5***5pppfffp055*0pp*      .******500ppppppppppp055555**5000005**555555500pppccfpppp0*      .5005005555500p05***5555*0fffffp055**...***550pfccp0555**005      *0**5555.555*****555555555*************55*55ppfppp5*..*5555.   .  ***..*5551*.******5551*555555500005*..*50p05*********50pfp0.      ***  .55***.......*590055****..........*%.....**555**.. .5*.          ...%%************...    ...***.....    ....%%**%+...            .....     ..+*..  ..........                 .......             ",
"                              ...........%..  .          .. .  ..................***5*..  ..........##..%%%+++*...         ................. ...............%**%........*.........          ......****..*********....***555*..******51*************0pp.     .*55*355355333333;***5909;+*5555555555555555555*50ff0*..555*       .**5555555555555555555555555555555****115555555555pcf000555.      *5505555555555555555555550fbbf0555555555555550ppp005**5555*       *50055555555555555555555555555********55555555555*5555<***.      .*5***5555555*******************155*****155**********.#50p0.      .**..***....**......**15**%%%..................*5003.  .%..        .................................................**..%. ..         .  ................. ....%..                  ...                ",
"                              ..............  .          .. .   ..................****..  ....................*...         ........................... .......%%...................         ......*****.*********....****15************************0p0.     .****355335333333;;**3998;+*5555555555555555555**5005...*55*       .**555555555555555555555555555555555555555555555550pp5555**       *5505555555555555555555555pffp5**5555555555555000055**5555.       *50055555555555555555555555555515555**5555555555**555555**.      .*5****5**551********************511****155**********.*10p5.       .*..***.....*%.......**...+%................. .*5*.    ...        ..................................................*....            .  ................. .......                  ...                ",
"                              .. ....  .....  ..            .   ................ ..%%%..  ....................%...            ........................ .............+++.++.........         ..%%.#*****.*********...#****<*************************505.     .*55**55555555555;***5595*+*5555555555555555555***51**.**15*       .**55555555555555555555555555555555555555555555555500*555**       *55055555555555555555555*500055***5555555555555555551*5555.       *505555*555555555555555555555555555555555555********55555*.       *5*555**************************1<******1***********..<905       .+*..**%****....*..........%*%................. .%%.     ..        ..................................................% ...  .         .  ...................  ....                  ...                ",
"                              .. ..... . ...  ..            .   ................  ......  ....................%...            ......................................+++.++..........        .+%*..***************....*******************************55.     .*55**555555555555***<5555**55555555555555555555******5**55*       .**555555555555555555555555555555555555555555555555551000**       *5505555555555555555555555555551155555555555555*55555*5555.       *555555*5555555555555555555551**15555*55555**********5555*.       *51551*************************************************55*       .+*..+******....***........+%%*.........+...... .....    ..        ...................................................  ..            .  .  ................  .....                  .                 ",
"                              ..........  .. ...         .  .   .....+..........   .................%%%%%%%%%%%...          .....................................+..+...++.....+.*..        ..********%#**********..********1*******.***********<*****       **5**5555555555555***5555*1555555555555555555555*.**509555*       .**5555555555555555555555555555555555555555555555555550p055       *5505555555555555555555555555555505555555555555**550055555*       *55*555*55555555555555555555**********55555**********5555*.       **5555***************************************************.        .*...*.******.#*5***.%%%%++%%*.......+++..................        .................... ..............................  ..  .         .    .................   .....                                   ",
"                              ..........  .. ...            .   .....+............................................          ....................................++.............+%..         ..********%.********************5*****...***********11****       .*55*5555555555555***1555**555555555555555555500*..*000055*       .**55555555555555555555555555555555555555555555555**5*5005*       *5505555555555555555555555***550005555555555555**550055*55*      .*55*555555555555555555555555******55**555555*11*****15551*.       **55555<*************************************************.        .*...*.%*****..*55**...%%.**%**......+++...........***....        .................... .............................. ... ..         .    ..................     ..                                   ",
"                                ........ ... ...         .. .   .....O.............................................        ..........................%%%%.......+........%%%%.......        .%**%.****..*****************************************5****       .*55*55555555555555*55,5555555555555555555555555*..*555555*       .**55555555555555555555555555555555555555555555555555*5055*       *5505555555555555555555555****5555555555555555***155551*55*      .*55555555555555555555555555555555555511<55555555***11***...      .*5555555************************1************************.        .*..**......%*%%.%%.......***................... ..++.....        ..................................................% ... ..             .....................    ...           .       .             ",
"                                  ..............         .. .   ................*%..................         .. ...        .........................%%%%%.......++.......%***%....          ..**..%#**..*****************************************5*55*       .*55*555555555555555*=55555555555555555555555555****<51**5*       .**55555555555555555555555555555555555555555555555500*50555       *550555555555555555555555****15555555555555555555111**1355*       *55*55555555555555555555555550555555******555555**551*.....      .*55555*1**1*********************11******;***********.****..       .*#.**......+*%...........****.*................ .....  ..        ..................................................% ... ..             .....................                  .       .             ",
"                                 ....  ...%.....         .  .   ................**+............................ ..         .........................%%%*...... ..........****%..            ........***.********************.*******************155555.      .*5555555555555555555=1*555555555555555555555555*33<*=***5*       .**55555555555555555555555555555555555555555555555000*555**       *5505555555555555555555555555555555555555555555055*****555*       *5***55555555555555555555555555*****...*****5555**551%.  ..      .*5*****11115********************55*****;55************1;**.       .*..***....%+%%. ..*....******.#...+................... ..        ................................................... ... ..             ...................*..                 .       .             ",
"                                 .... ...%%.....         .. .  .................**+............................ ..         .........................+#.................%**3**%..            ............********************.....****************55555.      .*555555555555555555511*****5555555*5555555555555555515*55*       .**5555555555555555555555555551***5555555555555555000******       *55055555555555555555555500500055555555555555000055<*5**<5*       .*****5555555555555555555555;**...... ...***5555*5551.   ..      .*******************************1********;;*************553.       .*******%..++%%%.%****%****.*..#...++.........%+++%%%.....        .................. ................................ ... ..             ...................+.                  .       .             ",
"......                .........................         ..*.    ......................%%**.......................               ..   ...#***.#######........##<#  ...+**3553**%... ..        ......... ......*******%.%**593.......%*%.%*5551*****%*90*     .5005*1500555*555000553***.***55555***555555555****355555555*      .**5500055500000051****.%*.%**..*550000095555555505555**500.      *009555555505500055550005550000555*33355555555555990005..55        ..**5505555000555000555**33*..  ..*%.*****35555595***.....       .*.....**%.*.*****5353%**;555555*.......%+**1555****..*595*       *5**15*.+%.%****553**...  ....***.......+%..............+.        ................    .......  ......O%%%O X XXXXXXX  .......       ..   ......XX.O........X    .................      ..             ",
"   ..                                   .....            ...    ...........        .......         .  ......  ..                    ................... .  ..##.    ...%****%.....  .           .....       ......%.....%***...   ..%*.**5555*****.*55*      *55***1555<**55055****.....  .....  .*********%..%******355.      ...*55555*5555555**.........*.****555005553****1555**1*#*55       *555****5555555555***555**555555****33;55555*5555555555**55          ...**3555555***5055*%....+.....%*.......%****555***.....       .. ...............%%%%...%*****#....  ....%********#. ..**.      .*****1*.........***...     ..............................              .............  ...       X ...OOO%O..........  ...                ....XX  ..O.......            ..  ....                       ",
"                                                                 .........                              ....  ..                    ...... ............... .....    .............  .               ...           .............     ..***555555****..**.     .**************35<**...............  ..............*********          .*****.***555**...%......*%%%*******5553*****5555555*555.      .#**%.***555555553*********155**#.*355555555555555555**..55             ...**55***..****.......*..*........%%*********+**....            .................. .........      ...%********..   ..        .**.#*#....  ........      ................  ............              .................         XX.....O.XXXXXXX........                  X.XXXX......XX..                                           ",
"                                ......                           ........       ......              ............                   ....... ...........#.............................                ..             ......  ....   .....***11*****.  ..    . ......*.......%*5*...........%+%%......................#*%*.          .........******%.#***..*%***%......******%..***555551*5*         .....***55555555*********51****.*****555555553*******..**              ..***5**...........#********......%%******%+%.**#%+%             ............................ ...........**.....              ..  ......  ..........  ................................                ...  .............      XXX......         .......                 XXXXXX.....XXXXX                                           ",
"                              .......                             .......   ............           ...........*+.                   ........############...........................                    ......      ......   ...   ....  ..........   .            .........***.................. ...........   . .......              .  ...******.*************%....**..........****5*+..            ...***5555553********1*******......%*******+%.........                .#*****........*****5*****........................                ...****.#....%%..................          *.                  ...........................   ....................                      .................. XXX.....X         ....+..                   XXXXX..XXXX                                              ",
"                                ....                               .....       ........               ...... ....                       ..........##.#................       ......                     ........   ......   ..          ..........   .   .        ....**....*..........%**....................%%*****...   .              ......%..*****%%***551**.***<***%.**%***+.**...     .           .....*53**#...**********.......**********.+......                   ...**..****......****.....%..........    ......                   .****......*%..................    ...   .                       .......................   ..........  .....                       ....................      XXX.O%OOOOO++. ....                         XXX                                                 ",
"                                                                                                                                                 ...    .....                                           ..                            ..........                  .. .....       .......%.......*.         ...%%*%...                              ..... .........  ...*+......*....**...                      .....   ......  ..... ...................                         .  ....        .        ..........                              ...       ..      ..          . ..... .                                        . .                                                        . .. .                                                                                                            ",
"                                                                                                                                                          ..                                                                                                         ....                      ............                                                 .                       ..                                          ...                    ..                                                              ...   .                             .       ..                                                                    ..                                                                                                                                                                  ",
"                                                             .                                                       ...  ...    .                        ...      ...   ......     ........  .........                  .........          ..........  ..    .. ....***.                      .%*..........    .....  .......****.... ....         .       .   ..........     .... .%. .....*..  ...........          ..       ..*.              .....**.   ...*..  .........                   ..*+.........  .............*...*.  . .......                     .. .........          .......  . ...  ........                       ...         ... .     ..        ..                                                                                                                                   ",
"                                    ....               ..........                     .................... ...........%...+**...***...                  ..*****.****************...*********************.........        .********....*555550005555900**5****555555550005**......           .**5555555555555555555955*555555550000555*355*******.....       .*5590000000095555800005000550000055550000980505553**.......*.    .*35990555000000500505000005***555055**550005555**..........      .*0u005555555555005**55555***05***.****55555*****    ......       .*******55***55555555555555555****155**5555553**%.                   .*<**.......%************.......***......**.*......             .................... ..  ..... ...  ............                    .                                 ",
"..                     .........................%%....%*****%***********.            ..*5533********5595%   .*%9003***. *3555000p0*50005***5*.         @5050pp00ppppuupppp0ppppppp0000p0pp000000pppppdfffppp005.        .50p0ppdsp055*.5pppfcfpfcfcbbcppf0.5pfcffppfcfpppppppppf5. ..      *0fffppfffffffkccccffffffffffffcxcccffffffffccffpffccxsp*    .   *fcccffkcccccccccccccccffcccccccfffppfcbbcffpfbbbcfccdpp03..+.    *pffcxfffffffccccccp0000upfcccfffcbccfffffcbbfcbbcfppff0*...  ..  *pccffpppppfffccccxpffffffffffp9. *pccfppppfffcffcffp005**.       *0pppppppppppfffffpppppfffpppp0000ppfp0000pdpp00p0005555.   .     .*50000p05**.*50050uppp0550p055*. #0p55555555590555555**          .333333;**;;;*;*;;;;3555**************++%*%%+++......              .*........   .*...        ......   .",
"                        ................................%***...*.*****#*.             .**35555555**555**.   .*33505*...*3535555000500000**...          *0000pp000005550000000pup000000ppppp000ppppppupppp00555*.  .     .5pppffccffpp5*50pppppp00fxffff0**50pfffffffccffffppp0005...    ..5pfcccccccccffxccffffcccfffccccccccccccccccccbbcffffp05+ .%.. .  .5pfffffffcccccccccccccfppfdppdfccffffffcbcfdffcbbcffpp005*....    *pfpccccfffccbbfffpp05550ffccccccccfffpppffxcdffffpp0095****.     *0fccccckcccfpffcbbfffffffcccbp*.*pfcfdffffffffpppr05*..         .50pfffffffffffffffpppppfffpppppppppppppppppfppp0ur005 ...        .*50pppppr055**50p0pppp0p0p00p05..*500900000050855<*5**.   .       .9853;33588;;;3333;3355***************++%%++%+++.....              ....*%%%.........         ......    ",
".                       .  .......................................******.              ..*35355555555*.. .....**355*  *5;*****55559555000*.ooo         *0500tt0555*****5550000000005550000055500000pppppp051****...     .5pppffccffpp0550pffppffpffpppp5*5pppppffxccffppppppp00055**.    *0pfppfccfffffffffppffccccffcccccccccccccccfccccccfccfpp05000*     *0pppppppffcccccccffffpp000000pcbcffppfffffpppcccccffp0005*...    *pppfcccffffccbfp00555555fcffccccfppppp00pppfffpppfpp5****55.     *50pfccckfpu5550rpfppppppfffff5%*5pp00ppppppffffffp05******.     .50pfffffffffppppppppppppffffppspfcs000pfffppp00000005.****.      %*50000000005***500055505000500*.*5055000005555555555*.. .%*.      .5;*...*358;****553335****%...+********..........+...              .*.............       .........     ",
"...                         ................................  ....*******.....          ....+********.   .+...*****. .55;**...***553350pp5*.o.@@.      @588855,,***....***5555555553***5555**<5*550pppppp051*1555**      *0000ppppppp05*50pfppfccsppp0550ffp0000dfffpp00000000ppppp0* .  .500050dfpppp0000000pffkccffffffffppppfffffpppffcccbbccffffff0     .5000000ppfcccccccffffp0055550ufcffpp00pppp00pffccccczfpp05*..    .0p0ffffpp0ppfcp005550555fccccbccp00000550000cxfffccs0***500.    ...**50pffp05****5500955500005***50055550000ppffffcfp0555000.     .500upppppppp05555000000ppppppppppf05*50pfp0000555055555000*      .*5555555505*%..***555550005******551*55555****5500095*...**.       +.    .*55**********<***......**%..............+++....            .........  .          .........     ",
"........                    .............................       ..#%******..*.                ........   ......*5*  .*3***.......**;550005*..@,;.      o*,,**@@@........************.******..*****50pp0pp055555005.      @55<5555005555***55000pdppp0*.5fzf05*150ppp0555555550ppfccd* .   .555**50000055***500ppffffppppp0000500ppp005000fcbbccfppppff0      *555900pppfcccffffppffp005550ppfpp000000000500pfffbbbcffp0;.     .505pp0055550ppp055500005pffcccfp000555555500ffffccfp0555500.    .*..  .500009555555555**555*.. *505*555**55500pffffp00555000.     .*555555555555****555555555000000005***50000555**<*5*500pff0      .***.******3*.   .**50pp0005+  .*5..*******.....50up05**..**.       .     .%***%************.. ....................%+%*......         ...                    ........     ",
"........                    ................... ........       ....#+.....  .                   ....    .......**...*3+.***.......*5005*....o@*@o       .@*@.o..**%...****..*******...****...*5****555*555*****55*.      .55****=5<5*<1*.        505..*5*005*.**500055**55555500pfcp% ... .50005555553***..*5500pppp000055555**500555***5pfffp05****505   .. *55555000ppffppppp00ffp0555550000055555000555500pfcccfpp05*      .<050555***555000055000000pfbcf050p055555555550pfpp05**0555*.    .*5*. .*5000005555000055555*. *555*5pp5*555550000055******55#      .*3****************5555***5555555.*******55****.****%*.50p5      .***.*****.....   ..*55955**   .**. .**%....   .*5553*....%*        .....%*35;.........***...   .....         ......%%*......         ..                     . ......     ",
"                            .............................   .......... ...  .           ..    ......  .......%%. .*5*...***........*55*. ..+.@@.        o@*@oo.********************************..***<5************.      .*5151*55555555*.  ..   ..  .***505****15505555555555*55ps0.  .. .*0p05*5055555***5555500000000555555550505555550000000000555*   .  *55550000000000005550005555550555550000055555550000pp00505*   ..  *0505555555000000550000550fcfp55500555555555*50pp5***505**.      .505***55555****5550000055*. 55355055505**55555555555555555.      .*5**5555*******5*55555**********.*555***55************1005      .***..*****.***.         ..  .%....*..****......%%*...   ...         ...+****+......................        .................         .. ......                ......     ",
"                       .    ..................................................          ............ .........%  .35.   .%*****... .%%.. .**@*@.         @,*oo@************************555****..****155***********.      .*55555555555555***55<55   ...*55555*5555505555500005*550p0*     .*5055555555555555555555550055555555555555555500055550000555*      *555000005000555555500555555555555000000550000555050005500*   ..  *5505550000000000000005550ppp055500055555555550005555005**.       30005<**555515550009555**...533505**5p5***5555555*5555555*.   .  .*51*555555*15555555**1************553****51*********55500*       .***...********........ ... %*. .**..****%....%*...........          ............... ...............       .................         .. ..........            ......     ",
"                        .   ............   .................%%...... ...**..%.          ............ .............**.    ..****...%......+++@@.o         .;*oo*,**************1*****************115***5515555<**1*       .*5555******155555555005%..****5555555550005555550055555500*     .555**555555555555055***550555555500055555555000055550000555.      *000000555555555555555550005555550000055550pp055505500550p5   ..  *050555000000000000005550555500005500055555500555000005155*      .*50555*****500000055**...**5555551*=505**5555555**555553**.   .   *55555555515555555****55555*****51*.******<*********55551.       .*****.#**..%****.*****.*.**%....**...***....%**..  ..++. .          ......  ....... .   ............     ........  ........         ..  .....    ..           ....      ",
"     .....              . ..............   ...............++%%%.....  .....*%.         .........     ......    .....%.    ..***. .5*...%*+.o...o         .**oo*,..#***....**********..********5555**.***555555<1*#       .**55<*******1*5555**5*.555**55.*5500555005****555555555555*     *551*5005555555550055***55055555555005555555500005550pppp05*       *50000005555555500005550pp00000500000555500pp0055550pp550p5   ..  *5505550000055000p000550055*50p0055000055555005**5000555555   .. .*555555*..*55005*****....*505055*5005*00555555**55550555**.   .   *55**555*51<555551****555555515505#..*=*..1***********#...       .*555*#........**..******.*5. .***............%*.. ...%*. .        ..%%*%.............    .....%.................   ........         ...           ...         .         ",
"                       ....++.          ................++++..........  ......        ...........              . ....%%............*%**%......**        ***...***....**...**1111*<**+*****1555355*...*551****55*..       .*55555555550555555555555555555550058555005***555555555*55*.     .***5000550550000555000005555555555550500000555000555pff0005.      .55055000000555555005555555005000000005505555555500000550p5   ..  *00**5555000000000005055**0pp055505555550000pp005555550055*      .505*155*p5.   ... ....*****55555555555555555555*55555005*.       .*555555555555555555**1555555555500555******************1*.       .*****....................**************................. .          ...................................................   .         .*%.  ..........                    ",
"                       .......          ..............................  ......        ...........             .......................*%%....*.**        ***..+*<*****<********************11335555***555<1**=***..       .*5******5551*5555511**55****55*55555555555555500000555*55*.     .*555000000000000555505055555555555555555000055005555005*555.      .50055000000000500000000000000050005555505555555550000050p0   ..  *00555500000000555500055*50p05555055550000000005555555p055*      .555*5555p05*..********5555555555555555555000055*5555555*..       .*55***151***5*********1113;**11<555*******555555555*.**<*.       .*****.*****##....***%...............***........+........ .         ....................................................             ....  ..........                    ",
"                      ....... ........................................  ......         ...........  ....................++...........%%%....*.*.        .*+..**<5****55************************555555505*555**....       .*5*11***********555555535**=55555555555555550000500555555*.     .555000055550000055555985555555555555555500000000000005* *5*       *00050000500005000000000000000555555555500555555550000050p0    .  *0p055000000005555550005500005555005000000000555555550p055*      .155*550500055**55555555500555555555<<***550005**555555**..       .555555551*******555**<**********551*******555555555*..*;*.       .***1****************%**.............****......*+++...... .          ............................................     .              ....  .....   ...                   ",
"                      ......  .................... ................... .......         .......................%%*.......++...........+**...****.        ....+*<******11*************11<******%.**5555555*555*. ...       .*555555*1<******55555555555555555555555555555555555505555*.     .5050005555555555555055555550055500555*550000000000pp5*..**1.      *0005555555055555550000000000055555555550055555555050005005       *0p000000000055555550005000005555000000005005555555500p005*      .*55*50095000055550505555555555****5***..*55055**55555**...       .555555555555**15555555555555555555****5555***555*****.****       .***5********...********...*%*%%.....*****.....*.+.....%...           ..........................................      ..             ....  ...     ...                   ",
"                      ......  ........................................ .......          . ....................***%..........++.......*%*%%.**+**.        ...**3*.%%****#.****************%.... ..**555***55**.           .*55555555555**5555000055000555000055555505555555***5050005.     .5805055555555555555000055550000000005*15500000000pfp5*.*5**.      *5005550555555555555555555555555555550050005550555550055505       *50000000050555555555000000055555500000555555550000000p005*       .***555055500555550555555************* ..*5955**55055*.....      .555555555555**355550995555555555*33*555555***********#****       .*****.*****%....***%%*....*********%%%%%%%....%+.....***.*.              .......................................     ..   .          .            ...                   ",
"                     .... .   ..............................................%..        ..  ...................****..........++.......%%*.%..*.+%.         ...%**.******#.*************%......   ..*555**<555*.   ..      .*5555*53*********55009555555555555555555555555555555550005.     .5005055555555555555000555155555555551*555000000550p05**0555*      *5005550555555555555555555555555555000000005550555050055505.      .50500000000055595555000000555555500000050555550000000p0555       ...**5555555500055055555*****....*...*...*5555**50051....%.      .*5*****5533;*****35555555555555*******5555.%******%%******.      .***1*******....***%%%.....................%%***+.....**%.*.             .........................................    ... ..         ..   .....    ...                   ",
"                      ... ... . ...............................................         ..   ........................................**%....*..+.          ....+**355*****........................*555**5553*......      ...................*****************.%****55559599805555555.     .555505550000555555555555**************555005505**55*..*0050*      .5555550055550000005**********5555000000p005555555005005505.  .   .5555550000000000005555555555000550000000000550000000005555.       ...***5555555500005555555***............**555550055*...#%.      ...................%#**..%.+%%%%........#******55*****...**.   .  ****11**5********%%%........... ............%**........+..+             ...........................................   ... ..         .      ..........                   ",
"                           ...          .......... .......................  ...         .       .....................................***..... ...           .. ..**;*****.  ..................*. .*155***3**%......       .     ..................****.#**.........*5555595005***55*.     .*5**55555555555551155*5**..**...#*+..**555555**%**.. .*5555*       .*****5555550000055***********=155505000055*155**555005555.       .***55585000000005555******50005*5555555550555000055555*55.         ....**5555***5055<<*5555****.......*%...*3555555**..%**.              .. ........................    .....***=***#%*....*.   .  .*************.+%........            ..................+...               ......................................       .  ..                 .........                   ",
"                                        ....    ..   .......    ........    ..                     ...........   ....................***..... ...                ..**...............   ......%*.  .%**..**.........              .......**.......***.%%.%.........%*.****55505*..***.     .%...********************...#*#**#*...********..***.  .*5**5*        .....******50055****************3<5550055******%**155**5*.          .****55550005555**.....*50005*****55555555550055*****5*           ....#*55*. .*5***..***********%..**%....%***55*...***..                .......................... ........%****....   ...   .  ....*..#...............    ..........    ..................                  ...........      ...          ....            .                   ..... .                   ",
"                                     .......  .....  .......          ..     .                    ............      .................**%..... ...                  ..     ..........    ....%%.    ...  ...........             .....%******#..**********.....%%.**.  ....*5**....*.       .   .....*.....****..*%*..**********..******...*53...******.             .....**553**.**********#%*******555******..*********           ...+****555555***......*50005*..******35*555555**.*+.**                .***   .5.......%..******%.***..  ...%***....***..             .....****+%....*.*....%**..........% ..........    .        .  .. .         ......    ..........     .................                    ......... . .. ..            .              .                    ...                      ",
"                           . .     ..........  ..+%+.....             .........                 ...%..   .*.  * ..  .;* .           ...... .+%+.                       .........   ..%   .......         .......*.            .... ...****.. ..*5*..*55*..  ..%****#. ..  .3  ..**.            ..  .**   *55****5555*******...*.*..*****%.%**********.    ..          ...***********51****5**5*.**. .55<*******55******            ........************3*%**..***#*15**#.***.......*%**.                 ..#*****#.**********...#**...******%... ... .*5*.     ..       .  ..** ...    .*%*.  .55*  .+*.   ............ ...                    ..#...*++%.....   .%.  ...      .. .*;*........     .              ..+**+........+.. ..   .. .....    ..**.......                    ..    .    ..            ",
"                                          .     .....       .......+*.                              .    ..   .  .  .*. ....   .   ............                        ... ..........*.......*****+%%%%.........+.                     ......%**..  .**...**.**3*<*5**55*.39%....#.       .....****<53***505**.........*55****5555*1<**...%*********.                     ...**<******....**555*55**51**.......*1*****..                    ..*****..*******.......****..**555**.....%..                     ..    *******.....****...*........  ..   .*..     .              .  .**....% ...  ... ...%%.%***.....  ...               ...       ...   .....   .. .......      .....+.......  .                       .........       .                 .                                       .             ",
"                                                                                                                     ..                      .                               .    .. ..     ..                  .           .            .    ..     ... .*.......  . .*. .*                    ....... ....  ...      .*..   .........   ........ ..                        .              ... ..  ............. ..                          ....    ......      ........%**...     ...                           . ......  ......   .   ....                                   ....  ..  ..      .    ..........  ...          ..                            .   . ..            .   ..                                                                                                                    ",
"                                                                                                                     .                       .      .. ....   ..                            ..            ..      .      ....            .                    ..      ..              ..        ..             ...      .         ...   ..............         ...     ...                          . ...... ... ........          ....    ..                    .........%...    ......   .....                ...    ...   .       .*  ...........                  ....        .        ...     .    ...  ..........         ...        ...  ..             .      ..              .+OX XX                    ..                                                                                          ",
"          ..                                           ...................................*****.......                  .........****.......OO++OO+%;%O%%%;%%%%%****555*. ....           .*.**.....******55*************5555*.....*....*****.    .          ..********55*...*55**55***505555**5555*53;;***.+..****..         .*.%*555***5555555553*55555*555*5550055**55555***......         ..**5555*.********55550800up5555555555555555*555**......           .*5;*355555******5555555***35555555*555**55555**555%.%*...        #*<55*****55***555<*******5***..***555555*******..  ...    ..      ..*55***53****33**...*....****.....*..5*****%%...... ..          ***..........+  O33OO%%OO...+%%O... .......*...                       ..........   .     ...            .                              ",
"........%%%.................  .....                   .+****5555585555%*....*****55555**555500555555****... .          .5559500000ppp000000933883899993999999999pppffffp05555*%.        *0p00pppppppfppfffffffppfppp00pppppfcccccccccf0rpppp005*....       *0pfffcbcpffffp00pccfffffffccfffffffffffccckffffffp0009*.     ..*0pccccbbcffffccccccccxfffffffffffcccccccfffffffffffffp05*****..  .0pfcbbbccbbbbbbbbfapppfxcbbccccccccccffffffpffffp0000005*     .  .0fffffffxffccccccccccffpppppfffccffffffffccfffpppp0pdpp5*.   .   *0ffffppppppppppfkccfpffppffffppffffpfffffppppfpp055555*.    **.   .50pppppfdp000pppupffcccccccfpppppppp00p000000980p5**#**.        .5pp00000000093O.;9r339933%;39r93355***5533**********#.            .***3553***3***.........***...........%.........    ..             ..",
"....................................                 ..%;3;*%**355****.......**5555500955555999555955555*.....        .*00000upppppp0000rpppuuuuuuuuurrruuurrrruppppfffppp055***.       5fcfppffffffffffcccccffcccfffffcccffpffcffffffccgfffppu5**.      .5pfcbccbbcffffff00fcbcfccbcccccccfffccfcccccccccccfppp005.  .. ..5pfccccbbbbbbbbbcccbbccffffffzccccbbcccbbccccccccccccfp005**..    .5pfcbbccccccbbccfp0050rpffccbbbbbbcccccccccccbbbcfpppp005.**. **.5cbbbbbbbbcfcccccccbbbbcccccccbcccbbccccccbbbccccfffppp05*.   .  .5fbbbbcccccbcccfcbbbccccccccccccccccffcccccfffccffffp055%    ...   *rfcfpfcbcffpfcccfpppppppppppfffffkffppfffpppfpppp03*.*#.        .5pp00000ppppu9%O%3933993;%%39uu99005559555555595551**..           .585505555555;;**.......*11****+....%***..**....   ...            ...",
"....    ..........................%.....             ..%;**%.%**55***..... ..*5500059555****3555555555005..... .      .55500000005555**5500uuur99rr993999rr9999900000p000005*****.      5dcfppffffffffspfpfffffffccfffcccffp0pffcffppfcxfpppp000555..    *pffccfffffffpfff05pccfffcccffcccccccccccbccccccbbcfppp00555**.  .*0ppu0ppfcccbbbccffcckfpppppppffccccfpffccfpcccccccfffpp05*.      .0fffccfffffcbbbcfp00000pfkccccccccffppffffffcbbcffppp005*505. **.5bbbcccbbcfppuppppffcccccffccfffffffcffffffcccbbccff05555**.     *0fcccccbbbcccffffcbbcfffccccccccccffpfffcccffpffppfffp05**%.      5pfccfffcbcfp0pfckppppppppppppfpppppdp0pffppppppppp05**.*.*.       5555555900rr00;.O%33393;+OO%3993505555555;55000005***...          *555553***555;**+.... ..**<****%.....%%%..%%**...                 ...",
"............   .....  ............%***......          .+%+....***3**%..... .%*55555555**....*****5555800*......*      .5555599555****..*35009833333;%%;333333333550pppp0005*#*555*      *pfp0pfffppp000000pppppffffffccccf0000pfkcgpppfp0050000ppp05.    5fp00ppfppppp50pp5.0xcfpfccffpfcffffffffccfpppfccckfccfp00pf0*.   *50055550fccccbbcffccffp090000pfcccfp00pfcfpfccffccffffdp05*.     .0fpsfcpdfppfcbcfp00ppp00pfcccccccffpp0000pppffcfccff085550p0. .. *cbcfffccf055555000ppfpppppp000050pppp00ppppffccbcff05550005.    *pfffffffffffppp00pfcfppffcfffffcccfp00ppffffp000550ppp059pp5.    .0u00pppppfp0555ppp05ffppppppp0pp0000u0000000000pppup055**505      .**.***3500ru0u8*++39rr3+O.O%;333351********3500005*****#.         .*5**....***3**%........*55***%...  .......%%%......              ...",
"............. ......  ......+.....%*****.....         .........****.........%*55555**%....  .%****555005*.  ...*      .555555553****...**5993;*%%%%O..%%%;%%%%%%*5pfffp0005*.*5005.     *0p000000055555500000pppppppfffcfp55555pfxfp5555***500pdffs0*    *05550pppp000*500* *pccffccfdpppp0000pppfp0550pfffcbbbfp00fc0*    *50500550pfcckcbbcccccff055500ppfcff000pffp0pffffcccccccxfp5.      5ppppfppppppfcfp000pp000pfbbbbccffppp555500ppfffcbcfp05900p5     .fffpppfpp5*00000000000055555555555005550050pffcccffp000pfp0.   .*0pp000000000055550ppp00ppfffffffcfp05500pffp0555**500000uxcp*   ..5*%%*555000*..*505**pfpppp0000p05555000055*5500000ppp05*50pp      ....****5500upsr3%+;9ur3..+%%%;333**.........#*50005*555**.        ..*..   ...**%..........*555**%..      ........++**.. ..          ...",
".....................................+%%*..          ...  .*...........%%.. .*5095**.......   ...**;0005*. .**.         *.**************************************.*50pp055=**.*555*      .55555555555555555*555555555550005*5p0**50p5**5555555550ppf0...   *50050000990rrr98;%;rkkprur9000000000000000ppppfccbcfpp00pp*  .   5050005*50pfffffffpppppu0000000000000000000pppppppfccffppp0*  .   .00050000000000000ppp050pcbccfpp00000000000ppppcccffpp000p0*     .9000000000000000000000000000000000555555550upffppp05*55505*      .000*5550555550555500555500000ppp005**55upp05*5555550000pff0.     5**555**50555555555550ppp05555******15555**500550psp05****5*        .%3*****5500r5*  .55. .....*****......+++....**355953*...        .. ..............  ... ..*555*... ......................             ",
".....................................++%*..           .   .*............... ..*555*..............+**355*.   .*.         ..****#*********************************..*5595***5***555.       *555555555555555555555555**5555555555555500005005555550ppf5. .  .*5005000088900r98;*..89559989000000000055500000pppp005;**55.  .   *0900555500ppppp0000000000000000000000000000000000pffdp0p05.      .000500000000000000000550pccffp000000000000ppppffpp00050005*     .50000000000000000000000000000000p000008005500pp00005550005*.     .0055550550555055500055555555590055*5*550pp05****15555500pp5.     5**555**50555555555555500551*********155*..*55*.*5005*..***.        .%*......**555*.  .%*.....+............++.  ...%****%..          .. .............. .......**5**.........................              ",
"..............................+.........%..           .   .*.......... ..... ..***%................%***..   ..%         ...***************************.*************11****5***155.      .*5*555555555555555555555***555**555*509555500000055555000p*. .  .*50055808558900953;..;88890000000000000555555550000055;;555.  .   *000055555000000000000000000000000000000000000005000p000005.      .0000000000000000000005550pppp0000000pp00000pppp00005555505.      5000000000000000000000000000000000000000050000000550000005*.     .5005500055555555000055005***35555**555500005***115*55550p05.     5**505**50555555555555**555**.555****<55*#.*55***551**....*.        .%...........***   .**....................    .......            .. .............. ........**%.......................                 ",
"..............................++........+...          .  ..*..........  ........%............................+*.        ..****************************..*****5**55**1*****55***5*.      .1515555555555555555555555*55555555555555555550000555555550*  .  .*500555085558909885%.*8rr0000000000000000000555500000059000.  .   *0p00000000000000000000000000000000000000000000000000005005.      .0005p0000000000000000000000p00000000ppp00000pp000005550005.      5000000000000000000000000000000000555590050000000550000055*       5005900005555055000055005***555555*55555085**55111*5555500*      3**5551*555555555555****5555**5555****<****1555*55****..#**.        .**%........ *3*.  .*5...........+.++................  ..        .. .................................................                 ",
"..............................++........+.  .         ................  .....   .........%...........+%%.+++***.        ***#********************************;555055555555555*1**.       .151555555555555555555555505555505**5****505555009555555550*     .*5055550553588999883*%8ur088580000000000pp00000000000000ppp.  .   .0p0000pp000500000pppppp00000000000000000000000000550000005.  .   .0000p00000000000000pp0p0000005500000pp00000000000000000p0*.      *00000000000000000000555955555555555555550000000055000555*.       5000080055550050008555055555885955505555555**5555555555505%      **55555555555555555***1*5555**5555**********5555555;*****55*        .*3****..*....**.  .35%%.........++.................. ...        .. ...................... ...   ....................               . ",
"..............................++.......... ..         ................ ...%...  .........%..........+....******.        ..*..*******************************3;;50055515555551***.       .*51*5555555555555555555550055555*.....%*500555509555555550.     .*5555550555588889993+.*993;5;50000000000pp00000000555555000.      .0p000ppp00055000ppppppp000000000000000000000000000050000p5*      .0000p000000000000000pp00005005505000pp0000000000000000pp0*.      *00000000000000000000555005555555555555950pp0000055000055*.       *00005005555005000805555558508555050055555;;;5555555555555.      .*55555555555555555***5555155555***.#**. ....**55*;;****555*        .*3******%.**...%*..****%........++......%***%+..........        .. ......................  ..   ....................               . ",
"..........................+...................         .......................  ...................... ..%.+..*.        .....**********************************;55*****555<<<***.        *5**5555555555555555555555000*......*555***555500555500550.     .*5555500558855558908+ +9955r0000000000000000555005555000055*       5p000000005500000000pp000000000000000000000000000055000005.      .0005p0000000000000550000050000000055000000000p00000000005*.      *000000000000000000000000000000000055000000008855500000005*       *500050055000000000000055555555555505555555555555*1135*55*.      .*5555555*555555555*.*555******...........**.*5555**%******.       .*********...*  .%*. ...**%%..........+++............. ...        .. ..................................................              . ",
"..........................++..................         .#.....................  ..................%*%.  ..%...3.        .....*************************1*****++.+*******551**<**%         *5**5555555555555555555555555*...***5905*%.+**355555590000*     .*55555595598555858903 .09;3pu000000000005055555000000000000*.      ;0000000005500000000000000000000000000000005500000050000p5.      .0000p000000000000055550005000000000500005000pp00005555000*.      *0000000000000000000000000000000r0005555800088859000000055*.      *55555055500005000000005555553**350585555555885555***<*55*.      .*5555055*555555555***55<******.......***55;%+585*%%%****%%.       .**..*****...5  .**.  .........*......++++................        .. ...............   ..%...............................            ..",
".....................................+++....+.         .%.............%......   .................%***.. ..**..3.        ....%**5**************************%.....******5555**3**....      ***555555555555555555555555**..+*553589095%  .+%*;;358000p*     .*595555059098555888r5 .83.+885000000000000050000000000p00055.      *000000000000pp0000000000000000000000000000550pp00000pppp5.      .0000p00000000000p00550ppp00ppp00005500055000pp00000555000*.      *00000000000000000000000000000000955;***%89888580uu555555*#.  .   *55555555500555500055599958885;35993355588890005555555555*.       50055005*5555555555555<*****.*%#..%**3;395*..%;%+;;;;;;*%+.        **..***1**%**..*5*   ........%%%.........................        .. ... ...........   ..+%...............................             ",
".....................................+++......         .%.............%...      ....%............%**;*...***..*.        ....****<***********************%....  .**15555555****%....      ****;555555555555555555555*%.#*55553;*39rr3    .++%*;;80pp*     .*50955005909885588805 .;+  ++;550000000000000000000500000505.      *00000000000ppppp000000000000ppp00000000000500pp0000ppppp0.      .0000000000000ppppp0550pfpp00ppp00055000550000p0p0000000005.      *505990000000000000000000000059855;;%++.+38888890pp5******.       *55*55555500555505000098889009889093335888990000555555555*.       50055005*55555555555551*****.******3555353+  ....;;;*;;;*%.        *3*****5*****.*55*  .. .......%%..............*%%**%.....         . ...............   ..+%...............................             ",
".......................................... ...        .....*..................................................%.        ......%*************55555***.............**555<<5555*  .*%       *****5555******555555555*..*590555*%;;3;3355%   .%+...*0pu*      50pp000pp9355888899985;;;*+..+*500000rppppp0055555050000ppp5.     .5p00pp00000ppp000055555555500ppfp000000p005550000000000500*  *    *55500000000ppppp00ppppppp00ppfp00050000000000000pp00055p5.      .**15550000550005*50pppp00055***;;;;;;**%.+3008380p05***55.       50**555555555555500000089880rpu09333333588899955555555505*.      .50555005*55555555555905<*...*5555555553*;;*+.......  .*555%        *5***************...  .     ..%*%%%*......%*%%%%*%%. ....         .*  ..%+......................................+%.......             ",
"          ..........+++++++++.................        ... .%.......................%%%%...**%%%%%%%%%.*****%**%.          .....***3311=1==<*****...   ........ ..*1555555515*. .*%       .......***.....*********...*5555***%%%***;;;;%%;583%..*5uu;.     .155**555558888990000985853;*.  ....**5000000555555555000005.     .5000000000000000055555***.***5500000000000555000000pp0050p5  .   *50ppfcp00000000pppp0000000000ppp0000ppp000055500000055*505.       *<1**550000000000000000555****%%%%%%%%%%.%8upr99rp5***155*       55*.**************5555***;3590053;%+++++%%%%;9000555555555.      *555**505***********5553*.....**********5553;%++%+.....*33*+        .***+***********%+.....     ....*****%%%%................        .**.....................................................             ",
".............................................         ..  ............         ....................%******.....               ..**************%..              ..#*555<******...*.        ....  .........%...... ...**53**%+O+%%%%%;;;;;3993%...*50*     .*5005590u0888899000853;;;;;*%.......%5555555555515555555559;.      *5555555500000005555********5555000ppp000055550555000055005      .*5500p0000pp00000000055505000ppp0000000000000000p00005550*        .*...**500p05*50005555555****..+OOO++++O+;9upu99995***555*       ....*........**********..%%;333;%+O%%%%%%%%%;55500055***5<#      *555**505*5555555553***.................%;;;%+%%%+..X..+%%+.        .......*****.+%%%%......       ..%***...%.............%..         ..  .. . .......                             ......                 ",
"........................................+.....             .    ......         .....................***%...   .               ...#****%#..#***%...             ...********.**..**.               ......**%%....  ...*****...OOO%+%%%%%;;3333%....*5.     .*595555008;;;;;3355;%%+++%%%.***.....*5****11*****555555555*.      ...****5555005555555****<*****555550000555<**5555555055*505       .....*5500000000000555155555000055555*5555000000000555**5*        ...  .%*55051**555*.**********%OOOO++++O.%39983;%%****55*.           .......***********++.+%%;;%%+..%%%%%++%O+**55555******.      ****.*355************.....**....................OO.XX  ...X              .....*.....*%........       ...................%**..              .   .......                             ......                 ",
"........................................*.....                  .........................................                      .............*%......*.  ............****....*..*..                ....%*****%... .#*****%...OOOO++%%%%%;;33;%O.. ..       .......***.+..+++%%%+...+%*%%;53*.....*...#*********5155***.          ....***55555555551**11********.******.**********5155**5*             .**50000000055*********11*********5550005555***%..*.             ..**555*******..*********%%%%%%%%%%..%%%%O...*<5*5*..           .....*****1********%%%%%%;%%+OOOOO.....X...**<5*...***.      ......****...... ...*.  ..**............     XXX...X   X.                   .........%%%.......            .............%*%..                  .....+....................................                 ",
"........................................%.  .                     ........................         ......                       .           ......****...............%*... ......                  ....*<****... .******....OOOOO%%%%;33;%%%%%%+..                 .%***;;;;333;;;358535553*%........#***************.               ..**5555*5111*5555*****5...****....***********55**.           ... .**555555555*******55551****555511****555****%*.*.             ...***5555*.**5***********%%;;;%%%;;;;;;%%%%%;555**.             .....*****1******;*%%;;;%%%%%+OOO.........%****. .*..              ......      ...  .%**%...........XX...X..OO.X   XX   .                    ...............            ................                    ........................................                  ",
"                                      ...                             ......      .....   ..........+......                       .........       ....  ..............+...  ....                       .***+................OOOOOOOOO%33;O..O.O%*.    ..       ....*;*;;;35553;***;3;;;**********.....********...*....   .             ...*********5095555555***35553*****51***55..5<...                 ..****55555*****50599555555*********9055555555*.                  .*505*..*5%..++***+%%%%%%%%%%%8833;;;;;;*****.                   .....**********;;;%%%%%%%%%%%%%%%%%...****+....              ...*******+.%..  ....%%..............O...O%OO.XXX..X  .                        ....             ........     ...   .                                                                                ",
"                                                                                           ...............                          . ...                      ... ......                               ..... .   ..     .............O%OX  ....%.   ..      .......     ..............         ..   ...%...%%........   .               ..........%++..................%***%.%** .**...                   .....%******...%#... .........*****......***.                    ..**....*..........+OOOOOOOO.+... .... ...#.                         ..........%%+OO...O....XXX................             ...........     . .......          .....XXXX..X  ....  .                                          ......                                                                                             ",
"                                                                                                                                                                      .                                                   ..XXXX       .X   ......            ..  ..         ...                       ..  .......   ..  .   .                    .                       ..    . .*.  ..                         .....                     .        ..   .     .              ..............  .......XX..     .     ..    ..    .                         .... XX X.      XXX.          ...           ...               ..    .           X ...     X    ..X  .                                                                                                                                             ",
"                                                 .                    .                                     ....   ........     .  .    ..              .................%*...........*.......*****.....  ...            .**+%%%.......%%%%%33;*****.........***********%%++++++.  ... ... ...**3*....***%.**3******%**%***.+***.********............      ......%***.....%.....*****.*****+...******555*****......%..          .*******#.......+...*55*****...*55***..*****%...*53%........    ..++%%OO.**++%*;;*%.*******55*..*5****.******.......        .     .+%.+++%%%%%%..........****. ..** ...**.. .....        ..           ..%%++.++..................  .. ....... . ....                             .            ..           .                                                                 ",
"...                  ........***********5*****<500**....****333*******5. .+*  ..      *5555595555555000955500pp0000000ppp0000000p00p05**005%       .*. .5pfppppfffppppfcccffffffffffppfffppppppfccccfffpp00005*.         1pfffkxcccfffffxkfffffcbccfxxxccccffffffffffffffpu08800* .*5*.*+  .5pbcbcccccccccccccccccfccffcccccccbfffcbbbcccfpppp0055*5* .....55pcccccccccffxcccccccbbcffccccMcccffffcccbcccbbbcp0ffp005*..*..   *pcbcfcccccccfffcbbbfffbNMbcffccbbcfpfffccccbbcffpsdp0503. ....  .50fccffffcccffcccccccccccccccffxfcccccfffccbccffcpp0055*.  .      5kcffxkkkffffffdppfffppxfffffffffffffxcffppfffp05**551.5* .   ..   .5dfffppppppdffdupppppp0p0800000800pu00000p0005******..          .509095555500555555555555555505***1555*55********#.               .*11*************......%........%*%++",
"......              ..********%%********5**..**55550555*555555555555555%..%.         .5000000000000000055**550000000ppppppp000ppppfccp0pkfp055*.       *0fffpfffffppppffccffpppppppfffccxfffffcccbbcccffcffpp005*.       5fcccccbbccccccccccccccccffffkcccbccccccccbbbbbbbbbbfpkd5..      5pffccccccbbbcccccbbbbcccccccbbbbbbbMbccbbbbbbbcccccccccf0*...  .**fMbbbcccccbbbbbbbbbbbbcfffffcbbbbccccbbbbcccbbbcfpffpu00*...*.. .5fbbccbbbbbbbbbcfpp000ppfbbccccbbbbcffcccbbbbbcfffccxfpp05;;3*%..*0fcbbccccbbccccccccbbbbbbbbbbccccccccccccbbbbccccpffffp05%...  ...9xcccbbbbcccccccxxcccfffffffffffccffxccccffcccfppu0p05*05.+  .   .50fffppffffffffxfupppppppppppffpppppfppp000000pppppp0055*.        .5000000550p00000000055555**5555005050555555555555***.....         *1*****<*<*33***......%.............",
".......              ..+*%.*************5**...**5500005*555055555555555...**         .5000ppu0000pppu05;******000pppppppp0005000pp0pfpppp05***#........5pffffffffpp0000ppfffffffffffdfffffffpffffcccccfkcfp000559*.     .0xcccccbbbccccckxccccccccfffccbbbbcccccbbbbbbcccccccp0p053*+..  .scfdffcbbbcccccccccbbbbbbbbbbMMMbbbbMbbbbbbcccbbbbbccfpp00555.  .**fbckfffccbbbbbbbccccbbcffffffcbbbbbbbcbbcffcbbbbcfcffdp05*..*.  .5fcbbbbbbccbbbbbcp000pp09fccccbbbbczfffzccccbbccccccfp005555*.  .*0cbccbbbcccccffffffccccccccccffccccccccfccccccccccffp000555*.  ...0xccbbbbbbcccccccccccccffffffzccccffffccccccccffpdppp5*55.*     .*0pppsppfffffppffsrppppppfffffcfffpfffffffppppppp000055****.       .50555500000005555555555*****5500000555555555500005....            #***************....................",
"..++....              .......****<11=*<*5**....***50055*.*;5*****555555***55%        .50000005555000085****#.*00ppfpppp00555**550050ppppr5*.***........0ppp0pfpppu09555500ppppppppp00000000000000ppfxffxcfp00000p0.    .*0xcffxxccccfffppsffcfffccffccbbbccfffffccccbcfpppppp00p00uu5..  .fcd00pcccccfffpfpfcccbbbbbbcbbbbcccccccccccffccbbbbccfp00upp0*  .**0fppuppfcbbbbbbbbbccbcfpppppfccbbccccfccfpffcbbbbcbbccffp0*.*.  .5pfcccccffffcccbcf00ppp05fcccbbbccfdppfpfffffbbccccxp0559000*.  ..0fcffcbcffffpppppurpppfdffpppppfppfffffppppfcccccbcf0555udp*.  ...0fffcccccxfffffppffcccffffffcccbbffpppffcccffppppppp0000055     .50000rpppppp0000000rpppfffffafffppppppffffpp00pp00p005****5*.      .555*555500p00000000055**...**5555555********550055***..           .**************.........%++.........",
"...%%.......           ..   ..55555555555*%.......**5;*.  .*.....****39555055%.       .*5595*****55055********0ppffp0055*******15500pfffp5**555*+.     5005500050855*5****5555555555555555555555550pffffcfp0000pf0*    .*0pppppppppppp0050ppffppfffffccbbcpp000ppffffpp000000pfzfffp5 .   pfp005ppfffppp000pfffccccccfffcffpppfffffpppppfcccccccffffffp*  .**5000000pfcbMMMMbbbbbbcfppppppffffffppppfppppfccbbbbbbbccfp5.%.  .*0pfffffpppppffccpp0ppp05fccbbbccfp000000ppppccbbbcfp0550pdp5.  . 5pfp0fcfppp00000000000000000000000pppp00000pfccccbcp0550pff*   ...9dpppppppppp000000pppppffffffccccpp000ppfff0005500055ppffpf**.  .*555555000555****50000pppppp00pp05555000p005*5500ppp005**555*       ***..**550pp0000000055*.....%*3***......%...*355555053*%.         #**...........%*........*%%..... ...",
"..........%.                ..***********%....... ..*+.    .  .....%%*0u0005*.         ..#**.....****...%*5***00ppp05*******..**<50pffcfp5550005.      *55**555*555*****************555555555555550pffffp0055000p5.     .*50000000000055*50ppp00ppppppffcp0555500ppp000000ppppfbMbc0. .   5pp005*0pppp00005000pffffffppppp0000ppppp00000pfcbbcbccfffffp.   ..5pp0000pppcccccccgfffffppp00pppppp000500000ppfffccbbbccccf5..    *50pfppp0000ppp0000p00000fcbbbbfp000000000000pffcbcffpp00ppp*   . *0p05pfp000055500000000000000055550000000000pfccfppp0ppppp0.   ...5u05555000555****5500000pp0pppfff0055500ppp55***155*5pppfff***   %5005*.+555********55500000055055*..******..  .*ppfpp0555555#       ......%**505555555555**.   ...%%....    .. ..*****0005***.        .*......................*%.....  ...",
"......... ..         ........%......   .............+..    ..........*355**+*.         ...***...****.....*****5000051*..1*******55555000*.******.      .****55**55555551*500555559555555555555005550ppp055****555*.     ..*55555555550005500p00055555000p00055500pp0p00p00r0000pfzcf* *.  *5000550ppppp00000000ppppppp0ppp0050pp0p000000pfffffpp0550pp5      5000p00pppp000000000ppp0pp000ppp00055500500pp0ppfffccfpsfp5      .5ppppppp000ppp550pp00000pfcbccp0000p000000pp0pfccfpp0p55585.   . *0p00ppp0000000pppp000000000000000000pp000000ppp05555555555.   .  30055550555555=**5500555555555000005555000005555555555055pp ..   .**5****005551555*.***5555551555<*.********....*555551****5*.       .......%**....  ....**%.......%%.... . ......****.*;*%...         .................%.... .............",
"......... ..        ........%%          ...............   .............%*. ...         .##****..***.....***%..*55055**.***51<*55555**505*.*5*1**.      .****55555555555555555555555555555555500055555500005500005*.    ..*55555500555000000000000555555000000500000ppp00050550055pcf5  .. *555000ppppp0000000000pppp000ppp0000p00ppp0000p000ppppppppp0*      *5500000ppp000p0000ppp00ppp00ppp0000000p000p0000pfpffp0ppp5  ..  .5pp0pppppppppp00pffpp0pp0pfccfp000pppp0000p00ppff000000055*.  .* .5pu00p00000000p0pp000550000000000000pp00005550000005550000    .  *055550005555055555058555*5**5555055500000000555555555050fc.*. ......*5550555555505#**********5555***155555*********5111*****.       ........%***.........%.......................***...3**...         .. ..............%%... .............",
"............         .........  ........  .............. ............  .*.  ..        .***.%..#%**...**<***...***555<*********<**15**555.*50*55*.       .*555555**55555555555555**5555555555500005555500000000005*      .*5555000055550000005000p000000000p00000000pfp0050000005*ufp*     000550pp000000000pp00000000000000000p000ppppppp000ppppppppp0.  .   5000000000000pppppppp000ppp0ppppp0p00ppf00ppp0500pppp000pp5   .   *pp000pppppp00000pppppp050pffp000pp00000000000ppp0000p05*...   . .50ur0005ppp00000000000000000000000000p000005500000000pp005    .  %55500000555500000005550555555500055000055500055***555059dc.**  ...***155555*<15555*15555******555**155******5***#*.**555****.       *.#%*.....***%%%%**%...%*%%.........+.........%....**%...         ..  ............***...  ............",
"............          .................. ............  ................*%.   .        .***..........**55**#....****1<55<..********5***51**00**5*.       .*555555***5555555555555555555555550555000555500555000005.       .5555000055550000055550ppp00000000000000000p00000ppp0555pp0. .   0pp055p0000000000pppp0000pp050000000p000pppp000000pppppp0pp5  ..   0pppp0000000000pppppp000pppppp0pppppppffppppp0500p0pp000pf0   .   *0p500ppppp000pp000p0p0550pppp00ppp00000000000ppp00ppp5*..        *0p000550pp00000550pppppp0pp000000000000000500005500ppp0**    .  .5555000050550000005555000000000055500005*55005****1555*50p ..   .155***55********555555555*5**55511555**.*******...**5555***.       *****%....****+%+**....****+....................  .**....         ..  ............***..   ............",
".......... ..        .................................................*.    ...        .*.......**#******...#*******5551****************55553555.      .*55555555****1551555050050055555555555590055**55**500p055*        *555500000000000000000000000000000ppppppp05500000005500005.  . .*500550p0p00000550000p0ppppp00000000000000055**555550pfp000*   .   *upfpppp000pppppppppppp0000pppp000ppppppp0000000000000p00p0       *5050ppppp0000pppppp000000ppppppppp00000pppppppp00p05.***55.     .50ppppp00000ppp0550pppp000000000000000000055555555500005*.       .50555550000000000005555555555005*500000555005555555555553*       *555***55551******115**1**15555555555555555555*.******55*.*.  .    .*******..******.++%%..%%%+++.......+...............              ....  .........%....      ..........",
".......... ..        .%%...*..........................................*.  . ..        ..**..%#****************3*****111***55555=********15555555.       .<5555555555555555555555555500000055555000055505*55000055*   ..  .50500000000055500050000000000000000000000000000000000pp005.    .*00050pppppp0000000000000ppp000000000000ppp0005555**50p0555*       *0ppppppp0ppp000pppppp0000000pppppppppffpppppppppp0000p0000  ..  .*00505000pppppppppp00pppppppppppppppp0pppppfpppp0005*.00005      .50000pp000000000550000000000000000000000000000000000pp005*       .50555000000055555555555555555005*555555555p00055055555555.      .*505**555555555***111<1**************5555555551************.       .********.******.....................................  .          ....................      ..........",
".......... ..        .%%...%..........................................+  ......        .**********************5*********55555***********15555555.       .*555555555555555555555555550005555555555005550555000055*.       .00000055500555555500000000000000005555000pp000000000ppp005.     *0pp00ppppppp000000000pppppppppppp0p0p0ppppppp00000500p05**<.      .50pp00pp0pppp000pppp0000000ppppppppppppppppppppppppp0pppp0      .5ppppp000pppffp0pppp00pppppppppp0pppp00000ppp000p055**p0005      .50p0ppppp00000pp0000000000ppppp000000050000pp000ppp000055*       .500000000000555555555555555500005555555555000050095555555*       .5955555555555555**<115***************55555555*************        .*******.*******.%%.................................   ..         .................       ....  .  ...",
".......... ..         .*...............................................  .%....        .**%.****....**********5*********55*************11<555555.       .**555055555*55555555555555500555555****15555505550555***.       .0000000500555555500000000000000000855500ppp000555500pp0005.     .5pp00000000000p00000000pppppppp0u00p000pppppp0ppp0000005****      .50000000000000pppp0ppppp0pppppppppp000ppp00000ppppp00pppp0      .5pfppppp0000pp000ppp00ppppppppp000ppp00000000550p05550p005*   .. .5000ppdfp00000pppp0000000pppp000005555*5500000000000005**..      *500000000000555555500055555505500005550000005555555555555*       .*5555551*5555555555=151***55555555553*555555********...**5.        **...**..******.%....................**..........                ...............     ........     ...",
".......... ..         ..........................................++.....  .*....        .**..........********************11*************1*<*55555.       .**555005555**55555555555*3555555****...***5555550555**+%.       .00000095055555555000000000000000p005550ppp0005555000pp0005%     .5pp0000000000000ppppp000p000000000000500pppp00000000555*.*1#      *50p000000pppppppp00ppppp0pppppp00000000p000000000pp050pp00       *0p0ppp000500p000000000p0ppppp00000p000000000550pp5350pp055   .  .*5000upfp08550pppp0000000pp000005555**#**5500000000555**...      .50000055555555555000005555550000p005555000555555555505555*        **5555*******555555551133555555555553355555****1****.*.*55.        #*...**..******....*********%......%****.........                ....%%..........   ..........     ..",
".......... ..        ...............................  ......+...+++...  .**....       ..***.........********************11********1*1111****5555*       .****590555555555555555533*555*****......**5000000055**+#..      .500005555555*155550000000000000000555550pp000550000ppp0000*     .5pp0000000000000ppppp00000000000000055000p0000055005**..*55*      *0ppp00000ppppppp0000p000000000000000000p000000000pp0500005  .    *000000555500p00ppp0000p0pppppp000ppp0000000p00pfp5**0ppp05.      .*55500p0055550ppp0000000000055551****.**550000500055<*%...      .505555555555**5555500055555500000055**5500555550555555500*.       .**555****1*555555555****35555555553*355555****1*****%**55.       .*********.*****....%**+%%+++........****..%%.....                ....+%..................%.....   ...",
".......... ..        .................................................. ..%....       ..*.******************....********5555555555*55553****1*55*        ..*.*5515555555555555***********#...*****50pp0000005*****.      .55555555555*****155555555555555555****15500000000p00000000*     .5pp000ppppppppppp00000055555555555555000pppp0p0000055**5500*      5ppfppppp0pppppp00055555***55500000ppppppp00000ppppp00ppp0p.      5pfppppp000000ppppp000000pppppppp0ppppppppppp00pfp<*50u0000.     ..*55550p00000000pp000000055555551*******550000000000551****      .*5***111**5********33555555555555**#.****555500p00551*5555.      .***55555555555555555******%*%%%.*#..**35555*************55.       **5**5555*..*****......  .............%**%%%%.....     ..          . .................................",
"  ........ .          ..  ...........   ............................... ... ...        ........**********.... ...**555******155555555553*****.*5*          ...****55051***515****%*****%*.+..*****50p00550053*+*3*.       **....***************5555555555****#.**15555000pp00005*5005     .50p0500ppp0000000000555555555555555550000000000000055*50500*      .5005500000pppp0005551******<5550000ppppp000550000p000fpp0p*      5pp0pppppppp000pppp000000000ppppp00p000ppppp000pp0**5p55505.. .  ..*5***5050ppp0550p00055551***551******<5555000000000055353*       ......****************5*1<555555**......***<500p005****55*.      .%**555555555555335*****%+.............*****%....***%#%****.       .*********..****#...            ...................   ...                ............     ............",
"   ....... .                ..........  ............................... ... .*+.              ..****33**...    ..**5555*...****555555553****. .**             .. .*555**..*****.....*.#%..#.***...*500555555*..%**.       .. ......*************55****115********<5***500000055<.*50*      *8055500000055555555551****5555555555555555555555**...*05505       ..*.**505000p000551555*****55**15550000055****555555500550*      .55***500ppp0000p00555555555000p0055555000pp00ppp5***0**555.       .*. ..5*50pp5**5500055***..*********<<55555555055055***5*.            ...************.********1************.**55005**..**5*.       .***555515**********................. .%**... ........*...   .      .. .......****#...             ...............      ...                 ..........          ........",
"       ... .                ..  .............................. ........ ... ...                 ..**<***..     ..*******   ...***********.... ...                .**5***..******.........**#**%...**55******%..+*%             .....##****5******************555355*.**555555*******.      .***%**55555*5**5555<1*****55555551************..     .5**5*           .*55055500555555555555555******555051************55**5.       .    .*5000000000055******5500005***55555000ppp0*..**5155*         ..  .*.*5005*.**5555**%.********=**********1*5**551*****.            ...***5***<******..******************..***55**. ..***        ...********.....***.......*%........  ......   ......... .                  ....*........ ......    ............        ...                  .........          ....... ",
"      ....                  .   ...  ..*....    ..   ...........       ..                  ......******..   ....*%.. ...   ....%**......    ...                 ....**155<*.*595..*. **..*+.35%...******+++++++++..         ....**......*555**53**....***..*3****55555*********505*.   .           ..******55555555***5555555**********55%    *555***.           .*5500. .55**50005555553*******555005***55*3**55******.          ...**555559555555**%%053380055***5003*5055005..*35**15*.         .*5555*****55555*555*****5.********.********************           .*<3*.*55**<5555***.....***1*%....********.+**%.....++.           ...   ..*#.+*53*.     .**.......   .................. ..                     ....%.     .....     ..........        ....                  ........       . ..        ",
"          ..                     ..   .+....    .. ......             .... ...                       ..         .....    ...   ...****.........                          ....*** .***0*.*5*............%%%++++++...   .                ..**..+%3555555055*********5*****....***555*.           .....**5555555*******.*55155555***5555555**....*5555**.                   .***+**5***55500005******5555*5*55*3**5555*55**.                    55000555**55**5555*****55..****55*  .*3***..                    .#****55553***55****55***************........                   ......**+...***.......***..+****......%...+..+%+.           .      .. ..+..      ................*%*..           ..                   ......*.     ....      .. . .....       .....                                             ",
"                                        ....                 ...           ...                     .....     .   ....   #**%................                          .. .   ...  .*.*...*.     ................  .             ....  ..***.....   ..... ..+........*********+..*..          ...*....***************..%********..**55=*. .******551.          ..         .**+.**5*****.....***.......****35******%%.....          .          +**55*..***%..****..***5*...****..  .******..                  ......%.*%.....************..........***.......                   ....**%*...*****%.. .***.......#....%**%.......           ...    .........   ..%%.   ....  .........                                      ..       ...      ..            .........                      .........             ",
"                                                                                                     ...           ..   ....                                       ..              .     ..        ........                     ....   .....                        ... ...... ..       ..     ..    ........           .......   ....          ...     ...   .                 .          ..     .  ...........  ..                          ....   ....  ...   .**..  ....     .......                  .   .     ..     .....   .....  ....  .......               ..        ......   ...  ..   ....    ..     ....     .            ...                  ..          ..                                                                .                                                                 ",
"                                                         ..                                           ..                                             . ....        .  .                     ..        .......     ..........       ..  ...                      ..        ........ .........  ...     ......                   .. .         .         ........    .....                  ..      ......         ....   ....    ... ..          ...    ..   .       .   ...*.     ... ..            ..     .....         ..           ...............                .......  ..                            ..         ..   ..  ..       ...                              ..        .........                                                        ....                                                     ",
"         ...        .......       ....                  .***............***...**................*....%***.....            ....+*******.%+**********;55555555****%.************%..     ...  .55*******35355553;;;;;8888535553***********553*......            ..*555*******15555*3*550055**3555800533**5=55555*******..         *5555555555000555555********35*****5555555555555************.    .50005055555555555555*555555*5555555551******55555***15......     *5*.5055p*...*555************5=**505555***5555505.  .....        ..*55****;***595555555**555555555555*555****5*********%..     ..   ...*553**********;*%*33;*35;;;**;;;;3;5555*******+....            .***....%**555555555**.**********.*......*..****+.                 .%......+.*****......................    ..                       ",
"....*******************************555**....            *555000000000055555***50000000000000000ppp000000r0055*..       ..50pursffffpp00u0ppppppppppppppppfppppppffffcfcczp0pp0555*    .*. .0ffffffffxxxkffdfkkkkffkkxkfffkkfffffffccccfcxffdppppp05535533%..*00pffxcccccccccbcffpfkcccfkccccccccccxxfffffccccfffffppp5**..   ..0fccbbcbccbbbbbbbcccbMMMbbbbMMbbccccbbbbbbbbbbbbbczffp055*..*.. .5dcccbbbbccbbbMcffffppppdxccccccccccbccccccbbcffffffdpp5*****    *pccfcbbbMcffcbbbcccccccccccccbcccbbbccbccccccccbbcfddfffp05*.. ..*5pfffffffffffccccccbcccccccccccccffffffffppccfffffppppu95*.......*500pppffcccccxkcxsppsddspsdkkkkkkkkkkcccfffffffffppp055*.         *pp00000pppppppppppppp0000000ppspppppppp000500pp005**...          .*5**5555555559u055555555**********55*****55555555***.             ",
"********555************<1*****5***50005*****.           *505000000000005515***550000000000000000ppppp0000p05*.*..     .. ;0pppffffcffppppfffffffppppffpffffffffffffcccccccfcf05505*..  .. .0cczcffccccccxxcccbbbbccbnbcccbcccccccccbbcccccfffffp0055***....*0pffcbbbccccccccbbbbccbMMbbbbbbbcccccbbbbbbbbbbbbccxffpp00055%.  .*pcbbbMMMMMMbbccbbbbcbbbcffffbbMMMbbbbbMMMbbbbbMMbbfpp0005555*%. .0xbbbMMbbccbbmMbbcffffffpcbbbbbcbcbbbbbccbbbMbbbbbbccfp05505*.  ..pbbcbnccMMbbMNNMbbMbcbbbbbbbbbcccbMbccbccbbbccccccfp000005**....*5pfbbbbbbcccbbccccbbbbbbbbbcccccccbbbbbbMnbcbcccffffffp005*..   .*50pfffccccbcccckcccxxcccxkkkxxxxxxxkkxccccffffffffffpp05**...      *fdpp0pdfxfpppfdspppfxdp0000pppppppppppppp000pffsp0555**.         .5005000885555595*....***55555555*555*****5555555**...             ",
"....*********#....%*********335***5900533;3**..         .*55599900000005*.****.*0000000000055550000pfp00ppp0*.***.       *ppppfffpfpp05500ppffpppppppp0pppffffffppfffcccccfcf055pp555  .  .0fcccccccccbcffkxccbbbccbbccxccccccccccccbccccccfffffpp0055*..  *0pfffcccbccccfccccbccbnMMbccbbbbbbcccbbbbbccbbbnMbcccfpp0pp05.   .5pcffffcbMMMbbccbbMbbcbcfp00pcbbbbbbbbbbbbccfcbbbbcccfpp00555*.  .9fcbcbMbbcccbbMMbcfpfffppccbMMbccbbcccffffccbMbbbbbbcf000pp05.  ..pMMbMMcfbbcccbcfffbcccbcccccbcfffccfffcffccbbbbbbMcp000005*..   .5pcbbbbbbbbbbbcfffcbbbbbbbcccccffcbccfcbMbbccbccffffffpp0005*.   *5ppfffccccbccffffkcxxcbcxffkkkkkkkkffkcccffffffffffffp055***..     *p00000pfffpaappffffffp0055550p000000000000000pfpp00005*.         .8p0000005955555*.......*555559555***%..**35555553*..              ",
"....********..   ...***********...*59553;555*..          .**55555558000*..***...00up000500551*<55500ffpppfp0****<*.      *ppppfspp0005***5500000005000550000ppp00000ppfccfccf055ppp05  .. .5pfffcfcccccfpppsffxkkffxckffxccckfspffffccccffffffffffffp05*.  .5pppppffcfffffpfffccccbbMbcccccccccccccbbcfffgcbMMMbbcfppffp5.   .*0fp000pfcMMMbcbbMMbbbbcfp0ppfcccccffcccccffffcbbccbbbccfp05..    5pcgfbbbcccccbbccffppfpppcbMMMbcccbffpppppfffbbbbMbbgf0ppppp5.  ..pMbfbbzscfpppfp00pfpfffffpfffffppffppppppffcbbMMMNbgpppppp0.    .*0fcccccccccccfppffccccccccccccfffffpppfcccccccfffpppp0pfffp5*.. .50ppppfffffffppppsfdfkcckfdfkfkkxkspsffczfppppffffcczf005505*.     *0555580ppfffppppppppf051****500p00000005551550pp00ppu05.         .500808555533*3**.......*55555555**.......****5555*.               ",
"**********5<*.   ..******.........****55*5995*..         ...55*...*<55******...*50ppp5***5*********10pfcfp05555*55.     .*0000p00055555555555555555555555555555555555pfccccfp0000ppp*   ...*0ruppppppp0uprrrpsdprrssddfkcbbcf0500pffcccfp000000pffcbcf0.   *50000050pppp0pppp0ppfbbbbcfcbbccffffppfcMbp05pcffbNNMcfffcbb0*...*.0p00ppp0fMbcbccbbccbbccfppppffbMbcfppppffpfffcccbbbbMbMbfpp ..   *pcfpffffpppffffpppppppppcbbMMcgfpfppppppppppfcMNMbgfffpp0pf5. .+ 0cf5pffpfppppppppppppppp00000ffppp00000pp00pcbbbbbcppffppfc5    *.5p0pppffffpp0000pppffffppffffccccppp0ppfcccfffpp000000fcbbc5  .  *0050000000000000000usfccckfkspfxf980ppfff05550ppfbbcf000pcf5.     .555555500ffffpppppppp05******5pp055*********5500pp0ffp5*..        ...*;*....%***.........*555555**..*..+%..%%%*39085.   . ..        ",
"..........*..     ..%%*... .     .....**%*55*..          ...*..   .#************500p05***5**********150p055***5*55.       *5**5***555555555555555555555555555555555*50pfp055555551*5*   .  *000900000050r85589983580ussdfdsp08000050fffp05550000pfcccf0*.  *5000p000ppp00pp0000ppfgcffppffppp00000ppfp0050ppfcbbcp050pff*.   . 5p050000pccffffffffffffpp00pppppp005500pppppppffcccbbbbcfpr .    *pfpppppp000pppppppppppppfcbbbcgfpffpppppppppffcbbgppppp000p*   . 9fp*0fp0pppppppppppppppppp0pppfppp00000p0050pfffpfp5500000p*    ..5pu000pppp00555500000pp00pppppppp000500ppffpp000550550fcccc5  .  *505000055555555550000usssu00559r0;;5050005*.*555pffp05550p0*      .****55*550p005500050051*.*****555*.#.*******=550000pp05*..        .......   ..............*5005*..*..  .. .....*555*.   . ..        ",
"          ...    ...........     ........%**%...         ....     ...#***********50005**15***********15555***55***.       ****5**5555555555555555555555555555555555**500055555555555*      *555555505555r985555558rr9888rpsr550005*5pppp055500000pfcxd0*.  .5000000000000000p0000ppfpp00ppp000000p00000pp0000pffp0000upp*      5p5500000fppppppppppppp0000ppppppp000000ppppppppffffcfccfpp .    *pfpp0000000p00pppppppppppfccccfffffppppppppppffcfpp0pfp0500.   . 5p0*0pp0pppppppppppppppppppp0ppp00000pppp0550pp00p05500000p*    . 5p0000rpp00550000500000000000000050555500pp00555555550pffcf5  .  *005000055555555*5r09990r0985;;598338055855***55500005**5505.       1*******555551*****555**.*******....**********<5555005*+..        ......      .............*00*. .*%.  .........***...  ....        ",
".............   ..++................. . ........         ................*********5555**15************155***155***.       *5**51555555555555555555555555555555550055*550000005550005*      *505500000559009885889rr0099900r050pp0555ppp000000pp000pffp5..  .50000000000000p0pppppppppp00ppppppppppp0550pfp0050ppp00ppppp.      5p0500ppppppppppppppppp000ppffffffpppppppppppppppppffpfffdp      .0fpp0ppppppp00ppppppppppppfffffffffpppppppppppffpp0ppfp0005.     *pp50pppppppppppppppppppppp000p000pppppff00000000pp000000pp*    . *p000ppppp00000000000000000000555000555000000555000000pppfp*  .  *50000000000055555ur0999998883580989008889555505*5555***555*.       51***1***5551******1<1*****11****.****5************55**...        ......................   %55*. ..%.............*..........        ",
".................%**............................         ......%****#......*****.**551**51**************1155555*5*.       *55505555555555555555555555555555555550005555000p0055500p0.      *50000000000099988880uu000000088000pp00000p00000pppp0550pp0*.    *00u00pp00ppppppppfpp000pppppppppppppp00500pppp0ppppppppfppp.    . 9pp000ppp0pppppppppppppppppffffpffffffppppppppppppppp0ppppp      .0fpppppffffpp0pppppppppppppfafppffppppppppppppppppppfffp005      *0p0ppfpppppppppppppppppp00pppp00ppppppffp000pppppp00pppppp.    . *p00ppppppp00pppp0000000p00000000pp000000000055000pp00000pp*     .500000000000000000rr00009885589000000555590000055555*1555*5.  .   .555555*5555555**********1<55555<****5*5***********.***..*.        ....*+%%+*****+........  ..%......%++++%%%%........%*.....        ",
"..................%%   .......%%............ ...         .....%*****%......*****.************************155555*55.       *5555*555555555555555555555555555555550p00555005555***5505.      .5000000000093555588rpsp08;**550pp00500pp000000ppppp0550005*.    *0pp00pp00ppppppppfp0000ppp0000000ppp00000000ppfffpppppppppp.    . 5ppp00ppp0pppppppppppppppppfff0500ppfpppppppppppppppp0ppppp    . .0fpppppfffffpppppppppppp0ppppppppfpppppppppppppp0ppffffppp5      .5pppffppppppppppppppppp00000pppppppppppppppppppfp000000p00.    . *p0ppppppppp0ppppp00000pppppppp000p00000000000500pppp505000*     .500500000000000000rrrr0853;%;35890985;***5555555555555555*3.  .   .55555551*5555551*55*****1<5555055**************....*%..**.        ....*+%******+...........   .**. .%%+++++%%....  ...*.....        ",
"..........                ..............*%.. ...        .... .........**##***************************+...**<<<5*55.       .***5**55555555555555555555555555555555005555055*5555555**.      .505555555505;;35890uupu5%.  .;9up0<*50p00500000pppp0550005.     %0pp00pp0ppppp000pp00000000000000000000ppp0000pppp0p00ppppp0.      *pfp00ppp00ppppppppp0000000ppp0500ppppp0ppppppp0ppppp0ppppp    . .0fdpppppppppp0ppppppppppppp00ppppfpppppppppppp000pppppffpp5      .50ppppppppppppppppppppp00000pppppppppp0000ppppppp000550005.      *00ppppp000000000000050ppp0ppp00000055555555555550000509000.      50050000000055555590095*%...%;;;50093555550055555**555555**.       **********55********.*******15551***....**********.....**.        ........................*   .*3.  . ........ ..   ..%.. .         ",
"            ...               ..........**..  ..         .............************#.****.************....*****5*55.       .*155*15555555555555555555555555555555550555500555000055**.      .50555555550985890uu09;..;555*..*555550p00000000ppp00000005.     .0fp00pp0ppppp00000055000000pppppp000ppppppppppp00000pppp0p0       *pffp0pfp00pppppppppp00pp00000ppppffppp0ppppppppppppppppppp.   .  5pppppppppppppppppppppppppp000ppppppppppppppppp0pppppppffp*       *0ffppppppppppppppppppppp000ppppppp000500ppp000ppppp05000*.      *p0pppp00000000000000000000000000000550000505555500005000u0.  .   *005000500055555558883*+...+*;*%*0u95550000000555**5505555*.       .*****55**55****************1511*****....***********...*5.        ....  .........+........*.  .**.  ...... ... .......... .         ",
".................   ....................**.   ..         ........**********#....**..****..*********35*..*<55**5*55.       .*555*15555555555555555555555555555555*555555000000055555*.      .5000550900000990ru08;++%50005*++*000000p0000000pp000pp0005.     .0fp55pp00ppppp00000000ppppppppppp0p0pfp00pppp00p0000pp050pp.  . . .0ffp0pfp0ppppppppppppppppppppppfpfpppppppppppppppppfppp0up.   .  5ppppfppppppffppppppppppfpp00ppppppppppppppppppppfffp0pffp5       *pcfppppppppppppppppppppp00ppppppp000050pffp0000pffp05000*       *p0pppppp00pppp0pp0000000000000000000000000005000000050ppp0.  .   *00000000000955558885;%%**;;55%.+9r95550000555555555005**55.       .*55555055555*****111555****55**********..**********...**.         ... ...**..............+....... ...................... .         ",
" .........%%%....   ...................%**..  ..         ..*****************....<**.****..**********5****555**=**;+       .<555*55555*55555555555555555555555****55550000000055*****.      .50000000000uu090ur8*.*889999888;*5ppp00ppp000000000ppppp05.     .0pp50pp0pppppp000000pppppppppppppp00pfp00pppp0pfppppp0050pp*  . . *0pfpppffppffppffffpffpfpfffpppppppppppppppppppppppap0ppppp.   .  5pppffppppppfffpppffffffffppppppppppppppppppppp0ppppp0pppp5   .   *0fppppppppppfffpppppppp000ppppp000555550pffp005pffp05005*       .0pppppppppppppp0pppppp0000000000000000000ppp0000000000ppp0.  ..  *0p50000000000055953***3589599;++;85555555555*155555055**55.       +355555555551***155555555***55*****11***..**********...**.        .......****...................   ..............%....... .         ",
"  .....   %....     .............. ....%%......          .%********%*#......%****************.******+%*;;333;**.%;%   .   .****35555***5000055555555550553*#....***550005550p00*****.   .  .*50505555550p850p0*..5rr00000005**50pp00ppppp0000000pppp05.     .0pp00000000000ppp00pppppppp000p00000ppppppppppppppppppppppp5      *00pppppppffp0pfffp0ppppppppppppppppppppppppppppppff0000ffp.     .5pffsfpppppppppfffffffffffffppppffppppppp0000000pppp00p55p0. ..  .*0p00000pppppfffpppppp000000ppp0055******5ppfp55pffpp55***.      .5p00pppp0000fp00pfffpp000pppppp0000555500ppp000055500000u5.   .  .0p550p05500pdp050*...50uu0*5005*..;5550000555*5*5555555555*  .   ..5005************5553;;3*3<*****************..***********.        .*5**....*....   ..............     .................. ..         ",
"  .....  .%%%.........................%*%.......         .%*%%%.......************111*****5*****111*%**;333;;*;+*3*   ..  .*****550555555550000055555555***.....*.**55055550p05*****.       ****5555555555505**3800000000005*..*5555000000000000050000*.    *0ppppppppppppppp00000pppp00000pu000000pppppppppppppppfpfppp5      *pfffppppfp00500ppp05000000000pppppp0000pffppffffffp0000pp0.     .5pfspppppppppppffppppppppppppppppppppppppppppppfpffpfppppfp*     .*000000p000ppppfppffppp00000pp0055555*5550pfffp0000005****.      .50*550005555055550pp05pppppppppppp000000pppppp000000p000p5.   . .*pf000p00500pp0555****5000000p005555500upppp005555550000555*      .*5000555555555555555**********555555****5********5****35*.        .***......   ...............................          ...         ",
" .......  ..........         .........+%........         ..*..........****************<*155****15555**;3333;***+%;*       ..*..**550055511*55555555555**...... .***550005550005******       .*..*****<5**55*..*50055555558553**#***5000000pppppp0**5000.    .500000ppppppppppp000000000055000055555000ppp00p00pppppppppp5      *ppffpppppffp0pppp0*5550055505000pppppppppppppppppp000000pp*     .30pp0ppppppppppppppp0000000ppppppppppppppfffpppppppp00pppfp*      .555500p0pppfpppfppppp0055555555555***5550ppfppp0000055555*      .35.***5<*3*555555000055555555555555****5500000000000000005.      *0p555000000p005***555555;5*****;**..**355555*5555555500955*       .15555555555555555**..........*******11<*********15******.        ...*5*****%%%.*%..................  .....................         ",
" ........   ....................................         ........%#*******.......*******55**..***555;;333;;*%%%.+%.        ......**5555***************..........***55005555555**.**1*       ......*******;*. .*55;*******5555***..**50000000ppp05*.*505.    .5000pp00000000000000055555************55000000055550000pppp5      .500000000pppppfpp055555555555555000ppppp0055500000000000pp*. .   *50550000pppppfpppppp0005550pppppp0000pppppppppppppp0000pp0*      .****5000ppffpp0pp000055***<**********55555000000000005555*      .%. ..*****3555*55500555555555555*********55550000000555505.   .  *0p055555550055**#*5555**..**..***.  ..%*************155555*        .****151*********..... ...... ....**55**........********.          ..*****%%%%%......      ........    ...................         ",
"  .....         ........   ...     ......   ....               ....*****.....  .....%+****..  .+****;;33;;%++....+.             ...**55**.%****..#................#**555*5555*...**1*            ..%***55*. ...***...****1555**....*;555550500005*.*55*   . *50500005555555555555553*******.+++.***555900005****559000p01       ..****5550000ppp00055555555553*555500000055***558055005000*.     .****55500pppppfppppu0005550ppppu05000000ppppfpppp000055005    .   ....*5500up0055550055****************1*****35055555555555*           ..****555****5555555555555551*******1****555555553555*.     .*505555355555=*..****5**...**#*****.  ..+******.....******5.            .....%%****%..  ..           ...+*%..      ..+...%%..                .........           ......      ..........   .%%..        ",
"   ....         ..............  .........  .....                  .....%....     .......*%    ....*****;%%+......+.                 .***..*****.*.....**.******%.....***#*55**..****.             ..#**;5. .**..**.*****1553**..  ......******5**5551.      .**%.***55555555555555*****************559000005****55500005*          ...**555500055***551***<53**5**5555550555*5558055555555         ...***550000000000055555500ppp00555000000p0pp0000555555*.    *       .****5551****5005;***5115155555555******555***********           ....**35*********5*3;3;**5115*<*<11<1****555555553355*        .***..**;5***..*55******..***555**.. ...+****.......******.             ..  ..%**%.   .........   . ......         .........                 ..+%+....          ......      ...          ....         ",
"            ......%.....    .....................                     ......    ..........      ......+%++......++.                 ......************************.***35<55********#               ...*+. .*5*.+00<155555555*5***#********3*555**500*              .55555555550008955555555555555555590000055555555005**.          ....**5000095*..55055050095555550000000500550000550555*            ...%**5555005555****5550000005500000000555555555*500*     .        ...**55555500005555505555555500055555555005****51***.               ..**5555555550*********************115555555**<**..             **3**...%*95******#..***3****.  ........+#..******..              ..  ..***..............  ........... ..............                ...****%%.................. ..  ...........   ...          ",
"              ......             ...............                      ......    ..........            .............  .                  ...%***.#.....**%*%%%*.******<*555*....***.                 ....  .**. .55***********55***15**53;53*<1****51.    ..  .  ....*********55555555555****5555*****5555**********55*..   .       .   ....**555500055555555553555500005555551*5505*55****               ......5000005555*****55**<55555555555595500055555.     .          ..**555555515****555511***5555********555****51**..                ..**5505555505555555555***5555*************..***.     ..  .**...***. ..**3***..*******55******.*******.......**#. .              ..  ..........   ....      ...........   .......                         ............    ....        .............            ",
"                                                                                                        ....    ...  ..                    ..... .    ... ..      ......*..   .**.                      .................  ........*..**............     .   .  ................................................  ......                    .....*5*.............*.*..%.............*5. ..          .          ....................***..**.....%*******.*.  ..  .              ..**..    .....*....................*%......                     ...**.. .**.............****............  ....      ..   ... ....   .**.%%..........................       ...  .              ..         ...                    .                                                                                           ",
"                                                                                                         ..   .  ... .  .        .                      ...             ..    ....     ..              ...    .              ..   ........      .                .    ..... .        .  .     ..  ..... ..  ..      .                                         ...         ....      .*.  .   ...    .     ...           .          ........ .           ..  ... ...                           .     .   .  ..      ..    ..  .   ..            ..                              ...        ....      .    ..   ....   .. ...   ...                                   .          .                        .                                                                                                    ",
"               ..  .....          .         ...       ....  ..        .               ............ ...........8..+33. .+...*.  .**..**..              . *55. .........%*************.****....*55********.       ..       ...***5******<55;**...**********...+****.+..%*355***.  5 .. *... ....*5.***55..5r**5<*****35*.***********.**********....  .   .   *..*******..*<<35;*******+***********555******5505*..**  .  **.    ..*..********************53**.+****555*...****5=+  ...   .*.    *....<5*..05***......***. .*55*5. .55*..**...**5***.*.. ..#. ..      .****....***55*..*.. .******....*******... .*55*.... ..   ...     ..**. .***%*****....%**.. .....+++.. ..**.....*.   ...           .***.....%**%. ................+. ....        ..   .. .       .   ..  .....     ..                     ",
".......        .    *********5555008555055555555550000005555055500055***..           .50r09000000859uurrrrr099rskksupsssppfccbcfffpfffpp0000555*.   ...*0fcfccbcppppppfpfffffffffffffccccxfffffffffffffffppp0005555**;**5pccffccccccxxfccccbbbbcfcffccfffccccbbbbbbcxxkxffpp0pp5p**5 *    .50pfcffffbcfdcMfcbccckxccccccccccccccbbcccbbbbcfffppuu0005..*.  *5fbbbbbbbbbccccccccccbbbbbbbcbbbbbbbbccffcccccbbcgfppf0005.  . .*9pcMbNbcccccccccbMbbcccccccccxcccccbcccccccccccccf0pffp505**..*.  %0pfcbccbNMbbbbccbccccbcfdfcbbcbbccbbmbcbcccccccfpfp0pfp0550     .5pcbccccccccccccffccbbccccxcfffffffffffffffffcbbcfp00009*...**  .  .*5pcccpdddfpdddppdpdfccccfffffffffffpffffffppp05***553*.         .000555000pfp0000ppuup0000000008550000000pp00ppp005*....          .***5000000000055********55*555555*%%",
"*******...          *5553;55505555055550000555550000000000pp00ppppsp05553*...        .0pffffpfpppfffspr09999885skduusfffcpppfcccxxccccfffpp05**..  ... 5pfccbbbbbcccccccbbbbbbbbbbbbcccccccbccccccccbbbbbccffpp05*+  .  *pcbccbbbbbbcccccbbbMbbbccccccccccbbbMMMMMMbbbbbbbbcccf0p*50**   .0fcbbMbbbbMMbcMNbbMbbbbbbcbbbnbbbbbbbbMMMMbbbbbbbbbccfffpp5..5.  *pcbbbbbbbMMMnbMMMnnnbMMMbbbbcbMMMMMMbbbbbbbbbMMMbbccccppp5** *. .*pcbbMMbbbbbbbbmMMbfpppfffcbbbbbnMMMMMMMMMNMMMMMMbcbbbf0p5**.*5*  .0cbbbbbbNMMMbbbbbbbcbbMbfpfcMcbbccbMMbcbbbbnMMnbbccgfpppp9*..   +0fbMbbbbbbbbbcbbcccbbbbcccccccccccccccbbbbcccbbbcffffffr3..*5*    *0ppcbMbbbbccccccccccfffcccffccccfffffkcffffffffffppppp05*.        .pppppppfffffppppppppfpp00000p0000ppppppppp000p00555***..         *555500055555555**%..++.***********13",
"555****.....       .%******55555000555500053****5555555550pp0900pppp005095;*..       .5pfffffpppsfffsp08855558r09rudkkffcp050pfffxcfffffpp05*...    . .pfffcbcfcccxffffffcccccccccccfffffccccffffpfcbbbbccffpp0055*     .pcbccbbbbbbccbcccbbbbccbbbbbbbbbbbbbbbbbMMMbbbbbbccccf0p5pf55  .*pcbbbbccbbMbccbbcbMMbbMMnbbnMMMMbbbbbbMMNMbccbbbMbbbcfffpp0***.  5pccccgfgcbMMbbbbbbbbbMMbcccffcbbbMMMbbbbbbbbbMMMMbcbbcssp050**.  .0fccMMMbbbbbbbMMbcp000p0pcbbnnnMMMMbbbbbbbbMMnMMnbMbcf00555**5*  *pbMbbbbbMbcccccccccfcbbbfu0fbcfffcbbbccfccbbbcbbMbbcp50fp* *.   .5pcccbbbbbbbccbcccccbbcccccccbbbbbccfcccbbbbcccccffffff05**55*.   5pfffcccbcccccfzfcbccfffffffcccccfffpfccxffppfffccffffp0555*.      .0uu00ppfffffffppppfsp0055*5500pppp005500005550005505***.         *550055555***555*%.......*553********",
"555***%...**.      .......**559000005500955*******55553*.*505*<550000000005**.       .*000fpp0000ppspr953;3338d5*3ukxffffp0850000pfffffffp55**....    .fcdpccfffppp0050000pppppppppppp0ppfffpppp00pfcccccfppp000005     *pccccccccccccccffcbbbccbbbbbbbbbbccccfcccbbbccffffffcfpcpff55...*pcccccffccccfffccccbbMMMMMnbbbbnbbbbbbnMMMcccccbbbbbczfffffp5*  .*0fffppppfcbbbbbbbbbbbbbcffpppfcbnMMbbcccbccccbbMMbbbbbccfp0p**.  .5fccMbbbccccbbbbcp0500pp0cbMMMMnbbbcffppppfccbbbbbMbcp000pp0*.. ..pbMbbbbcccffffpsppfffccbxp00fcp0pcbcffcppfcccccbMMcp00005*.*.   .*0sffcccbbcccfcxffccbcccccccbbbbbbkffppfccbccccfppppff00rp00***.  *pp00pppfffffpppppfffffcccccfffcfffppfcccfpppppffccfffp05505*.     .5555500pppfczffppfff005****550ppp005***555555000000055*.         *555055555;;*55**%......*55555*****..",
"55****+...*<*       ........*559505555595555******ppp05#..*55****555000pp0055*       .*5550055555500u053;;;;;5s8*%8skksr900u05***0ffffccfp055555*.     0p00dfppp0955**=*550000000000005500pp00pp00pfcccccfpp00pffp0.  ..*pffffffffffffppppfcbbcccccccbbbbcffp000pfccbcffppprpfccNbbc*=.  .0fffffffccffffppffpfcbMMMbbcccbccffccccbbccffffbMbbbbbcffcbbp*  .**0ppp00pfzcbMMMMMMMMMbbfffpppsgbMMbbcfffcffffccbbbbnMMMMbfp0 **...5pcfccccgfffgcccfppppfffpbMMMMbccccppp000ppffbbbMMMbfp0pfcbp*   * 0fkfcbcffffppppppppffppccs055p00pccfppfpppffcbbbbNc00ff*.*p*.   %5pfffffcccccfpppppffccccfccccccbbbxfp00pfcccccfp0000000pcccp****  *55**0pppppp00000050ppfccbccfffffppp0pfffpp000ppfffffp0050005.     .******550pffffp00ppp0051***550upp055******<55000ppp055**.    .   .***55555;;;****....... *50005<***...",
"******....%*%             ..%******************..*00001*.#*55**.**55000ppp095*.      .<555555****55585;%++%%%%*00;.+udr***55*   .5ppffccfp05*555*.     *555000ppp00555000000000000005555050000p000ppfffccfp00ppffp3    ..50000ppppp00000500ppppppp0pupppfcbcffffcbncffppppppppffCMMc.*.  .5pp0pfffffpppp05p05pfccccccfppffpppppppsfpp000pcbbbbcccfffbbp.  .. 5ppp000pffcbbbcbbbbbbcfppppppfffffpp00pp000ppfffccMMmbMfpp0 **.. .8p00ppppp0ppppppp0pffffpcbbMbcffppppppfffffsgfcbMMcpppppfc0.   . *0p0ppp05ppppp00pppp0550pp5. *50p00005505..5cMMcfcffff0..0c.    *50pf00pppppp00000500pp000000ppppppfp0000ppffp005555550pfbMbp* ..  *00555000000005555**50pffpp0555555555500555*5*55psffpp055505*.      ******55555555511555055****555<5555**55*...***55000055***.   .   .%............           .****..  ...",
"..%%%......%.              ...**********............****.*****...**55<500555**.      .*55551******15955333555;+skr%.9u9;5*...  .=5*50ppp05**.****     .*0p00000000000000pp00000p00p00pp0p00000055000pppffp000000003   ...50ppppppppppppp00p0000000000pppffpppp0ppafp0000pppppp00bcbc*3.  .0p000ppppp00p05*0pppfccccccfpfffffpffppppppppppfffffffppppff5   .. 0fffffspffffffffffffccfffffppffppppppffcfpffffffffbcgff00pf.  .. .ucfffffffdfspfp0ppfffffpcbMMMbcffffpffffffppppfcbcp00p050p5..  +.5ppppp000ffffppppppfp000pfp5**0pp05555**.  .0ffp05pfp5.*5rp..    *50pppp00pppppfpp00pp0000000p0pppp0000500000p0050ppppp0ufcbp*     5pp0555=0505555555500pppp055555555555555555555550pppp0550055*       55555*55555555155555**********.....***********<555555****.   .   .*..............  ........**5*.......",
"........ . ..        .. . ........................  ...*******...************.        *555***155*5**3;;;;3553;.0sr;.%;*+*.  .***** .50005**.*555*       50p550055555550000000000000000pp0055000000000ppppp00000005*   ...50puppppppp00ppppp00000000000pppp00ppppppppppppppppppp5cfbc;*.  .0pp00pfppp00pp5.0pppppppfffp0ppppppffppppppppppppppfpppppppp*  ..  5ffffpppppppppppppppfppppfpppfffpppppfffffffffppppffppf00pf   .*  0cfpppppppppppppppffpppppfcbbcfffffffppppppp00pfbcp00fp0pp5.   ..*0ppppppcfffpppppppffpp0pfpp5*50005...********5505005.*0pp5..    .50pppp0000ppppp000pp000000pppppp00000000050p0550pppp0055pff5.    *0p55555555000000000000055**5555550005*5500555550pp005*50555*.      551*****555*****5**************************....******..**.       .%........   ..   ..+**+. .***.. ....",
".......... ..        .............   ...%%...%+***....********.*****..***..**.        **55***1*535<*******333;%598;......  .5055** .****...*5005%       *00550055555555000000000005050000555500000000ppppp0p000005.      *0p0000000pp0000ppp0pp0000000pppp0ppppppppffppppffp0pfpfpcf**   .0pp00ffpff0pff0*50pp0ppppfpp00ppppppppp00ppppppppppppppppffu. ..   5pppppp0p0pffppppppppp00pppp0pfffpppppffpppfpp000ppppfzppdd   .*  9fp00ppppppppp0pppfpppppppffffppppffpp000pppp0pfcfp0pfpppp5.   . .5pppppfcfpppp000ppfffp00ppp01***5*. *550pp9*..#*5****5pfp5.      *0ppp00000000p0000ppp00000pppppp0000pppp005p0050ppp000550ff5...  .5055000000000000000000055*55555500555*5550555550005***50555.       **********5**..**************15************.......***...*.       .*.............   ....+.. .***.......",
"............         .........*...  ...%..........%.*****55*..#******15*.#*55*.       5**5******5555*****555555555;**...***5550505*.     .*55505.       500500000000000000500000005000000ppppp00000050000000000005*      *pp000ppppppp00000pfppp000ppppffpppp000ppfff00pfccp00pcpffp..    *0p0pfppppppfff5.*pf0pfffcppppppppppp000pppppppppppppppppfd5  ..   *0pppppffpfffpppppppppppppppppffpppppfffffffpp0ppfpfffpppfp  . . .5ppppppppfffffpppppppppppppppppffffpppppppppppppppppppp0005.  .. *0pfpppppppppppppppffpp00000005*...*0pp00up00*.    .*00ppp0*      *00000p0000000000p0pppp00000ppppp00ppppp00000000p0ppp*00pp0.  .  .*0000000000000000550000055500055555555555555555055*..*50005   .    ..***5****551*...*55<***=**11*************...#%%.******%**        ................ ...................",
"............         .........*...  ...%+%+...****..#.******#*****11115****55*.       5**5****1<5551******5555*<55590005*55550050505**.**5500005.       50050000000000000000000p0000000000000000000000000000000005.      .00000pppppppp0500pppp0000ppppppppp0000ppppppppp05550pf0pf0      *0p0pfpppppppfp0**505pfp0ppppppppppppppffffffffffpffffffffp5  ..   *0pffppffffffppppfpppppppppppfffppppppfffffffppppfpffppppfp    . .5pppppppffffffpppffffpffpffpppppffpppppppppppppppppppppppp5      .5pppppppppppppppppffppppppppbcffppffcf00ppdpp0555580p00005.      *00000p000000000000ppp000000000000000pp00000000000000*00pp0.  .  .*000000000000000055000000550005555555555000855505*...*55503   .    ***5555555**1*...*35****************************%**.**..*.        ....................................",
".......... .         ...................%%%%.%****...#..**************1****55*.       5**5115511**1********5555555000000555000000055555555000000*       500505500000000000000000000000000000000000000000000000005*.      .500000ppppp000500ppp0000p0pp00pppp00ppppp00fpfp5.50ppfppp0.     *0p0pfppppppppp05555*pfp5pfppppppppppffffpfppfffffffffffffp0.      *0pffppffffffpppfffffffffppfffpppppppppfppfffppppffffpfppfp      .0fppsppppfffppppppffffffffpppppppppppppppppppppppppppppppp5.     .5pppppppppppppppppfppfppppppfpppppppppppfffffp0000pffp0p05.      *0p0ppppp00000000000pp0000000000000000000000000500000500005.  .  .*000000000000000055000000555000555555055555505005**55555555.       *555555555*553*...******************************.**..#..*.        ....................................",
".......... .         ...................%%%%.+***%***....*..***************1**.       5**555551*****11**5555555555000555555500055555555555500005*       *00505500000000000000000000pppp0p0000000000p00000p0000555*.      .50ppp0pp000000500ppp00ppppp0000ppp00ppppp00cpff5.pfppfppf0.     *0pppfppppp00ppp000*.0fp0pfpppfffpffffffppppppfffffppppppfp0.      *0pfppppppfffppfffffffffffpfffppppppppffpppffpppppffppfpffp      .0fdfffffpfpppppppppppppffffppppppppppppppppppppffppffffppp0.     .5ppppppppppppppppppppppppppp0000pppp00pppfffpp00p0pfp00pp5       *0p0pppppppp00000000ppp000000005000000000000000005050000005.     .*00000000000000055550000005500055555555555555550*#*00555555.       **55555551*5553....***********************..**....*..*..**        ....................................",
"............         ..%................%%%%%%%%*%****...*.*******************..      5**555555*****55555555555555555555555589555555555555550505*       *00505500000000000000000000ppp000005050050000p0000000055**.      *5ppppu000000p000pppp0pppppp0p000pp0pupppp00cpff0.ffppfppp0*     *0p0ppppppp000ppppp5.5pppfppffppppfffffppppppppfpppppppppppp*      *0pfp0p0p0pffpffffffffffpppppppppppppfffppppfpppppffp0ffffp.     .0fffffffpppppppppppppppppffpppppppppppppppppfffffpfffffffp0.      50p0pppppppppppppp00pppppppppppppp00550000pppp0pppppp0000*       *0pp00pppppp00000ppppppppp000000000000000pppp0p0005550p0005.      *000000000000000555000000005555555555551****5555. *005**555*       .*1555**11*5005*...%**********11**********....#...*.%*..*.        **..................................",
"............         .%%...%.....................*******#**.*******************.      5**555555*****55555555555555555555555555555505555555000500*       *55*550000000000000000000000000005555555550ppp00p0000555***      *0p0upu000000p000pppp0ppfpppppppppp00ppppp0pbpff5 pppppppp0*     *0ppppppppp000ppppp0.*500fppffppppaspfffpppppppfpppppppfppfp5      *0pfppppppsffpffffffpppppppppppppfffffffpppppfpfppffp0ffffp.     .0ffffffffpppppppppppppppppffffppppppppppppppffffffffffffffp*      50000ppfpppppppppp00ppffppppffppp005*****50pppppfpppp555**.      *0p000ppppppu0000000pppppppp00000p00000000pppppp00000pp0500.      *000000000000000555950000550555555555555555555**  *55*.**59*       .*1555***1550055*%..**********111**********.#***.**%**..**        **. ................................",
".......... .         .%%...%.. ...................**********55********.*********      5**5555555***1555555555500000005555555555555055555550005005.      *5**55000000000000pp00000000555555****555500p00000005555*1*      *00000000000000500pp00ppfffpfffpp0000000pppfbccp* 5ppp0pppp5     *0ppppppppp00ppppppf05**5fppppppppppppppfffffffffffffffffppf0.     5pfcffpfffffffffffppppp0000p0pppppffffffffpppffffffpp0fffpp*.    .0fpfffffpfppppffffffffffpppffffpppppppppppppppppppppppfdpfp*     .500000pppppppppppppppffffppp005555***#***50pppppfpp005555*.      *50550000000050000000000ppp00000000055500000pppppp000000500*      *00000000000000055905005555555555555<5555000555*.*100555550*       **555555555555555*#...........*********555***<5******...**        **. ................................",
".......... .         ........  ...%%................********55**#..***.*********      5**5****55*5555555515**50000055555555550555555555555555*505.      **..*3500000000000p000555555555*******5**550p00000005555*5*      .5555555555555555500050000pppppp0005555000ppfffp5.5ppp0p0pp0 ..  *0pppfppppp0ppppppfcpp5**0pp00000000000pppfffppppppppsfffppf0.     1pfffppfffffffffffp0000055500000ppffffppffpp00pffffp00cfp0p5.     5pppppppfpffffffffffpppp00pffffppppppppppppppppppppppppppp0.     .*555500pppppppppppppppppp000555555555500550ppppppp00055555*      .*5**55550005555555550050000000000555**5500000pppp00055550p*      *00000000000000000000555****55*********500055****55500505*05       **<555***555***55<*.          ....****<551*********.....**        **. ................................",
".......... ..         ..   .    ..%%... ................****<**........*****%***      ***5*****5555555513********5555555**555000005550000555*.*5*       ..  .#59000000000000553********<11<5555***5000005555555555*       ******555555<****5551*5555500000555555550005555500pp05000p0  .  *0pppfpppppppppp0pff0p0*.5005555555555550ppppp0050000pppp0pf0.     *0ppppppdpfffffffp005555555555000pppppppffp0500pppfpppcfp0p0.     5p00pppppfffffffffpp000000ppffffpppppppppppppppppppppp000p0.     .*5***500pppppppppppp0055555055555551**551*5ppfppfppp0*****5.     .**.****55555**5**555555555555055551**.*5555500u0000055*50p5      *0000000000000000000055**..*****#.....%*5955*.. .******55*05.      .***5****55*..*555*.. .......   ...***;***.%%%%...*.....**.       .*.  ...............................",
"..........                     .......   .        ......#.****..........****.***      ...*...****55555***%..%. ..****555****<55555550000055**.***            .*;55555595555555**..****55555555*****555055555555555*       .....*************551**5555555555551*15555*.**50p0u05*5000*     *00ppppppp000pp000p0500*.*55355555555***5000000555550000000p8.      *55555000pppffsp085555555555500000pppp0pp055500p0ppp0pp00p5.     .5***5500pppppfffp000555550pppffpp000pppppppppppppppp000005.      .....*5500000000000055*****555555555**51*5500pppfpp005****5.     .......***551*55**5*55551**55555555**..**55*15500005555*550*      *005500005555555599555**...+***.#..#. .****.... ........**5*.       ........*5*..+*3*...........   ....***%................+*         .     ..........    ... ..   ......",
"..........                     ......   ...       .........................#....           ...****55****....%. .**..****......****555559555**5<*..    .      ....***535*..*555*..*55**55551********3*1*5551****555*.           ...*****50053**555005**55*555551****..*50p00555555005      .*555555995550550550005**555*55055555**550009555555555555005..         ..****5500p005;*50005550000005*50p05500000050500005**55*            .*550000ffpp0005551500800pp05*555000ppppppppp0055pp0*    .        ..*50055**<5055**5555*5555505555555555555555555055555.            ..**51*05**5*50505****555*55**%.**55***5555555055***.      .55**505555**********#%%...*********+ .**.  .*53**.......*%.                ....................    ..................   .++.                 .......     ... ..   .... .",
"          ..                    .....   ***%........ ...                   ..               .....***.......***..**..**********5555...**5555*....             ....*****555*55*******. ..*******555555555555****555*.         ....***<1**550551501*555**505**********. .**551**555500*             .**********55055****50ppp05553*155555555*55<<*<5*355*          ..*****5000p000555500555555*55*.*50055555555555095***55*           .55000000ppp005555550ppp000005***5550000550000p000*55*          ...**5550p00550p005555055*5******..*5555555555***335****.            ...***5*p0*15*55*05***5555****55555551155555555****.              .*.............**3*55955**.....*555*..*55*%........*.                ..******+%..    ..%**.  ...........%***.......%**.                   ...**%....**..++. ..*....",
"............                     .....      ....**..  ..   .............. ....                      ***.............**..**+********%.*****..**...                    .55**5*..*50051**;5555551**%%****************.             .....*550055*****505*55055555555555***555555555**55*. ..       .%3555555555000*...%5055500555555005555555555555555505**......    ......**5555553***5555000055955500p50000000000005*3585*.   .     .     ...**50055500005000000055****555555555598555*555*.  ...      ...*%**5555550555;50000055550955505505555550555550555<   ...           ....55****55%53**35555***555555555******33**5005.  .*.   .   .**********...**55**%%5***...**%.....   .*****.%%****..                 ..........       ....      .............   .....                      ...   ..............  ",
"          .                        .    ..     .....       .                                        .    .......   ...           .*.....    ..                        ...*5*...***..**+..*+......#%+****.#******..                    ..****.******************... .**********.. ...           .**************.....**...***.*******....*.***********+.    .             . .......***5****5**5***.#**..*********..%.#...                    .**********5*****;3******************.... ....                   .......53*******.****5****5**********....****..   ..                .*...*** .%+***3********%..**#......... ***.    ..       .*............****..  ...   .***.....   ..         .*.                           .... .  ...        ..                                                    .....     ",
"                                        ..                                                                ..  .                   ..                                     .*..       ..        .. .......  .....                              ...  .     .   ..      ..      ..                  ...........    ....         ..*..        ...........                             ..#.....  .....                 ...                        .       ....   .......      .   ....                                   **....        ..   .     .  .                                     ...  ..........%...  ....                                  ..... ....             ....                  %..                           ...    ...        ..                                                     .        ",
"          ..                       ..                 ......         .*.................*.          ..   ..             ................*%.***.....**.....*****.**#**..........   ..     ....       ...   .....  .*******************##....                  ..... .**......%%.. ... ..***...   .............         .     .*********#*.************....... .*********%..........           .***.....*********..*****......**++...***+..  ..          ..       ..         ......***5*#....**..*************.****....             .    .*********....%*....*****..***********.**  .  ...   ....  ..  ......**%............ ..*...****...   %********...     ...        ...    ....     ......*..   ..............   ......          .   .....%+.......   ........      .... ...... ....                      ",
"55555555555*****<55****************5***.        ..   .*555550000000000p0000p0ppp0000000000ppffaspppp00055**.          .*0000p00p0pppppppppffffpppppppp00ppppppp0ppppp05*5%  ..    .+. .*5pfffffffffffffcccccccccfffffffffffffffffffffcczfppp05***....   .*;50pfccccccfffpffffffpppppffgzffffffffffffffffffffp05*****5**.  .*0ppfgccccccczcfffffffffcbccfcfcffffffffggfffffppppppp5*.*.*<55*..5uxcffcbcccccccccccgppfcbccfgcccccccccbbbbbcccbbfpppp00055*.....  %0cbbbcbccccffffffffccccccgccccffgcccccfffcfffffffp055***55555.. .5ppppfccgggccfccfffccccgffcccffpfffcfffffffpppp**55*505*.....   .. .*9rpppppfpfppppppfcfppffccfpsfffppffppfffppppffp555555**....   .*50pfppffcccffppfpppppppp0000000000000000000555555555*            .*551*550000095555551555555555**5555*****,555<**.......           ..**",
"3355*3*<*551***5900055555555550000000555p05*.       .50pppppppppppppp05555500pppffpppppsppffffffffff00ppp00055.       *0pffffcccxcbcccccccccccffffffppfcccccfffffcccf050pfbccf05***.   *0fbbbccbccbbbbbcccccccccccbcccfffccbbbbbbbbbbbbcccbbMbcfp05**. .*90pcbbMMbbbbbbbcbbbbMMMMMbMMMMbcbbbmMMMMnbbbbbbbbbcfcbbbfp5***   *0fbbcccbnMMbbbbbbbbbbbbbbbbbbbbmbbbbbbbbMMmnMMMnbbbbbbbcfp0555.   *pbbbbbNMMMMbMMMMnbcfpfcbbbbbbbMMMnbbbcbbbMMMMMNMMMMbccfpp5...*..%0bbbbbbbbbbbMNMMbbbMMMbbMMbbbMbbbnbMMMMbbcMMbbbnnbbcbbcfp055*.   .0cnMMMbbbbbbbbbbbbbbMMbbbbbbbccccbccbbbbbbbbbcc*5fcpffp0***..  .**50pcbbbbbbbbbbbbbbbbbbccccbbbcpcccffbbccccccccffffppfffp0*  ..  .*0fccffffccbbcccccccffffffppfffccccffffffpffdpppppp0000005*.. ..   .0pp050ppddppp00055555550000000500055555500005550000553*%.        *<**",
"5555555555******58000000005000000000055555*.        .50pdpdfppppppppp05**5500pppffppppfspppppppfffffppffp05***....   .50dffcccccccffffffcccccccccccfpppfccccccccccccf050fccfp0055*..   *0cbMbcccccbbbbbbbbbcccbbbbMbbbcccccbbbbbbbbbMMMbcccbcfpp01**..  *0fcbMMMbbccbbbbbbnnMMbMnbbbbbnbbbbnmMMMMMbbbbbbbbbbccccfp0555*   .0fbbcfcbnMMnbbbbbbbbbbbbcccccbMMMMbbbbMMMMMMNNMMbbbbbbcfp0555*.   *fMMbbbNMbMbbbbMnncfpppfccbMbbnMMMMbbbbcbnMMmnbbMMMmbcfp055*#**. .pNbbbbbbbbbbbbbcccbbMMbbmnbbbbbbbbnbMMbbccMnbbbMMbbccffp055*..   .0bNNMMbbbbbbbbbbbbbbbbbbbbmMbbcbbbbccbbbbbbbbbb*5cMzfp00*55*.  .*9fcbbbMbbbbcccccbbbbbcbbbbgfcbbfbbcffbbccbbbcccccfffffp005**..   .*5pxfpppffccccccccccffffpp000pfffcffffffffffffffffpp0005<*.        .0ffp00pffffpp0005*5****550pp000ppp05<<50ppp055550055*.. ..       *555",
"5558888955*....*;590055555555555500005555*.          *5pppppp0000ppp00****5550pffffpfpp000000000ppfffccfp0**.*<**.   .5pfffffffffp09000pppfffffffffpp00ppfffffffffccf050ffp0555005.   .*0fbbcbcccbbcccccbbbbbbbMMnbbbbbbbbccccfcbMMbbbbcgffffp0pp50*.   .0xccbbbbbccccccccbbbbcbbbbcccbbMbbcbbbbMbbbcccbbMMMMbcfp00ppu5.  .5pczfffcbbbbbbnMMMMMMMMbcffffcbMMMbbcccbMMbbbbbMnbbccbcfp005**.  .*pbbbbbMbbbbbbMMbbfppppppfbNnbMMMbbbcfccbbbbbbbbnnbbcfp005p055*. .0MbbbbbbbcccfffffffcbbcccccfzccccccccccfffccccbMMbbcpppp0pp0*..  5pbMNMbbbbbbbbbcccccbbbbbbbMMMbbMMbcfcfcccbbbbbc*5fbcffpp0f05.  .50cccbccccbcfffffffccccbMMbcfgcbcbbcffccccbccffcccccccff005000..   .=0pp000pffccccccccccffp0005000pffffppppppp0ppfffffppp055*.        .0ffp0ppppppp00005*...**550ppppppp051**550000005555*..    .       *555",
"5555555555***..**55005*....***..15000000p055*.       .*50pp005**5pfp05**.*55*5pccccffp0555005**50pfcccccp5**50pp*     *pcfpppffp0555500000000000000000000000000000fbcp5pff000pfcf0*  ..*5pffcbbbbbccffffffccccbbbbcccbMNMbfffppfbNNMcpfppfffzccbbfM0*.  .5fpuppcbbbcffpppppffcbMMMbcccbMMbcfffcbMbcffffcbMNNNMmbbccbbp5.  .*5cppfspfcbbbMMMMMMMMMbcfafffccbbbmbfpfcbcfppfcMNMnbbMMMbkcp5.....5pfcbnbcffgcbbbbccppffpppfbNMNNNbcccf0pffffccbbMMMMbcfpppfcfp8. ..5bbbbbbbccfpppppsfffffffffffsppffffffpppppfgcbMMMMMbppfccbMf5 . .0pccbMcccccccccffpfcbbbccbMbbbMMNMbgpgppcfMcbbbf555pffcccfMc5.  .*5ppppppfcccfppppppffcbMMMMbccccccffppfffffppppfcbbbcbbbcfffcf*.  . *590p000pfcccbbcfccbcf000000500pfffp5500p0**50fczffffffpp0*.       *900000**5000005**..**550upffp005**********500p005*.  ...*+      .%+.",
"**********...  ..%**3*.. .......*50055500055*.        .*5005*.  .<55*.1***55*50fppp0055***55****50pfffff05555585.     .0pp00000055555000500000000000000000000000p0fcc050pf0000pp0*      *000pffffffppp000pppppfffffppfcbbfppp00pfbbfp0pppppppffccfM0**  .5p05900pppppp00000ppcbbMbcfppfcccfspafccffppppfccbnMbcczffccp*   ..5cppppppfgccbbcccccccffppppffzccccfpppfffpp00fbmbbbmMMbcfkp* ..  .0ppfccppppfcccffppfffpppfbMbMMbcffff0pppppfffccbbbccfpppffp8*   .*cfffffffpp0pppfafffffffffffpppffffffppppp0pfcbMbcffp0ffpfcp.   .50ppfcppppffpppp050ppppppffffffcbcfp0050ppcffffp*#**.*0cbMMp. .... 000u00ppffpp00000pppfccccfppppfpp0000ppp000000pffcccfp050pcf*     *55000000ppdffcffffccp05555*55500005***15*...50pfppfffp000*.       *505555***55551***..**55500055*...  .*....**550005*........       ...",
"............     ..+............**1111*555***.        .*155**...******5**151**0ppp00555**********500fppp055555**      .*05555555*555555555550000000000000000000p00ppp5*0pp000p00*.      .5000ppppp0000005000000ppppp0ppffp000000ppfp00ppppppppffcfM0** ..0fpr000000ppp000000pfccccfpppffffpppppffppp00pppffcbcffpppff5.    .5fdpppppfffffffffffffppppppppfffffpppppppppppfcccffcccccpfp* ..  *0pppffpppppffppp0pfffpppfcbbbbcppfffpppp0pppsffcbccfffffpp0*.   ..pp0pppppp00pffffffpppffffppfppppffffpppff00pfcccfpppppf0pf0. . .55pppp00rppppp0000pppp00ppfp00ppffp0000rp0fppp0p***500pppcc0. .....00000000pp00005000000pppp00000p00555550050000000pfppp0050000.     .550000555000005555005**555***555055***551*.*5000055505555*        .*51*1*..+**5**.********550055*....%***.....**555*%......         .  ",
"  .... .......  .........***%..****#****5****.        .*****55*55555115***55**50pp005555555555555550p00055555<**.     .*555555555555555500550000000000000000000005505**5500ppp05%       *0p0000p00000000000000000ppp000pppp0pp000pp00pffppppppfffpb0** ..0fffppppppppppp0ppppppffffffffppppppppppppppppppppfccfpppppf5     .*ffppppppfffppppppffffppppffpffffpppppppppffffzffppfffffpfu* .. .*pfppfgfppppffpp00pffffpppfcbbcfppffffsppppppppfccffpfffspp5*.  ...000ppppppp0ffffpffpppfffffppppppppfffpffffffffffffffpff0pp5. . .*5pppp0pppppppppppfffppppffp000ppfpp00ppfpfppp5p5*5pfffp0pp5..*...*ppppu000ppppp00000000pppp000000005555555500pp00000000000005*      .5000005555050055555005505555555555555555555555055*****1551.       .*5****..%*****.*********550955****55**.....%****.........       ....",
"..........**........ ..%****#%****.....***#**.       .******555555115555115<**55005555555555000055550055555551**.  .  .*55055550005555550055000000000000000000000**5*..**50ppp05.    .  *0p00000pppppppppppppp000ppp000pppppffppp00ppfffppppppffp0b5.. . 5pfffppppppppppppppppffffffppppaafpffffppppffpfppppffffpffpp*      *fffffpppfffpppppfffffpffffffffffffppfffffffffffppppffffpf0*  ...3pfppafffffffffpp0pffffpppffccffppffffffffppppfffffppfffppp5.  ....00ppfffffpfffffsfppppfffffpppppppppfffffccffpppppffcfffppp5. . .**pppp0ppfpppfffpfffffpppppppppppfppp0pffpf0p055**500pfffp0*..*. .*ppppppppppppppp000000ppppp0000000055505000pppp0000pp000pp00*      .50000005550000055500000005555555555500555555555555*****555.       #<5************+***.***.**155<****555****...%***........  .      ....",
"..........**........ ..****...***#.  ..**.#*..       .********555****555515****1****551***5500005555555555055*5*   .. .*00000000005555555050000000000000000000000****.*1**50005*..   .  *0pp00pppppppppppppppppp0pppp000pppffffpp00ppffffpppppppp0c*..   .50ppp000pppppppppfpfffffffpp0pppffffffpppffffffpppffffffffp*      *fffffpfffffppfffffcffffffffffpfpffpppfffffpppppppffffpfpfp* .. .*0ffppfpfffffffffpffffffpppfffpppffpffffffppppffffpppfffppp5.  ... 5ppffffffffffffppppppfffffpppppppfpfffffccffpppppffcfffpur5      .ppppppppppppffpppp0pp0000ppppppppfp0ppppf550*..*5* .0fcp5*  *.  .uppppppppppppppp000000ppppp000pp000000000000ppp050fp055000p5       *00055050000000555550000055555555**555***555***55555***555.       %******************#***..**......*********..............         ....",
"+.............        ..%... .****....***.....        ***..***555***<55555*****1**555555**555555***5555555055*1*   .   .00550000005555555550000000000000000000005**5555555****1*.       .0f0550000000ppp0ppp000000pppp000ppppppp0000ppppp0000pppp0c* .   .50pppppppfpppppppppppppppffp0ppppfffpppppffffffpppppppfffpp*      .fppfppffffpppffffffffpffffppppppfpppppppppppppppfffffffpcp* ..  .0ffppfpfffffffffffffppfffppfpppffpppffppppppppppppppffpppp5.   .  5pppffffffffpppppppppffffpffppppppffpppffppppppppppfppp000*       pppfpppp0000000pp000pp005pppppppppp0pp0pp*50***505. *5953*.  .  .000uu00000000pp0000000ppppp000pppp0000000555500555p005000005       *55*555555500*****.**5555551***;***5551**5555*<55555***555.       .*****=**....******#***..*...........****......*%%......          ...",
"...........       .. ..%%... .***.....*******.        ***.#***55555555**5*****550000000555555555*55555555055555*       .00550005555555555000000000000000000000005*500000005******.      .0fp5500000000000000000p0000pp000pppppp000000ppp0000ppppp0c*     .5pfffpppffppppppppppp000pfcfpppppfpppppppfpppppffppppffffpp*      .ppppppfffffpfffffffppppppppppffppppfppppppffpdffffpppfgfcf*     .8fffffffffppfffffffppffffppffppffpppfppppppppppppppppppppf0*      5pppfpppppppppppppppffffffffffppffffppppfppppffppppp0pp000*       pffffpppp00000pfpp00pppp0pppp00000ppfp0pf.5p0p0pff055*..*5*  .  *5500000000000ppp00000000p000000ppp00000055555555550000pp055*       *505555555500000055550055<5***5555550055550055*1555**1555*.       .****15***...*****.**********.....****.........****.....          ...",
".....................****.....****....#******.        *5*******1555555******151500555***555555555500555500555505       .005550055*555550000000000000000000000000**50p0ppp005;*555*      .0fp00pp000000000000000ppp0pppp000pp00ppp000ppppppppppffp0f+ .   .5pffpp0ppfpppppppppffp0ppfcfpppfffppppffffpppppfffpffffffpp5.     .fpppppfffffffffffffpp0pppfppffffpffcfp00pppppppfczfppfcfcf*      5pfffcffppppffffffpppffccfpcfppccfppffffpppffffppfffpppppfu*      5pffffpppppppppppppffffffffpffffffffpppppppppppffffp0pfpp0*       ppppffffpppppppfp000ppppppppppp000pffp0fc.*pp00ppp00005550*  *. .550ppppppp000ppppp000000ppp000ppp000000000005500000p00000005  ..   *559000555500000055*550555555555555555555555****50555555*.        .****555**..******.**********%.....**%%.%%.....%%%%...            ...",
" .................**.****.....**%*......*****.        *5************11********115555****555555555555*55555555505       .0055500555555505000000000000000p00000053.*00p00pppp000555*.  .  .0fp00pppp000000000000pppp0pppp00pppppppppppppppppppppffp0p*     .5pfpppppppffpppppppfffpppffppppppppppppffpppppfffppfffffffp0.  .  .ppfffffffffpffffffffppppppppffffffcccfpppffpppffccfffffccf*      *pffffpfffpppfffffpppffccffffffccffpfffffffffffppffpppppffp5      0pffffppppfpppppppffffffffffpppffffp000ppppfppfffffppppp005       ppppffffffppppppp000pppppppppppp000pfp0pp.*pp00ppp50pppppp5  *.  550rpppppp000ppppp000000ppp000p00000000050000000pppp00000005   .   .500000055500500055,55555555555555555*5*5555****555551555*.       .*1***553********************%......+%%.%..............           ...",
"    ........................#.****%*.....***..    .   #55*..*********************55555555555555*155***5555555***.      .0555550005055550000055500000000000055*...5pp055000ppp05**#.     .5p000ppppp0000000000pppppppp0pppppppppffffffpppppppppppp005     .0ffp0pffppppppppppppffpppppppppppppppppffppppffpppfffffffffp*  .  .ppfcfppfffp0pffpfffffppppppppfcccffffccfppfcffffffffffffcp5.  .  *pffffpfffppppfffffffffffffpppffffffffcfffffffffffpppppfffp5  .   0pppffffpffppfffffffffffffffpp0ffpp0555500ppffffpppffp05505.      0pp0fppppppppppppppppppppfpppffp0055ppp5.*5pf000pppppppupp5  ..  *50000pp000000000000p00000005000000000005000000000p005500005.   .  .500p000050005555555555555555555555555555555555*******555**       *55..****<55<***********5<******...**%**.................          ..",
"......%+++...........#******************.****.        *55*********11115555555555*555555555555555555555000005555*.      .05555000000000000ppp00000000055555**..  .5000550000005*...   .   5p0500000005550pppppppppppppppppppp0ppppppppfpppffffppp00p5.    .0fcpppccppffpppppppp0000p0ppffffffffffffffffffffffffffffxccf5  .   0pffp00ppp00pffffffffpfffffffccbccfccccfffffffffffpf0000p0*.     *pffffpffffffffffffffffffffffffffffffppppffffcccffffffffffp5      500000pfffpppffffffffffffffffpp000005*5550ppffcfffpffp5*505*  .   pfp0p00pppppppp00ppppppppfffffffp000055**5500ppppffdppp0pf0  ..  *500000000pppppppppppppppp0000000p000000000p000000055550005**      .55*********50000005555555555155555555555550555555555*55***       *55*.****<55*****.........%******..*****.......*%%*****%..         ..",
".......... .........%%******************%****..       %555******<555555555555***5555555<*55555555090000000055555.      .5***5500000000000000050555555<.#*%...  .*5000000000055*55*.  .   *055*555555555500000ppp00000pppp00000000pppppppffppppp000f0.    .5pp000pp0pffffppfpppfpppu0000ppppppppppffccfffpfffppfffffffp*     +pfcccfccccccfffffpp0000000000pppffffcccccfffffffffccfppffp5.     *fccccfppffffffffffffffppffffffffffffpppppppppffccfffffpppp0.     *00050pfffpffffffffffppffffpp00555555*5550ppffffffffp0**505*  .   0p055559000000500000000pppffppppp0000555500p0fppppppppp0pf0. .   500p00p000ppppppppppppp00000550000555550000000905005500pp0005      .55550000000000005555***********35555555555555555555555<*5*.      *55**55***5551******************...****.......*******%%...           ",
"..........  .............%%%*%.......+**.%***..       .*********3555555533****#*555553****1=5555000055500555**55.      .....**555500555555555555******..****....55000ppp0000535505.      .****.**3*55*1155555500555555005555555500000ppppppp000550f0.    .5pppppffppddfpppppppfppp055550000000000ppffpp0000000ppppffp0*     *rpffppffcccffffffp00000555555000ppppfffffffppaffffccffffcf0*     *ppfffppppffffffffffpppppppfffffffpppffffffffffffffffppp0000.     .55**50pdfpfffffffppf000pp000551*5555555500ppppffffp05**505.      55*.***555555555555555000000000005*555550000pppppp0000000p0.     00pp00pp00000000000000005555*155551*<**55555555**555550000005.     .**55900000p005555***.......%****555555555******5535555****.      .55***5**<555=***33******..*****....****......***%%........          ",
"....         .................    ........*%...        .......***55555*****%....55555**********55555555555**%%**.           .***55555**1****11*****...***53,5***555500p00505***00*        ......***3151******5555***<555,*****15555000pppp00055550f0.    .50ppppffpppp000000000000555*1555555555500ppp05*5555500000p05%  .  .5555555000p0pfffpp055055555555000000ppfppp00000ppppppp0ppp0*     .55500000ppfffffffppp000000pppppppp00pppsfffffffffffpp005505.      .*..*550ppfffpp0uppp0500005555**5555555550000pppppp0555505.      .*. .***35555555****5555555555055****55555000000000555500p0      5000000000855550000555555*****1*********5555***.*******555555.      ...******5555555***........%#*************.....%****55..**.      ..*..******5*******+....  ..*****....#**......+*......   .           ",
"..........    ...... .........    . .........               ....***155****%.....**55***%*..*.****555555555**..**            ..*******************#*..****555553<**%*5005****..*55*           ...***5555******5555***<*55****5555558000000000553*5005.     *3500000p09095555555555555*155555555555500005***55555000000;#...     ...*****55000p055**55555555555555500pu005***5550555*35055.       ..***550pppffffppp00000800000up0005555800pppppppppp005555*          ...*590pp005550005505055555555500000055550000pp00550005.  .       .***15555555555555555555550555******555550000055555055*      *555**555555555555555555<*****1**********113***.%.......*****           .....***5555***.......%%*************. ........***....            ...********%...       .****.....%*........*.... .   .           ",
"..........      .........%%**% ..............                ......********%.....****%............+*555555****..             .....*****1355155355*****#**********..%*555***1***55*           .*******55555555000055555555555555555955550000555*3*;5*         ....**500555555555555555**50000000000000055*555000000555.          **55**5500500955553555****35555555000055355555555555555*.          . *5500pppppp00009555000000000005555555555000p000555**.          ....*5900055555500000000905555900000955555500009500p00*.          .****1555595555000000055900000005#*50p05500000055550**.        ..  .***333**515355555553531555555*****555******5**.*****.          ....%%***55555******.%********.%%%++%**..........%**....               ..******........  ...***+..........   .*........             ",
"   .......      ...........%.................                       ...............*................*********...                  ...*****************..%%*.*..**..*555***1555555*.          ........***355555555555555555555555555***55555555***+..   .     %****359955555555550055***555555555555005555555555555***           .***...**000pppppp00000599000555*55555*555500005500005*.           . ...***5500005555555055555555550pppu000000555555555*.           ...****5555555555555555555555555550555555555555355005*.           .......*35555555555555555555555p0**50005555555555555...             .****************5555551***********55******55***55**.                  ..******#....**...%........................*...                  .......%......... .%*%..   .....     .........             ",
"       .        ....    ......          ......    .                        .....  ..............  . ............                     ..*.***........*..*%%%.....*...***.*..***..             ...      ...*******************55******..******5**5*.    ..     .*+..****************51*************555***555**535***...            ...    .*****555555555****555***5555***55*********55*.                    .**55**55*5555**********5555555555551*****55*   .           ..   ..*555**.**<55*33355<***555**55***+******555*.                   ..**************+*%*****5**.#*%.**.**********     .         ..************....********.**......+**.....+*.....#.     .                   . ....................  ........     .%.      .                          .... ..%%..   . ..            ...             ",
"                                                                                    .   ..                     .                      .        ..............       ..     ...                            ....... . .  ................**......**     ..     ............ ...   *....**%...............*****%%...      .                 ...   .........  .*.....*....................                      ..+.**.**..**........*#..........*.*.....**.                       ....  .........%....**.................*.                       ..    ......   . . .*...  .    ............                ............. . ....... . ... .   ..      .. . .        .                          ..   .      ...               ...      .                              .......                                   ",
"                                                        .......  ..      ..                        .....      ..... .  ................         ......%        ..       ........ ..  ...       .....*+.    ..       .    *. ..........****..   ........++...................*. .*    ....*...  . ........***................o.....   ..***++..       ..    ..........................**.............*...++..... .. .*. .*  ..  ..*.*.....++...**#*...**  .....   ...      .........  .  .  .  .   .**. .+............................. .++..   ..     .....     . %* ...........**.......     ..... ....   ..  ....     * .* .       *. .+ ...    ...***..      .........   ....  ...        .    .     ...... ....      . . ........      ....  ....                    .                             .     ",
"**+.                 ...+**5555555555555**5555****555555****555555555**..*..    .   ..**553555555500pp095*550050000555000000000000000555*53*..       .**55500000p0000000000000000000000000000000ppp0550005*.   ...  *.  .00000000000pppppppp0000pppp00pppprp0000ppppppppp005555*5 ....  .. .*55pppppppppppfffppppppfffppppppp00pffpppffff05555555505***.    .0pppppppppppppppppppppppppppuppp000000ppppppp00000... #**.*5*.  .50pp0pppppppppppfpppppppppspffffppppppp0pppppppffp5***55**5*.*..**35pffp00pfpppppppppppppppppppppppppppp0000pp00ppf55<*****#......*.0s0ppp00tpp00pppp00pppp55000000000ppppppp0055555555**.5..= ***#.   ***pp0ppp0000pppfppp00000055000055500pppppppu0**.******.     .   .*390000ppp0055555595********555555555005******..... ..*..        .****555**************%%.************",
"*******555          555555500p0000000000ppp0000000ppp00000p0000ppppp00p00005. ...   .*0ppppppfffffffcfp05550upffffffffffffffccccccccffppppp005**.**...*0fffcbcccbcccccffcccccccccccccffccbbbccccbbbfpfcbbbbccfp00*. *.  .fcccbbbbbbbbbbbbcbbbbbbbbcbccbbbbbbbbbbbbbbbbbnbbbccbbfp*=5**   .50fcbMMMMMMbbbbbMbbbcccbbMMMMMbbbbbbbbnMMMmbbbbMMMMbcccccp5*.*.  .0cbbbbbbmMMMMMnMMMnMMMMmnMMbbbbMmbbbcccbbMMMMMMMbbbNNNcbf0**.*.  *pbmbcbMbbbMmnnmbbccccccccbbbbbbbbbbbbbbbbnMMbcccbcgffcbp8505**..*50fbMMbbccMMMMMMbbbbbbbbbbbbbbbbbbbbbbbbbbbbbccccbMMmbccfp00*..  **pbcbbbbbbbbbbbccccbbbbbcccbbbbbbbcccbbbbcccbccccbbcfpfc000.... .  *pffbcfMbbbccccccccfffffcccffcxcffffffccccffffcccfffffpp5..      .5pffffppffcccffffffxxffppppppppfdppppppffpppdppp00005*..          *9000p00000000000555;**35055555555555",
"00055*....          000085500pppppppppppppp0005500pppppppppp000ppfffppp08005.        *0fffffffffffcccfp055550pffxffffcccffffcccccbbbccfffpp055**%*..  .uccccMbbcbbbcckffccbbbbbbbbbccffccbMbbcbcbMMbccMMccccff05*** .  .*fbbccbccbbbbbMbbbbMNMMMMMMbbbMMMMMMMMMMMMMMbmMMMMMbbbcp055055*..*pcMMNMMNNNMMMnMMMMbbbbbMMNNNNNMMMMMMMMMNNNMbbMMMMMbccfdpp005*..  *0bMMbbbMMNNMMMMMMMMMMNMMbbbbccbNNNNMMMMMMMMMMMMMMMMcccffp000*3.  *fbMMMNNMMMMNNNNMbcfffxccfbMbbbMMMMMMbbbbMMMMMMMbbbnnbcfp0005**. .3pbMNMNNMbNNMMMMMnnnMMMbbMMbMMccbbMMMMbbbbmMMbbbbbmbcffp00555.   *5cMbMMMMMMMMMMMbccbMMMMbbbbbbbbbbbccccbbMMbbbbbcbbbcfdup055*.    .*0cbbMbcMMMbbccbbbccccccccbbcbbbccccccccbbcffffcccfffp05;***.     .5ffxffppffcccffffffxxkfppp0pppffffdpppppffpppfffpppdu5*.          *0pppppp0000000055******5000000000055",
"00055*....**%.      555555550pppppppppppp0055**555pppp0000ppp000psfffff09905.        .5pffppffffffffffp0055550ffxkcfffcfpppppfffxcbcccccfpp05555*%..  .0cbccbbcccccfffffffcccccccccffpppfcbccccccccbbbMbccffpp00005    *5cbbcbbbbbbbbbbcccbMMMbbbbbbbMMMMMmbbbbbmMMMMMbbbbbbccfpf0pp555+.5kcbbncMMMMMbbccbbbbbbbMMNNNMMMMMMnbMbMMNNMbccbMMMMMbccffffff0*   .5fbbccccbMMMMMMMMMMMMMMbcccgffcMNNMMMMMMMbbbbbMMMMMbccffpppp**.  *pcbbMMMMMMbMMMMMbcfpfffffbMnnMMMMMMcccccbbnnnNMbbbMMbp0p0ps05*. .5fMNMbMMMbMnbbbcccccbbbbbbbbbbcxccbbbbcccgccbMMbbcccfppppr0p0*   55cMbbbbbbbbMMbbcfgcbbMMbcccbbbbbbbcccccbbbbbccccccfffp005509...  .0fcccbbbbbbccffffffffccbbccbccbbbcfffcccbbcfpffffggcffp0550p5.    .5pppppuppffkffffffffffpp000000pffppp000000000ppfppppp055*.        *0pp0000005000055**.....*0000555505*<",
"**5555555*;5*.      .******50ppppppppppp005**%***5ppp0055550p0000ppfffcfpp005..       *0pp0000000ppppppp000000pfcccfffff000000pppfgfccccfp0550p09*..   0ccfffcffffppp0000ppppppppppp0000pfffppffp0pcMMbbMbfp0ppcccu    55ffcbbbbMmMMMbffpfccbbccbbbbbbbbMbbccccccbbMMbbcfffffcccMbcf***..*ffffcfbbccccgffffccbbMMMMMMbbbcbbbcccbnMMbcggcbMNNNNNMMbbbbMf+    %pcfffffgcbMNMMMMMMMNMMbccfffccMMMbbbcbcbcfccbbMMMMCCNMMcffp ..  *0pfcnbbcccccbbbbbfppffffpbMMMMMNMMMffpapffcccbbbbMMMcp0ppfcp05. .5fbMbcbbbccczfffppppfffffffffffppfcccfffp0ppcbMMMbbccfpffccc0.   55fbfcccccccccccffpfcccccccccbbbbbbccfpffcbbcfffcffppppffffcx5**  .0fp00pfcfffppppppppfxcbbbcccfccckfpppfccccfpppffccbbbbcfppff0*    .*8009550pfccfffffffffp005555000ppp005555555550pfpppppppp00*       .555555555555555**......*5505555555**",
"ffffp05*..*55#      ..******550000000000p05*****5500055555500055550ppfbbccffp05.      *0000005000000000p000050fcccccfffp00005000uppfffccfp000pff0*. ...0ffpppppppp00000000ur0000ppp00000pppppp0p950sbbcfcfp050pffcr    5*000prppppppppppppffccfcbcccbbbbbbcgfffffccbbcffppfffbNMCCNc*..  .ffppfpccfffffpppffccbbMMnbccccccccccccbcccfffccbMMMMMbccccMNf.  ...0ffppfffgcMNNNNNNNNNMbbccccccbbcccffffffffgcbbMMMNNNNMMcfzf ....*50pfbccgffffcccccfpppfffpcbnMMMMbbbfppppsffffpfbMNMbcccfffcp93. %*pgczfffgfffffppppppffffffffffpppffcffppppppfbMbbbbcffppppfp5    51pfpfccfkgfgggffpppfffffbbbbbbbbbbcfpp0pfcccpfcccfpppfMMMMMM5*.   0fp550ppppppp0000ppffcbbccffppfpppppppfppp0000ppfffcffp00pffp*.   .*0005550ppffffppffffppp00550000000555555555550ppffpffppp00.        *5*555*****<*<51**.....*15005******.",
"..*53***..*5*.      ****#...***********5055*%%*<555*****550055***55500pffp00p0*       *0055555555000*550005555pfccccfpp000005500000pffffp0055505*      *pffp0ppppp0000p000000000pp0rp0pppppppppp0000pfff00p0ppppp05    *.000000ppppppppppppfffffccffccccccgfffpffgcgffpppffccf00cbMc5*.   fffcb0fffffffppfffffcccccgffccffccffffffffppffgccbbbcffpppcb0  .*.*pxffffffffgzgfffffgfkfpppppppfffffffffffppppffgggcMMnbbcfcf ... .*0pfcccffpffccccfffppfffffcbMMbcffffffppfffffcbMNMbfpfffppf0*.  *.5pffppsffffffpppspfffffffffffffffffffpfcfppffccffccfpppprp0*    *.5ppfffffffffffppppppfffpppppppffpfppu000pff0000p00000000pxc*..   5fp0p000ppp0000pp000pffffppp00ppp000000055535500ppppp05<*5pp5.     *0005555500555***5555555****5555055555555******5550fp05***.        ***********************.*55055*.***.",
" ..**%..  .**.      ......**************1**...***55**...*155*****5555*5005*5p0*      .555*555555550055550000000pffffp055050055555050pppp00000055*.  .  .5pdp00pppp0000pppppppppppppppppppppppppppp0550ccpppp000pp0*   .. 5pp000ppppppp0ppppppfffffpppppfpffffpppffcffffffffffff0fbMM0*... pppfc0ffffpppppffffffcgfffpffffffffffffpppffffffffcccffpppff5  .. .pccffccfffffffffffffccfpfpppfcfffppffffffffcffcfffcccccffcc  .   *0fzfccffpfffccfffffffffcfcbMMbcfpfffpppfffffccccccffffcffp5*...5.*0fcffffcffffffffffpppffffpppfffffffpppcfp0ppfffppppppppppp*....* 5ffppppppppppfffppppppp0pppppppppppp00550pp00000ppp0000pfcb*.. . *550fpp000000000p05500pp0000500ppp000000555550000ppp00550055*   .  .5555***550555****55555555550055515**15555555*****5555***5*       .**..***....+**.*****.....*5093%.....",
"...*..... .*.        ....*****************.....*****%...*******1*555**.505**00*       55**55555555005550000000000pp00555050055555550000000000000*  ..  .5ppp00pppp0000pppppppp00p00pppppppppppfpffp5*5fcffppppppp0.  ..  5ff00pppppppp0ppppppffffppppppfpfffpppppffffffffffppfcpfcbc0*... 0prpfpffffpppfpfffffffffffpffpppppppppppppfffffpppfffffffffp* ..   0fxcffffffffffffffffccfffffffcfpfppffpffffccccfffcfffffpfcf      *0fcffffffffffcfffffffffcffcbbccfffffffsffffffffffffffffffp5  ..* *0fcfffccfffffffffffffffffppppffpffffffffp00pfffpppppppffsr*..... 5ffp00pppppppppppppppppppppppfffppppp0000ppp055pp000pp0pffc*.. . .500ffp000000000p05000000550000ppp00000055550000000000000055.   .   *55***555555555555555555550005*****1555555555******<***55*       .***..**.....+............+;53*......",
"......+....*.       ...%%...**%%************..****..******<**1*1**551*.*005.55*       5**555555555550055000000550055555000000000000000000000*0fp*  ..   5pdppppppppp000p0000pppp0000000ppppppffppff0.*pffppppffp05.      *0pppppppppfppppppffffpfffffffffffffppppfffppppffffpffffffp5.    5ppppffppfppfffpffffpppfpfffppppppppppppppfffffpppfffffffcfp*..    5ffffffffffffffffffffffffccffpppfffppppppfffffffffffffppfcp      .0fcffffffffffffffffffffffpfffgccffffffffffffffffffffffpffp*  .*  *0fcffffffffffpppppfffffffpppppppfccccffppppffffpfffffpffp5%     .5pp000ppppppppppppppppffppppfffppppppppppppf5*5pp050pp00ppp5.    .5pp0pp0ppppp0000p000000000000000000000055550000555555000055.  ..   *55555005555555555555555555555****555555***15551***5**5*#*        *******......****...................",
"......++...*.       ...*%...**.%****************11********5555****555*.*50**55.       5**55555555555005550000555000555500000000000000000000050p0*       50pppppppppp000p0pppppppppp0000000000pp0pff0**0ffppppppp05.      *ppppffpfffffppppfffffp0000pppppfcfffffffffppppffffpppppfp5.    .5ppppfpffffffffffffffpppffffffppffppffffffcccccfffffccccfcfp*     .0ffcffffffffffffffffffccccccffffcccfffffpfffffpfffcfffpfccp.     .0fgsfffffffffffffffffffffpfffffffffffffffffffffffffffffffp5  .*. *0ffffffpfffffpppppfffffffffffffpffppppffpppfffffffffcfffp5.      5pppppfpfffffpppppppppffpp0pfffppffffffffppf5*5pp050pp000p0*.    .5ppppp0ppppp0000ppp00000pp055555555500000000ppp000000000055.  ..   *55555005555555555555555555555*****55555<**1155****0**5*.*        *******......****..#................",
".....+++...*.        ..+#...**.*****************15**111**1**555***555<**551*05.       5*555555555555005555000055555555550000000000000000000050p0*       50pp0000000ppppp00pppppppppp000000000000pffp*5pfppppppp005.      *pfppppffffffffppffffpppppppppppfcfffffffffpfffppppffffffp0*     5ppppfpfffffffffffppfppfffffffffffffffffffcfccfffffffffffcfp*     .0ffcfppfffffffffffffffcccccccffccccfffffpfffppppfffffffpfcp.     .0fffffffffffffffffffffffppfffffffffffffffffffffffffffffffp5  ..  .0fffffppfffffppffpffffffffffppppffffapffffffpfffffffcfffp*       5ppffffpppfppppppppppppppp0pppp00ffpffffpppf5*50pp00pp00pp0.     .5ppppp0p0000p000000000pppp00000000000pp00000000000005550059.   .   *55555005555555550005555555555=*1<1****11**1155****0****.*        .*******%....****..*................",
"......++...*.        ...#...****************.#**5515555*****5555**55551**1*105*       55555555555555055555000055555555550000000000000000000000p0*       50pp00000000pp000000000ppppppppppp000050pffp*5pfpppppp0005.      *0ppppppppppffpppppfppppppfffffffffpppppfffppffpppppfffccf0*     5pfppfppffffffffffpppfpffffffffffffffffffffffffffffffffppffp*     .0ffcfppfffffffffffffffffffffffffccffffpppfffpppfffffffffffp.     .0ffffffffffffffffffffffffpffffffffffffffffffffffffffffffpp5      .0pffffppffffffpffppppffffffffffffccffpfffffpppffffffcfffp*    .  *pfffppppppppppppp0pppppp0ppppp00fpppppppppp0550ppp0pp00pp5.     .5ppupp0p0000pp000555000000000000000000000055550055555555555.       *55555005555550500005555555555555<1****155*15555**10******        .*******%....****..*................",
"++.........*.        ...#...****************..****555551****55555555555****555*       5555555555555500555555005555555550000000000000000000000000*       5000000p000ppp00p0000000000pfffppp000550pfp055pfpppp000055.      *pppp0ppppppppppppppppppppppfffffffppppppffffffpppffffffcp0.     5pfppfffffffffffffppffffffffffffffffffffffffpppfffpppfpppffp*    ..0ffcfppffffffffffffffffffffffffffcfffpppffffppfffffffcffffp*.    .0ffpfffffffffffffffffffffffffffffffffffffffffffffffffffppp5      .0sfffffffffffffffffpppfpffffffffffffppppfffppppfffffffff0*.   .  *pfppppppp000ppp00ppp00ppppppppppfpp0ppp000p5550pppp0ppppp5.     .9pppp00ppp00pppp0555000000000000000000000055555505555555555*       *555550555555000000055555555555555*1***1555555555115***1**        .********%...%******+..++...........",
"+++........*.        ...*...*****************.****555555****55555555555***5555*       555555555555550055555505555555500000000000000000000000p0005      .*500000p000ppp00pp000000000pppppp00055*50p0050pppppp005555*      *0ppp0ppppppppppppppppppppppppfffffppppppffffffppfffpppffp5.     *ppppfppffpppppppffffffffffffffffffffffffffpfffffffffffffffp5     .0ffcfppfffffffffffppffffffffffffffffffppfffffffffffffccfffp5.    .0ffpfffffffffffffffffffffffffcccffffffffffffffffffffffffpp0.     %5ppppffffffffffffffffffffffffffffpp05550pffpppppfpfffppp0*.   %  *pfppppppp0p0pppppppppppppffpppfffpp000ppp005550pppp0ppppp5.     .9pppp00pp000pppp000000p000005500000000000000555000555555550*       *55555055555500005505555555555555555*1*5555555555*15**11**        .********%...*******+..+++..........",
"++.........*%       ....*...***********.*********5*553333**1555<***5550***55551.      5*5555555555550055000955555550000000000000000000000000p0005.     .*505590u00p0u000ppfpppppp0p0005555*****505550pppppp0055515*      *00pppppppffppp0pppfpppffffffffcfffpppppfffpfpppppfpffpfff0*.    *pdppfpppppppppppfffffffffpffffffffffffffffffffffffccccccfff0      5ffcffffffffffffffppfffffffffffffcccffffcffffffffffpfccfffp5.    .0ffpfffffffffffffffffffffffffccccfffffffffffffffffffffcffff5.    .5pppppfffffffffffffffffffffp000000055*550ppppppppppfp5500**.  *  *0pppppppppppppppppfpppppfffppffcfpppppppp0*50000ppppp0ppp0.     .5pp0pp000ppp000000pppppp000000000000000pppp0000000000000850*       *5555505555005555555555555555555555555555555555553*5**1<**.       .*********...%*****+...++...........",
".+.........*%       ....*...**55*3****#**%%....********3**<155******550**<5**55*      5*5555555555550055900955*55550000000000000000000000000p5555.      *15<*50000urpp00ppfppp0000055555******<5****0pppppp00555*5*      .50000000ppp000000pppppffffffffffppppppppppfpffppfppffppffd0*.   *pdsffpppfffffffpfffffffpppppppppppppfffffffffffppfffccccfff0.     5ffcfppffffffffffppppppppppppfppffcffffccffffffffffpfffffff0.    .0ffpffffffffffffffffffffpffffcfffffffffffffffffffffffffpppf5. .. .500000pffffffffffffffffppppp5555800555*550ppppppppffp555055.  *  .0000000pppp0500000pppp50ppppppffsp00000000.50p00ppppp00pp0*     .5pp0p00p0ppp0000pppppp0055500000000005000pp0000055955000050*       *5555505550095551**************<**55555555***5555**5**55**.       .******%%....******+................",
"....++.....**       ....*...**55;3***+**....  .....*.*****;*55******550**595**5*      535555555555550000555555;;5550000000000000000000000000p**55.      .****550u0ppppp0ppp000555**555555****151*..*0ppp0pp005***55      .555555555505*<55000p000000000000000080000pffffffffppp000pp5.    *psfffppffffffffffffffppp000000000000pppppppfffp00pppffffpfcp.     5ffffppfffffffffffppp00055500000ppfffffcffpppffffpfpffcfpff0.    .0ffffffffffffffppffffpppppfffffffffffffffffffffffffffff000p3     .*55550pdfffffffffffffppp0000005500055555550ppffpppff0**5000.  .  .555555550005****558000*500050ppf0055555555.5ppp0pppp055000*     .5pp0p000pppp0000p0000055***************550005555**555555550*.      *555550055000055***.*.**%%%*********55555******55**8**55**.       .**..**.......****%+................",
".............           ....#********.....    ........****;5***...***55**35*****      .******5555559009855553;;;55588885555500p00000000000055****.       ....**5550000000000555****5055*5555511*....55555pp05*55555       .*.******555*1*55500555555555000855555500000ppffffp05**50p5.    *0ppppppfpffpppppppppp0500500000055000000000ppp0500000ppp0pfp*     *50000ppppppffxcffpp055555555500000pffffpp00pppppppppffppff5.    .*ppp00ppffffccffppppp000ppppfcccfffpppffffffccfffffffp00000.      .****5500ppffpppppppp00000000005550555555550pfffpppp0**5000.  .   **.***5*5555*****15555*555555000555555555* *5555pppp05*500*     .50p00000000000000000555**%.#*5**.**..***15555*********;33383.      ..****5515550005**........**..******55<;***...***.*5****..         ..........%.****.......*...........",
"  ........ .               .....+****.....    ....   .....**.........*******....  .       ...**5555898853;**%%;;*;;5533351**0pp055000pp00555**5*.           ..***5500555**5555****55005*5505555****..   *0p5**0p55*.         ..****5555555555555555*55005555555550051550pffpp05**5005.    .*00000ppppp0000000pp5**50000pp005550555000000005555555550pp0*       ..*5000000ppfffpp005500p0055005550pffp000000000000ppp5pff.       *55**50pppffcffppp00005000pfccfppp050pfffppfccccffp000000*.          .**5*5ppp05550555555500055555550055555550pff00555555555   .     ..******5005555551*555555555555555555555.****500000*.*55.      *00555000055555555555*******505*.**..#*******************;33%           ..%*****505**........**...*....*3******...  ..%**..                  ..%***........ .%......  XXX",
"....++......                  ....%+....     ......  ..    ...........*******..           ....****;5888533;***;***;35333*******...55555555**5555*.           ..*5000055**...******5005555000500055555**..00055up5*.         .*****55555555000555055*550055000055555**1500pp005550005*   ...*5533555055555555500050pff0559555***50000ppppp00000000550005.       ..*555955005555000p00pppp00000550ppppp0000000000000p050pp.         ...*55500pppfppppp00055550pp0555550055*55ppppppp0550pp0*.  .*     .**5500pfp05555000005555055555550005**1*550pp55555555555   .     ..**555550555500000055555*15*555**.**5550005*.**555**55*    % .*55*.*1555555555******15553.15*..**..****5*<**<****;**;;*;*+.  ..       ........***.....**%..*%........**%*******...%******..               ...***.   ....%%........  .. ",
"          .                     .......     ......  .***  .*..  ... ..  .....                    ...%%%%+%...+*%%**;333***55**.***..******.****..               ....*.****.*555***555555500555551<555**. *553505*.                ....**55555555005555005****5555*****5500055550005.            .*555555555555555550505550000555555555005555555555555.            .....*500pppp000000005555ppp000555*000000000055005*505           ..****350p00005555555555000555500p05550p00000055*5555*     .      .....*1555***5000555555********55555*5**5500555555555*.              ...****5555*1**55555551*5p005*******55*.  .*5***55.            .**********************555**55*....********%%%%%**%%+.    ..           ...%*55**%*****..%..      ............    .....                        ............ ....   ..",
".....                              ..       ......  .*5*. .*..........  .....                      .%%%++%%+++%+.+%*;********..*55.****5******..                    ..**5*.*555*..******5<*<***********. *555505*.                   .*****55555555***555****55555*555550005555000*   ..    ....**555555055555555515555*5500051****55555555555555555*    .        .......*500055*00555555500000000055000000000050005*55*                  ..*55555555*55555005555500005550p555555555555*+    ....    .     .******5500555555*55555****55555555505555555555*.   ..            ..**********5555555***5555555***.***...*50**55*.   .        .********555*1******.**11***555*..*****************%+.   .*+.          ....**3*%%*................**............ .....                        .. .      .   .... ...",
"..                                            ...    .*.   .    ....                                ..........+.......+++.   ........%*****. ..                        .*. .**........%%................ .+**55*..                      ............ .**..*******...*******..*****.    .    ....**....******%..****......**55*......+.***..........*+   ..          .     ..**+..*5*******5****3******+******..***;**...                    ..+...***.....****+**5**@.@****..+*******+*..    ...            .......*********.******.....***.+..+...........                    ...........***..***....**5**.. .......** .**.    ..        .. .....+%%............   .........................     .+..              .... .    ...    ........       ....                                                     ",
"                                                                                                             ...    .  ..             ....          ..                             .....    ..              .....                                      .  ....                .                                 ..         ..                           .    .                 ....      .....                   ..          .......                            ...    .              .                                                                                                .  ..   ...     ...   .                   ...                                                                .                                                                                                        ",
"          ..      .           ..... ....                ...           ....         ..               .         ..        .   .***..  .......     ...**..........   ...........   .    ..     **..  .......       .. .... ......++....+...        ..    ..            ........ .*   .***.++....     . ..  ....   ...           ...  ....... ......   ....... .............         .         ..         ......... **..**..5      ......       ....                 ..   .**.  .............+**........  ..*... ...%..                       ...    ..     .  ...  *.. .***+...........               .        .*...**.    ..   ..  ....  ...   ... ....          .            ................  ......++....      ..  ...   .                    .        ...        .                                         ",
"555555505555******550000000ppp5555555555***...          8p05ppp00ruu0pffp000000pppffffppppppppppffffppurr099883*+..     .*50pppfffpffffffpppspppfpffffffffccfffp0ppffffffffp00555*. ...   .5pfffpffffffgcfpppppppffcckfpffffffgzfffcccczffffdpp0055*+.%..  .*50ffffccczgccccfccffccbbccbMbbbbccccccccccfgzgccp0fcf0*=**1;*. .*5pafffffffffcccccccccffcccfffffffffffffccccbbMMbccffpp0p05***.   .5fbMMbccccccccccbbcfccffMcccccccccccccccbbbcczfffdppp005,@@@@.o..@50pssglllccccccccccccgfccccffcbcccfffffffppfccccccffpppp05*5**..*50fffffccccgffcccffccczffcfffccffcffffffccfcccxffpp000555.         .*0pfccfffkccxfccpfffpfccfp0pfpppkcfffgzgfffffffffpp005555....   .5pppsffffssssssssssspusdsppdfdsppppfffffpp0000055855****.    ....%*0pppppp0000000pp08555500p000000pp00000000000555*..    .           ",
"8800000000000005000p000ppppppppppppppppp00955*..   ..  .pcf0ffffffffffcfpp05500pffcccccfffffccccccbbcckkfdsppur83*+..   .0fccfpfbbbbbbbcccfcbbcccbcccccccbbbbbccfcbMMbccccbcfffcf05*...   *pbMbbbbbbbbbMVMbbbbbcbbbMMbccccbccbbbbbbMMMMMMbbbccffffp51**.. .*0pcbMMMMmbbbbMMMbbbbMMMMMMMMMbbbMMMMMNMMMMMMMnnMMcfbMMcpp0555*.  *9fbbMMMMMMMMMMMMMMMMMbbMMMnnMnbbMMbbMMMMMNNNNMMmmbMMbbccfp53*5*. .0cMNNMMMMMMMMMMMMMbccfppnNNMMMMMMMMnbMMMMMMMbMMMMbbccccft5,,*@ooo,pcNMbcbMNMMMMMMbbMMMMMMMNNMMbMMbbbbMMMMNMnbmMMMbbMMbcccfp055*.  .5fbMbbbMMMMMnbMMnbMMMnbbbMMbbMMbbbccccbbMMMMMMnbbbcccxfxf0*..*. .*<0pcbbbbbccbnbbbMMgbMnbcMMbccbbbccbbbcbbbbccccccccccffppp05*....  .0ffccccccccxxxxxxxxxkfkkkfkcckffffccccccccxfffppppffp005*.       .5pffffcfffpppppfp00555900ppppppppppppppp000pppp00555***..        . ",
"0000000000005555550ppp000000pppppppppdfp0055**..  ...  .pffpccffppffcccf00505500ffcccccccfffffffccbbxcccckfpr98355;+... .pbbcffcbbbbccfffffcbbbccbbcccffffcbbbbcccbbbbbcccbcfsfffp055.....5fMMbMMnMMbbbMNMbbMMMMMMbMMbbbbbMMMbbbbMMNNNNNMMbbbbcfpfp0555.  .5fcbbMMMMMMMMMMbbbbMMMMMMMMMMMbbbMMMMMNNNMMNMnbMNMgfMNMf0p0005*   50cbbbbbMMNNNMMMMMMMMMMMMbbbbbnMNNNMMMMMNNNNMMMnnmMMMbcccfp0955*. .0cMNNNMMMMMMMNNNNMcfcfppbNNNMMNNNMbbbbbbMMMMMNNMnMMmbcfptt55,@o. *lNNNNmmNNMMbbbcbbbMNNNNNNNNMMbbbbbMMMMMNMnMMMNNMMMbcgffp0005*   .8fMNbbMMNNMMMmnnnbMMMMMMMNMMMMMMbMMbbbbMMNNNNNMbbbbbbcffp05***..*3ufcbbbbbMMMMnbcbMMfbbbbbbMbbbMMMbbbbbbMMMMbcccccbccfffpp0555*..   *0ffffffcccccccccxxccckdpsspssfxbccccccbbbcxfccf0pfccp055*...      *pffcccffffffpppp055555350pppppppp0000000pppppppp0001*....       ..",
"000000000005****.**5pp00555500000000ppfpp095***.  .    .0upfccfp00pfcbbf05500055pfckffcccfppp000pfccfxccccdr8;%%398+...  fbcfkcccccfp0000pdfffffffffcfpp0pfcbbcffppfcbMbbbccf0000upp0.  .*0fbbcbbnMbbbcbbcccbMNNMbbbbbbbMMMNMbcgcbNNNNNMbbcbcbbf0ffppp0.  .5bbccbbMNNMMnbbcccbbMMMMMMmbMMMMMMbbbbNNMbnbbccMMbffMMbp0ppfc0*   0pfcgfffcbMNMNNMMMMMMMMmcffgffcMNNNNMbbbMMMbbbMMMMMMncfffpppp55.  .0cbMNMMMbbbbnMMNMcffffpfcMMMMMNNNMbbbbcccbnMMNMnbnMmcf050tpt5@o..@cNccVNmMMMbcfppffcbbMMmnMbbbbfgcbbnnbbbbcccbMNNMMbcfffpp0ppp*   .0cMNbbbMMMMbbccccbbMMNNNNMMMMMMmMnMMbbcbMMNNCNbcccbccf0pp0p05*% o.pccccccbnMMbcffccbfgcbbbbbbbcbMMMbccbMMMMMbcffcbbckffff05*0p0.   .*5ppppppffccccxxxxccbbcu900958scMbcffffcccfp0cbf=fccfp555*.5*..    *pfffffppppffffp055555***0ppppppp05***5500pppp00p005*    .       ..",
"8500505550p05**.  ..5055****555555500ppppfffffp0* .     900pp0055500pfcp5*555555pfcccczfpp05555550ppdfxcccfu98850r8+...  0ffppfpppppp05500p05500000000p000pfxffp000pfbbMnbMbcffffxcf5    .5pffffcccccffgcfspfcbbccbbbbbbbMMMcfppfcbbbbbcfppppfffcMbbccp*   .fcfpfgccccccgffppfbbMMMMMMMMbbbbbccccMNmcfppfcMbfcbNNMbMMNNNc0*  50pffsppfcbbMMMMMMMMMnmbfsffffgbMMMbbcffgcffccbbMMNNMbbbmcczp**.  .5fcbbbcccccccbbMbfppfpppgbmMNNMMbbbcffffffgccMNVCCNMbbcpsssp5*@o.oscglmbccbbcfppppffcppppppp000ppffcccgffffffcbMMMMNMbccbcccc0.   .5pcbcxccbbccgfpppfccbnMMMMnMMmbbbbbcgffkcbbbMcfppfffpfbNMbbc5*.   5pfffpfgpfffp000pffgcbMMMbbcfcbbcfpffcccccfpppffccbbbbcccfcbp*     *000000psffcccccccccckr90r058ufccfp000000555pfp5fbbccfccp55. .    *0pp00005590000001**55***0pffp0050*.  ..**5500pppp05*.  ...      ..",
"555555555505**....%******...**5511555000fffp0000*.      555555***55550p05*551550pfbbcff005555****559usfkxkdp00p0uu5.     5pp00p00000000000000000000ppp00550pfp00000ppfccccffpp00pppp5    .*0pppppfffppppfpp0pfffpfcccccccbbcfp0ppfffffffp000paffcbMbbcf*   .pfp0pppffppppppp0pfcbbnMMnbcccccccffzfcccffffccffMCMbcccgbbbp*.  *5pffpppffccbMMMbbbbbbccfffffffcccczffpfffcccccccbbbMNNNbcccp**.   =pfgfcffffffffccffpffpppzcbMNNbcccbffppppppffcbNCNbcfcblklkt,@@o@ 5kttllssllfffpppffffffffpfppppppsffppppfffffcccccccfffffpff5     *0fcfpffccffpfppfffffffcccccccccccffpppffffccfppppppppbMMMMb0*.   5ppppupfppfppp0ppppffcbbbbfp0ppfp000ppppfpp000pfcbMmbf00pffx0*     %0000500uppkkxkkfkfffpr90r0880r0055555500005pp5;ffccfppp0*5.      *000555****555505****5***0pccp5****#...*****500pp005**..**.        ",
"************....***3*******.**1*****5550p005*****.      ***51***55555505555555000pcccf055555555555559rpdffsu0rprrr3      5pp00000055000ppp0000000000ppp0000ppp00pp00pppfppppp000pppp*   ...5pppppffffpppfpp00ppppppppppfffffppppffffffffp00ppfcfpccbbcp*.  .pfppfpfspppppppppppffccccccffpfffffffppfffffcfp50cNbfppffffp*    **0fffffffcccccccccccggffffcfffcfffffffffccbcccccfffbMNMcffcf**.  .=0fgffffffffcfcffffccfffcccMNMcfffbcffpfppfffpfbMbcapfclkkt5@oooo ,tttlksssfffffffffpffcfffffffpppfffffppccfffffffffffpppfpff5.  ..*0dfppffffffppffffffppppppffffffzgffpppfffffppppffppp0pffcbb05.   5pppdppp0ppfffpppp00ppfcffp000ppp00000ppppp00ppp0afcfp00pppp5   ...*p0000000upssspuurrrr0090008898*5555500005055*.*00pcfp005*8*      *555<5****155555*****55*15pffp5*.**55**5<555*=50055***..**         ",
"************.....******<*************5555555****.       ****5555555555555555*50050pff051550000000555580upspr00r008*      *00000000550ppppp000000000ppppppp00p00ppp00ppppppp0000pppp0*  ....50ppppffffppffapppppppppp000pppppppfffffffffppppffffapffcccp*....pffffffffppffffffppppfggffpppppffffffppffppfcf0*5fbcppfffffp*    *.0cccfffffgccccffffffffffcccfffffcfffffffccccccffffccbmcffcp.... .*0ffffcccccccccfffcccccccccbbbcfffccccfffffffpfcccgfffclkst,o   o ,tssklkskffllgcfffpfffffffffffffffcfffffffffffffffffpppffff5. ...*0ppfpffffffpffffpfpppppppppppsfffffffffffcfppffffffpp0pffbc05.  .5ppppp0p000ppffpp00000pppppp0ppppp000000ppp0pppp0000pppppp00*   .  %pp0000000uur00098888999099888855500000800005*.*000pp0005*0.      *55**55**555555****<55555500000**.*11***<<***.*55**...***.         ",
".........*****.......*****************55*550000*.    .  ***55555050555555005*500*50005**5000p0p0055;;380rrr0990885%   .  .500000005500pppp000000ppppppppppppp000ppp0p00pp00000ppppp0*  ....50ppppppppppfffppppppppppp0pppppppfffffffffpppsfffffppppfcz0**%..pcffgfffffffffffffpffffffppppppffffffgccfppffp550fbfppffcbbc5.   . 0ccfcffffffffffffffaffccccccffcccgccgffsfcccccccccppzbcfgcp.  .  .0pfpffccccccccffccccccccccccczffffccccfffffffcfgcccccfllst,o   oo;tlssllklfflcccfffffffffffffpfffffccfffffppffffcffpppppffff*  ....5pppffffffffspppppfffffppppppsfffffffffffff0pffffffffpfffcz5*.  .5pppp00p0000pffpp000000000ppppppppppp000000pppppp0000ppp00pp*      .upp000000000009988558909889985000000555500p0*.5005505005*5.      .55**555555555***555515555**58005#.****.**....****...#****         ",
"...........****.......#%.....*********55*5555005.   ..  .**5*555555555555005**50555055*500000000555**3589009889553%  ...  .50580055000pp0000ppppffffffpppppp00ppfppppp00000050000005.      *00pp0000pppfffpppppppfffppppfpfppfffffpffppppffffpppffpfff5.*+  0ffffpffppffpffffffffffffffffffffffffcccffffp0*5pfffppfffbMc8*   . 5fffffffdpfggfffffffffcccfcccffffffcccffffffccccccfpfcffffs*     .5pfpdfffcfffffpffcffcccfccffpfccfpfcfcffffffcfffzcbccfllkt,@o ooo@0lstllksffffffffppccccccffffffffffffffffffffffffpppp0ppffp.      *0pppfffffpppsafffppffppfffffffffpffffppppp0pfffppppfppppfp*.    *000p00pp000pfffppppppp00pff0000pppp000000000pppfp050pp5**pp5.     .000000000000rrrr00099008550085889555555005p5..55*50055*..5.      .555551**<555***55551**555*.*5005*+*..*****..******...**5*.        ",
"............**.***...*......**********<555****55*.   .  .*155555555555555005**55055555*550550000555535589998890585*   ..  .5p0000000000000000000000p0p0pppp000pppfpppp0000ppppppppp0.      *0ppp00000ppppppppppfffcffffffffppfffppppffpffffffppfcfpps0. ..  0pffffffpppppppppfcfffffffcgccfffffffppffccf05***0055pccccff*.   . 5ffffffffpfccfffffffffccffcccfppppfccccffcccfcffffccfffpffp5     .5pfppfffcfffffffffppfccpfffffffffffffffffffffffffffffsllkt5;ooooo@5lstklssffffffffffffffffffffpppfffffffcccfffffpfffffpdfffp.      *0ppppffffpppfffffpppppffffffffffpffffppppp0pfffpp0pf0p00fp*.    *500pp0pfppppffffppppppppppp00000p0055p0000000005**550p0000u5. ..  .00000000r0900rrrrrr08r05;30r085555555005* *#  .  .pp55**5p5.     .50051****11****5555****55*****55*****<555***5******..#*5*.        ",
"**********..******%.<3**..**55***********1555005.       ..5055555555555550005550p05555555000005505995889999989r895*       .0pppp00000000050000000000pp0pppp000pp500ppppppppppp00ppp5.      *pffpp000ppppppppppppffffppppppppffffpp0pfffffffffppfcfppd0.  .  5pffcfffffppfpfppffpppppfcccccffffffppp0ppp050pppff050fffpfp*.   . 5ffffffxffcfffffffffffccfpfccffffpfcccfpfffffccffcccffcfffp*  .. .0fcffffccccffffccfppcbcpffffffffcbcfffffffffffcccffffcssst,@o  ooo,lttslsslfffffffffccccffffffpppfffffcfppfffffffcppffppffp0.      5pfpppffffffpppfffffffffffffffppppffccfffffpffffp0ppfffpfcf*..   *00pfppffp000pffpppp000ppp00pp00pppp00ppp00p0p0p0pppp000p0003.     *00000rpppr58900r0rr09r05;;0pr0r005555555* 55**053*.5155550*      .500051**5551***555**..**555**.#*51*****555**5******....**         ",
"...*******.***%%**%.*3******15***********1550555.       .*5055555500005555005500p0555555550005550000888900000080r8%       *0pp0pp000000000000pp00000ppppppp000p0*50pppppppppppp00005*      *0pppppppppppppppppppppppppp0pppppffpppppffcffpfppppfffpff0.     5pffcfffffffffffffppppppfccfffffpffppfpp0550pffffccpp0p050fp5.   ..0pfffccccfffffffffffffffppfffffffffffffpfffffccfffccffcccf0. ..  *0fcfffffccccffffcfffcccffffffffffccfcfccccccffcccfffccssss5@.   o@5llssfsscccfffffffccfffccffffffffffcffppffffffffffffdpppp0.  .. .5pffppppfffcfppfffffffffffffpppppfffffpppffffffppppffffpfff5.    *0pppppffp000pppppppppppppp0ppppppppppfpp0000p0pppffp0000000*   .  .500000pppr88000000090008550r000u0855855*%.5555u005..**5555.      .*005****555555*5551****<5555**.*11******1*****....*...***.        ",
".....%*******************.#***5****5511*5555*****       .550555555550055555550000000055555555055055555500000005pp0.      .500050000000pp000ppp0000000ppppp000055500ppppppp0pffp00000*      .0pppppppppppppppppppppppppppppppfppppppppffffffpffffpffffp*.    5pfffffppffpffffffpppppfffcfppppappffccp5.*pcbffffcccf05*0pp5.    *0pffcccffffffcffpffcfffffffffffffffffffffffffffffffcfpfbbcp .    *pfcffffffccccfffffffcccccccffffffffccccfccffffffffffccppfcp*   ..*0fccffffcccffffffffffffffffffffffffffp0pffccfffppfffffp000.  .. .5pffpp0ppffccfffppppppffffffpppppfffpppppffccfppppfff0ppppp5    .*5ppppppppppppppfpppppfffpppppppppppppppp0000000000000000005*.      50p000ppp00up00000550000000005389855095*+*58555808;**.*55*.  ..   *551****555555=55*<*****555<******51******3**.....%*******        ",
".....%*%%%%%%%..%%%***********5****111**5****.**.       .550pp005555**555555500000055505555555555555000000000050p0*     .*5955*55500000pp000ppp0000000pp00005555*550000ppp0ppfp05505*      *0pppppppppppffffpfpffffppppppffffffppppffffpppppppppfpfffp5.  ..5pfdppppppppppfffpppffppfffffffcfffffcp5*50ppfcfppffccffp5**.   . .0pffkcccfcfcckfffffffffffffffcfffffffffffffffffffpfff0fccfp.     *0fcfbbbcccccfffffffffcccccffffffffffffffffffcccffffffcdfccp*      *0ffffcccfcfffffccfffffcffffffffppp00000ppfffffppppppp0005.      *0pcffpppppppfffppffpffcfffffffffcfffpppfffffppp0pppp0pffsp5     .5pppfffpp0pppppfppppffffpppppppppppppppppppp000ppppppppppp05.      0pppp00000ppppp00055555558985558885355;;;3889999985005*.          .**500555**..***5<<*5555535**********...#*****...%*****.*.        ",
"....%%...............*******155****15***5*****<*.       %555*****55555000555500055555005555555555555000000005550005.      ..****5000000pp050pppp0000000555555555*55500ppp00pffp5*555.      *0p00ppppppppppppppffffpppppfffgfffppppppfppppppppppppppffp0*    5pfpppppfffppffpffpffffffffffcccfffffp05*pffppfffffcccccfp00*      5ppfffffffccccccfffffffffpfffffffffccfcccfffffffffpffpfccfp*...  *pccffffpffccbbcfffffffffccffffcccffpfffffccccccccfggfcfcccf5     @50pp00ppffcccfcccbcffffffffpppp0000000000pffcffpfppp000555*      *00pppppfffffpppppppppfffffffffffffppppppffppppppfppp0fffpp5.    .5ppppppp000pppfffppppppppp0pppppppppp000pppp000ppppppfffppp5*      *555550000pppppp00555555555555553333;**388899009990055***.        *55****5555555*****35551********1***....%**555*#*#*****.*.        ",
"**%%%..................****3555****15***5<<55*55*.      .5559500555555000555555555555000050000000000000000005555005*     ..**550pp0000000055p00000000555155555555**50ppppppfff05*555*      *005500000000500000pppppppppppffpp0000000ppppppffffffp0ppdp5*.   5pffffffccfffffffffffcfffpppppfpp00005500ffcffffffffffffffccp.     9ffccccccccccfcccfpppppp000pppppffffcfccccffffcffffccfcccff0*.*. *pcbfccccccccccccccfffffffffffccccffffffcccccccccccffffffccp5     .50pppffcffccccffcbcffppfppp050555050000000pffcffffffp000005.     *000000pppp00000000000ppppppffffp00000000ppppfffffffppppppp5.   .*5pfpppppppppppppppppppp000000000000055500ppp000000ppppppppp0*.     550000pppppppp000555111**3;;;33%+*;;%%380858899858055*5505.      .55555555555*****=***3**********55<********5555*****#.*#.#.        ",
"%%%%...................*****;33*********;*585**5*.      .*55500000555500555*553****55000000000000000000000005555555.    ...***550050pp0055500000555555***1555555***500pppppppp05**55*      .*5**555550055555500000500500ppp05555555500ppsffffffp0000p05%    5pfffccccffffffffffffffpppp000005555**50pfffffffppppppfffccbp.     5dffffcfccccfffzcfpp0055550000pppppffffffffffffffffccfccffx0*.*. .0fcpccccccffffcccfffpppppppfffccfffdfffccccccccccccffpppff0*.     .*500pfffccbcffffcffpppppp0000055555550050pffffpffffp000000.     *55**555955=*555000000000000ppppp555555550000pffkkffppp00005.   .*0pfffffdfsppppp0ppppp0000555555555555**500pp00555500000uppp05.     000000pppp0u0000055***********%..+*;%*5008335885*<50555555*.     .5555555553****555;****....****5;51*********555*****.... ..        ",
"....................  .....%***....**.*..**55.***.       ....***<555550055******.***500055555555555500000005555****.     .... ..***0pp05<5005555555555***<5555551***50pp00ppp005**555       ..******5555*5555555551155550000555555555500pppfdsp0055000*.    5ppppfffffpppppppppppp0055555555******150ppppppp000000pppppf0.    .*559900000pfffffffp00555555500000ppppppfppp00pppp0pfcpffppf0. .  .*0000pppfffffpfcfffppppp0ppppfffffppppdfffffffccccffpp00p05*.      ..%*550pfcccfpppfpp00000000pp0055555*00550ppffppppp0055805.     .*.  ..**355555555000005555000000555555555500ppfffpp00055505     .50fffffdppppp00550000555555555555555***55000551**15555550005*.     5555*5555500000055***********%. ..*;*;8053;**;**%%*0005****.      *********55555555**%........******.#...%***********...            ",
"..............  ....  ..................  .*.  ..               .**555055*******...*55555***********555000555*3***.             ...5000**500555555*1********5555****55000000555511*55         ..******555555555555******55500555555005*500000055555555.   . *55*55500000005555500055***55555****55***0p0*5pp0005855005505.        .....**50pppppp05000050000000000000pp05555000555pp000000*       ....*550pfffffffppp00000000pffppp0000000pppppfffffpp00005*.           ...0ppfpp000pp0000000550000555555005550upp00000055555*           .*5500pp055055500055555055505555555005*550pp0055055**0*      .*5500000000055*500555555555555555555***55555<**********5555.            ....5555555************+. ..%%;;85;**++++++..*******.         .    .**55051***+...  .....****. .   ....+.+..***...            ",
"   ................. ...   ......  ....    .. ..            ********.*55******.....*555***.........***555555***3*.            .+*. .555*.*50555551***555******3*511***555005**5555***           .....**5500005555555****55550555555005**500055*555555*.      ..  ..*555555555555555****50555*555005550055500ru0055555555*...    ....******550pp0005000000000009500505500055555555500559535.          50000ppppppppp0000050000pppp00555990000000pppfpp000005..        .*350055500000000055500005555500000000555590005550055555*         *5555*<555000555555500005555550005550005*55500553*555***.   .    ....*55555555*555555*5555555555555555555*****************.            .********355************+..+++%;;;****%+..+%%..  .*5*.           ......   .*...................       ........**....           ",
"      ..............  .     .............     **.                    .5***...%%....**5;**.*********...**355****5*.                  ***%+*55555555****555*******55555**55005**59055*.             .....*555555***555555555555553**55555500005=*555505*       .. .**5555505000000005555595551**58055pp000005558000000000*   .         ...*.*100005550055559000055555555500000000000pp9095*5.    ..    .....**50000000050555500upp05*00000000055500pppp08pp05.            .....**5000000555500000000000055500005550005550000000*   .            .**555555555590955555555555555555555000553**555**   .      .*******555005555<**5555*****5555555551****55555=*;***..    .          .  ...*****************.*;%++*%..*;;*+..%;*.***....                         ....+*...   ....      .....  ...... ..           ",
"       .....  .     ....      ........ ..     ..                      ***...%*. .....*+.......+%**.. ...%**%..%*..                   ..****.***********..*<<...******..*****..**1**.                 ...*******..**553********%%**.**********+.******.          .***********55****<355555*1*+***5**505*555.***53550005*.                  ..*****55*******5******1*****5555555551555*55*..     .            ..*555**551**5**55551+.***555551*****50005*55*.                   ..*555*5****555555***05****5555;**355****1*****.  ..              ..***35**#.5******.*+*****************#..****..          ..**...%*****55*****.****%.....********..***.***+..%**..    .             ......**#********....+%+.... .+%%+...+++.**.                             ........          .........    ....  .           ",
"        ..           ..         .       .                             .**.  .%         ...    .....    . ... ....                      .*.    ........   .**  ...... .....                            ..  ......   **...   .  ....   ...   .....*..           .......... ....    ..**.***... .+  .................**=.                          .**.................  .................                        %*. .**. .*...  .. ...........+.  .***...     .                   ..... ....**.*.   5. .* ...............                            ..*..  ..  .................         ...               .............. .*.    .     ....      .... ....  .**.                  ...    .. .... ....  .......   .....     ..                               .. .                             .   .           ",
".                             ...........   ..    .   ....                            ..*.    ...... .... .. .....  .............. .*.....               .*.   *****...**........  ..        .***..   ..                  ............*....#*+.+*...        ..**#. .******......   ....           ..+*......      ......  .     ...     ...         ...        ...       ...    .   ..... .  ...........****...         ..     .+.+.....%%*............%.......+.......+**....                    .5. .* ....  .......................       .   *.        .    ....*.......................                  ......       ** .      ...**.         .**....+**#.                .  .                 ..%%%%%++...            .......         .     ..     ..              ..                    .+.        ..",
"**....*%..          **5500555555555559005550005555555555555500000pfp05*55*.          .5900000ppppppppppp000000000000000000000pppp05ppp5**5555*...     *5pppp0ppffppppp000pfffffffffffpppfffpppppppppppp055555*****... ..*0ppppffffffpffffffggfffffppppffffffppppffffpssappp000u05*.....   550pfppfffffffappfffspffffffggfffffpfffffffffffffpppppp005***.   .*0ffccffppppfffffffffffffcccffffffffffffffppffffppp00pp00***5;...*5pfpfappfffffffffccfpppfcxffpsffcccfffffccccccffppfppp00555..*..*550scfpfcpffffffffffffffffffffddfffffffffffffffffs055000p000*.   ..50pppppppppppdpaapassfdpsppppppppppppfffppp00pup0055**5*.**..    .*550000pppp0000ppp05550pp00ppp0ppp000f005pfcfpp0555555**%..     .%3989990099rurrrr00r005909950550ppp00000p0555500055**15*.   .      .*5555555555555**;***.**555******.%;%",
"055559095*          500ppppppp000rpppdffppffffpppfppppppppppffpffcbcfpppr05*. ....  .5pfcckxffcccccccfffppppppfcccccccccffccccccbcfcccfppsffp005**.  .5pcccfccbbMbbbbbcccccbccccbbbbbcccbnMbbbccbbMMMMMnbcccffp005*.   .5fcbbbbbbbbbbbbbbbbMnnmbbbbbbbMMMMMMbbbbnMMMMMMmbbbcccccd5***%. ..0pgbMbMMMnbbbbbbbMMMMMMMMMMMMMMMMMMbbMMMMMMMMMMMMbbcbbccf0553.   *0cMMMMMMMMMMnmnnbnMMnNNMMMMbbbMMMMMMMMMMMMMMMMNNMbccccbcp05553...*0cnbnbbbbbbbbbMnMMMbcccbMMmbbbbMMMMbccccbbMMMMbbbbbbbccp0005*<*.*5fcbNmbbMbMMMMMMMMMMMMMnnbbbbbbbbbbnnmnnnbbbMMMMMMccccccp05*5*.  *5pcbbbbbbbbbbbbbbbbbbbbbbbbbbbbbmMbbbbbbbbbcbbbbbccfffpf0***.*.  .*0ffccccbbbbccccccbcffccbbcfccccccccccMbcccbMbbccccffppp00*5*.   .30dsdddkkkxcxcxxxkkkkffffddpfpffcccfffpfffffffcfffp050p03*...     .*00ppfppppppppp0000555550000000000999",
"p0000005;*          500000pppfpppppffffffpppdp0ppfffcfffffffbcfffcccfpfp0055*.....  .5fcbcxxfggcccccfxffppppppcccbbbbbccffcccccbbbbbbccccccfp09055*.  *pbbcfcbbbMMMbbbbbbbbbbbbbbbbbbcfcbbbbbbccbbMNNNNMbbccfp05555    .0xbMbnnMMMMMnbbbbMMMMMMMMMMMnMMNNNMMMNNNNMMMNNNMMMbbbbccf05555...*fccbMcnMNNMMMMMMMNNNNNNNNNMNNNNNMMMMMMNMMMMMMNNNNMbbbbcfp0005*  .5pcbbbMMMMNVNMMMMMMMMMNMbbcbbbMNNNNMMMMMMMNNNNNVCNNnbccccp0003*  .*0bMMNMMMMMMMMNNMMbbccccccMMnbbMNNNNMbbbnMNNNNNNNMMMbcffpppp55*. .5fbMNMbMNMnbbmmnmbnbMMMMMMMbbbbbbbMMMMMMbbbMMMMNMMMMbbcfp5**5*...*0fMNMMMMMMMMMMbbbbbbmmnbnnMMMMMMNNMMMbbbbbbbMMMMbbccccfc053**5*  *0fcbbbbbMnbbcccccbMMMbbMMbbbbbbbbbbccbMMbbccccccbbcccffpp055*.   .;0kfffkxccbbcccccxxxxkffpppfffcccccffffffccccccccfppppp9***+.     .5pfffffffppppppp0555555500ppppppppu99",
"pp00085*..       ...55555500pppppppfffffp00555550pffffffffffccffffcfppfp05555*..    .3pxccfffffffxckffp000000pccccbbbcffppddfffcccMbccccbcf0555555.   .pbcffcbbcbbccczfffxcccccccccccfpffccfcffffcbMMMbbccfp0005500   ..0cMMbnnnMMMMbbbbbbMMMMMnbbbbmMMNMMbMMMNNMMbMNMMbccccbcfxkdppp0*..5fcccbfcMNMMbbbbnMMMMMMMMMMnMMMMMMnnbbMMmbbbbMMMNNMMMbcfp0ppp0*  .=pfcccccbbNNNMMMMMMMMMMbcfffccbNNNMMMnnnMMMMMMMNNNMnbcfccdppr**. ..0bNMNMMnbbbMMMNMbcfpfccfpMMMnnMNNMMbbbbbMMNNNNNNNMbcfpppppf05*. .*fbMMMnMNMccccccccccbbbbbbbcccccccbbbbbbbccbbnMMMMNMbfpppppr9*. .*0xMNMmnMMMMbnbccccbbbbbbbbMnnnMMNNMMbccccbbnnbbccfffzzffp00055*. .0pcbbbbbbccccffccccbMMMbbbbbbbbbbccccbbMbbcpppfcccccffpp0005*.   .*8spppsdkxcccxxcxxxkkfpp0000pfcffffppppfffpppffffppfcf05**3*.     .5pffpppppp0000005***<5***50pppppps033",
"0000005******.   ...555**55500pppppfppfp05******500pppp0000ppp00pfccffcffppp05.      .5pffffffffffccpp0000500pcccbbcccfp0000pppppfbbcffccf05050005.  .*fbbcfcbbcffppppppp0000000000pfpppffffffp00pgbMbbMNMbffpfcbcp  ..*0cbbbbbbbbbbbbbccbbbMMbbbbbbMMMNNMMbcfccbnMMbbcffpfcccccbbbcp5*.*5fcccbfbMMnbccccbbbbMMMMMMMbbbMbbbbbbbbMbbbbbbbnMNNNNMbccfcccp5.  *0fxffffcbMNNNNNNNNNNNNMcgffccbMMMMbbbbbbbbccbbbbMMbNMbbMccff***..*0bMMNMbbcccbbnMNMcffcbbcpbNMMNNMMmbcfffpffcccMMNNNMbcgfffccp05*..*fMMnMMMMMcccccccccccccccccccffffcccccccccccbbbbMMMbcfffcbMb5.   *5pcbcccbbbbcccfcccccbbbbbbbbbbbMMMMbccffcbbbbcffpppfffpffcbc0*.  .5pffffccccffffffffpcbMbcccbbccccccccccbbbcf00pfccccccfpp0pcf05.    +098589rpsxbbbbccccckp085*500pfffffppppfp5550ppffffcfp0000*.      .0ppu0000005555<*...***..*500000005%%",
"550pp00505005*      *********500ppppppppp05*1155500000055555**.**5ppffbbbbfpp5*       50p00000000ppp0055**550pcbbbbbcfpp0000000pppfccccccp05pppp05    .0ffppffppppppppppppppffffpfffp00ppp00pppp0pfcMMMbbcpp00pfcf0   ..*pppfffffffffpppppffccfcccccccccbbbcp550fcMbccfffpffccbbMNNbp*   .paffcfcbcffppppffcccbbbbbbbcccccgcfffccccffffccccbMMMbcccbbcf5.  .5pffffffccbbMMMMnbmnMMMbcffppflccccfffffffffccccbbMVMbMMcffp.*.   *pccbcffppppfccbbcffccckfcbMMMbccfzbcccfcccbbccbbMMbcccffff05*....pccfccbccffffffffffpfffppppppp0pppppppffffffcccccbccffffffp*.   .30dfpppffppppp0ppppffffffccccccccczffpppffcccffppppffffccMNb5+.  .*0pppppfpppppppppppfcccccccfpppfpp0pppffpp05500fcbbbccffpfbcp0*.   .95533580uskkkfffffddsp0555*550fpp0055555**550fcccfpffffp0*        *05555551*******.***1**.*500051*5*..",
"*50005****55*.      *********5500000555505**15555550000555555555*50ppp0fcf055*.       *500055555000pp0055500pffcccccfp05pp000000000fcbbcfpp000000*   ..5pp000000ppppppppppppppppppppfppppp00pfcfpppgcccfffppppffff0  ...*00pppppppppppppppsfffffffffffffcccfffffccbccccfffffcfffbVCb0.  .*ffpffpcbccffpsfccfffcbbbbcccccccfffffccccfffgccccbMMbcffcccf0*   .*0ffzgfffffccccccccccbcfffffppfcbccfffffffffffffcbMNbcbnffcf.*.   *uffcccffpffgcbffcczffffffbNCCncffcccfffffffccbMMMMbccgcfff0**..* 0fp0ffzgfffffffffffffffffffffppfffccccfffffccccccfffpppfffp5.  ..*9pfppfpffffpppppppffffffffccfffgcfpppppffcfppppppppppppfbNb5**. .50pp0pdfppppppppfp00ppfcccfpppppp000ppfp5550ppppffccfppppppp5*..   .u098590uppurrr0000000005555550000055555555550000000ppp005*        *55555551***..*****1**1550pa05****%%",
"**555**.#****       *******1*5555555555505***555555500055555000555000050p00555.       *5055055555000p000000ppp0pfcfp0000pp000000000pffffpppp00005.   . .0ppppp00ppppppppppppppppp0pppppppppppfcfpppfffppffppfffppp0  ...*0ppppppppppppppfppppffffffffffffffffccccccccffffffffffffNNb0*  .*fffffpccccffffffcfffcccccgfffffffffffccccfffgccffcbccffffccp5.    .0fkcgffffffcccccgzgcccffggffffcccfffffffffffffffcbbcfccfccp...  **pfpcczfffffcccfffgffpffffbMMMbgffcgfffffffffcccbbbccffgfff0*...*.9dfpffgffffffffffffcccffffffffffcccccccffffffccccfffpppfffp3..  .*0pffpfffffffpppppppffffffffffffffpppppppfffpppppppppppppcbb5**. .*0ppppffppppppppppp000pfffp000pppp0000f0550pfpp0pppppp000000*  ..  .0000890rpr009998888900055555500055555555555555555500005***        *55555511**************5550005*..%%%",
".***.******1.       .*******555555555555*********55555555555000055550000500055*       *0050555000000000000000050fffp000000000000000ppppp0pppp000*       0fpfppppppppppppppfffpppppppppppppppppppppppfpppffffffppp0*  .. .5ffppppfppffpppfffp0pffffffffffffpfffffgccffffffffffffcpbMc05.  .pffffpccfffffffffffcccfffppffffffffffffffffffffffffffffffff0. ... .0ffcfffffffffffffffffccccccccfffffffffffffffffffffcffffccc0     55pf0cffffffffffffffffffffcccccffffffffffffffffffffffffffcff0*. .*%5pfcgccccffffffffffcccffccfppffffffffccfffffffffffffffpffp5*.    *0pppffppfppppffppppppppffpppppfffpppppppfffffffpppppppppfcb**.   *0fppffppppppppppppppp000000000pp00000p0050ppp00000000000000*   .  .5000000000000000000000005555000055555555555555555555*55**5.       *555**********************5****...++",
".***********.       ..******555555555555**********5555555555000055550000500050*       *0050055000000000000000050ppp000000000000000pppppp0pppp0005    .  0fppppfpppppppppppfffpppppppppppppppppppppppppppfpaffffpp0*      5pfppppffffffffccfppffffffffffffffsffffffffffffffffffff0cbf5*   .pdfffpccffffffffffffccffffffccccccccccfffffffffffffffffffxfp*  .  .0ffcffffffffffffffffcccccccccccfffffffffffffffffffcfffgccc0     55pfpccffffffffffffffffffffffffffffffffffffffffffffffffffccf0*. .%.5pfcccccfffffffffffccfffccffpfffffffffffffffffffffffffpffp5.     .5pffffffffffffffffffffffffpppffffppppppppffffffpppppppppffc#..   *0fppffppppppppppppppp000000ppppppp00pp0000ppp00000000000000*   .   50000000000000000000pu000000000055555555555555555555*55**5.       *555**************************....%%",
"..*.********.       ..*******5555555555555555555555555555555505500000055550050*       *00555050000000000000000500p05500p0000000000pp0p0000ppp0005       0p0p0pffppppppppppfffpppppppppffffffppppppppppppfppfffffp0*      <0pppffpffffffffffpppffffffffffffzgffccgffffffffffffffp0ffp*.   .ppffcpfcccccgfffffffffgffffccccccccccffffffffffccccfccffcccp*   . .0ffcffffffffffffffffffffffpafffffcccfccccccccfcffcffffcccc0     5*pcpccccccffffccccccccfccffpppfffffccccfccckcccgggfcffccccf0*   ..5pfcccccfcfccccccfcfffffccffpffffffffffcfffffffffcfffffffp5.      5pffffffpppppfffffffffffffpppffffpffffpppppffffppppppppppffo     *0fppffppppppppppppppp00000ppppppppppppp00000000000000000000*   .   5000000000000000000000000550000555555555555555555555*55**5.       *551********************.*******.***",
".*#.********.       ...*******555555555550000000555555555555555500005055550055*       *0055500000000000000000000p00000pp0000000000pp0000000pp0005       0p0p0pppppppppppppppfpppppppfffffpppppppffpp0pppppppffffp0*   .  5pppppfpfffffpfffpppppfffffffffffccccfffffffffffffffccfppf0*    .0pfxcpcfffffffffffffffcccfcffffffffffffffffffffffffffffffccf5.    .0fccfffffffffffffffffffffffffffffffffffffffffffffffffzcfcc0     **pcpccffffffffffffffffffffffffccccfffffffffffffffffffffcccf0*   ..*pfcccccfffffffffffffffffccffffffffffffffffffffpfcfffffffp5.      5pcffffppppppffppfffppffffppppppppffffppp0pffpfpppppppppppp      *0pppppppppppppppppppppp000pp0000000ppppp0000000000000000000*       50000000000000000000005555555505555555555555555555*5<55=*5.       *55*********************.#*********%",
"..***********        ...*****<5555555555555555555555555555550055005550505005505       .0055555000000500000000000000000000000000000pppppppp0pp0005       0ppp0pppppppppppppfffpppppppfffpppppppppffpp0pfppppffffpp0*      5pppppfpfffffpfpppppppffffffffffffffppppppffffffffffccfpffp=.    0pfzcpfffffffffffffffccccccfffffffffffffffffffffffffffffffcf5.    .0fccffffcfffffffffffcccccffcccfffffffffffffffffffffpfccfcfp. .  *.pcpcffffffffffffffffffffcffffccbccffffffffffffffffffffcccf0*.    *pfcccccffffffffffffffffcccfffffffffffffffffffffpcffffpffp5.   .  *pcffffppppppppppppppppppfppppppfffffffpp00pppfppppppfpfp00      .0pppffpppppppppppppp0000000p0005000pppppp000000000000000000*       50000800000000000000005555555555555555555555555555555555*5        *551********************.#********..",
"..***********        ..*******5555555555**********55555555550055005500505005505       *0055555000000500000000000000000000000000000pppp00pp0pp0005.      0ppfpppppppppppppppfpppppppppppppp00000pppppppppppfffpppp0*      *0pppffffffffffppffffpfffffffffffffpppppppffffffffffcbffffp5     5pfccpffffffffffffffffcccccfffffffffffffffffffffffffffffffxf0.    .0fccffffcfffffffffffccccfffcccfffffffffffffffffffffpfccfffp*..  ..ucpcfffffffffffffffffffffffffcccccffffffffffffffffffffcccf0*.    *0fccccccffffffffffffffffccfffffffffpppppfffffffpfffffppfp5*   .  *pcffffffpfpffpppffffffppfpppppppffffffpppppppfppppppf0fp00      .0pppffppppppppppppppp000000pp000000pppppp000000000000000000*       50000900000000000000005555555055555555*55555555555553555*5.       *551********************.%********..",
".%**.*******#        ..*******55555555555555555555*5555555550005555500505005*55       *00500550000005000000000005000005000000000000p0000ppp0p0005.      pfppppfp0ppp0000ppfppppppppppppp000000000ppppppfpfffpp0000.      *0pppffffffffffpffgccffffffffffffccffffffcffffffffffccpffff0     5pfccpfffffffffffffffcffcffffffffccccfffffffffffffffffffffxk0.    .0ffcffffcfffffffffffffffppfffffffffffffffffffffffffpfcffffp*...   rbfkfffffffffffffffffffffpppfffffffffffffffffffffffffffccfp3.  . *0ppffcccffffffffffffffffcffppfffpppppp0pppfffffffffcf00pp5*      .0fffffffffffffffffffffppfpffppppfffpppppppppffppppppf0pf0p*     %0pppffppppppppppppppppp0000ppp00p0pppppppp00000000000000000*       50000800000000000000000050000055555555*5555555555555*555<5.       *55<*******************...%***......",
".#**.*****.**       ..**1*****55555555555555555555*5555555550005555505555505505       .0059055000000500000000000000pp05500000000000p0000ppp0p0005.      00000pppppppppppppfppppppppppp0000555555500pfffppfcfp05505*      *0p00pppppppppp0ppfccfffffffffffcccffffccbcfffffffffccpfcxf0     *0fccpffffffffffffffccffffpfffffffffffffffffffffffffffffffccu.     0ffcffffcfffffffffffffffffffcccffffffffffffffffffffpfcfpffp5...   0bffffffffffffffffffffffffffffpppfffffffffffffffffffffffcfu3.  . .500upfccffffffffffccffffffppppppp00000500pffffffpfccf000p00   .  .5fppppppffffpppppfffffpppfffspppppp0000pffpsffppppppf5pf0p5     %0pppffppppppppppppppppp000000p0pp00000pppp000pp0000000000005       5000080000000000000000505555555555555**5555555555555*55515.       *55<********************..***.......",
".***.*****.*.       ..*553****555555555*..........<5555555559909555555555505*55       *005990000000000000000000000pfp0550000000000000ppp0000p0u05.      55**50ppppppppppppppfppppppp000055555555550pfffppfccp5*550*      *0p0000000p000555pfffppffffffffffpp0000pffffffffffffff0cccfp  .  *0fccpffffffccccffffccfffpppppppppffffffffffffffccfccccccffcp.     5ffcffffcfffffffffffppp000000pfccccccffffccccffffcfpfffppff5..    0bfffcccfcccccccfccffffcfcccfffpfffccfccfcfccccccfxfccffffu3.  . .*5500dfccffffccccccccffccfpp0000005055*50pffffffppccf050000.  .. .5p5555000ppp0ppppppppp0ppffffpppp0555500pppfffppppppf5pf0p5     .0pppppppppppppppp0ppppp0005550000055550pp0050pp0000000000005.      50000500000000000000555*****<555555551*55555555555555555*0.       *55<**************************......",
".......***.**.       ..********5555555*............****55555095**55555055555505*      *5550000900000pp0000000000000pff00000000ppppppppppppp005005.   .. ****50upffpppppp0pfp0ppp0000000055555555*50pffppfffp05*5005  ..  *55000005505005550p0000pppppp0ppp000500000pppfffcccffp0ppcc0     *pfcxdccccfffffffffcccfpp0p000000pppppppffffffffpppfffffcfccp.     5pffffffffcccccccfp005**500500pffffcccccfffffffffffffxfffpp0      0ffcfffffcccffccffffffffppfccffffcfffffffffcfccccccfffpppp05...   *5500pffcccccfffffcfpppppppp0555555005550ppfffffppffp555500   .  .50555555000000pppp000050pp00p0p0005555550000ppffffpfp500005.    .5pppppppppppppppp0pppp000055555555555500000000055550000000p5.      5500000p00550000055****....****50555051555**35551*5**55155.       ***155555*=*********%**..*******..**",
"   ....... .*.        ..#*.....*555555*.............*..*5000r5%..*5555055555555*      ..***555555500fpp005555555555pffp5050000ppfp00pppp00p035555.   .....***550ppppppp00pf050p05*15555555555505550fffppfp055*55505       ..***5555550p555005*500050005500000005550000pfffcccp0050ff5     *pfkffcccccfffffppffccf0550000000000p000pffffffp000pppffffff0.     .50ppffpppfffffccf0505**0p005000ppfffffffpppppfppppffffffdp0.    .*5pp0pppffffffcfffffpppp00ppfffffcfpffffffffffccbbcfpppprp0*...   .*555500pfcccfpppffpp055500000555000055000ppfffffpp00555555   .  .*****5555000500p005555*5005550000555555555*50pffffpp0055555*    .50pppppppppppp000500p05555555***1*5555555550055***5555555005*..   ..**550055555500005..**.....**..555*5005555..**5*.*5**55***.       ....*1111<<551*15**..+*. .**.*5<%...",
"           ..            .      .****5**%*%....   ..**.**5555*...*55**5********.         .  ..**55000055********5*50p05*5****550000000000009*555*.           ..*55500000ppp05000***55***555555p050pfffppp051****55*            ..*5500p550p05500055055550550000550p000ppfffffp0055pp*   ..*0ffppfffffffffffppppp05**50p000000000500pppppp000000pppppp05.      ..*5550555050ppfp05pp00pp0550055000pppfp0000000005550pppppp*..     ..500ppfffpffppp0005550000pfcff0ppppppfffpppfffffp00pppp0.       .*....*500pp000ppppp0555550pp0000p0055000ppppppp0005500005       .. ...**55005555555000*555535055555055*500*5500pp00055505*.   ..*50pp00000000055*55555*..**********55**************555555**5*. .        ......***5555*.#5555*****..***.*55**5*...%*...*.*5***.             ...*****5551*. ..*. .....*.    ",
".          .                     ...................+....*%%*....****.*%%......           ..........533**...%*****5500********355500000000055555.         ....**55555580000550005**555**5555555***5555*50553**3555.         *******5555*5505**55500055500555005550p0*550000555005500.       .....*55555555500pp055*55505555*55551555555555555555580005.         .******5580ppp0950000p005500555500ppp00085000005500ppp095       ...**5900ppppppp00555510p00pfffp055555998000pppfppp0000pp0        ..**5005500055500pp00005555005550055***555555551*****5500*         *****....*55055555005055555555*50055550u5555000055*5005.  ..    .....*55555558590005******.***155555**********555553*****1.          .......*.******..*******%*..***..<5***.. ......*.***...             ........***.     .  ..   ..  ..",
"....... ..                       ..       ...%%***.***......*...****..**.%....               ...*****555*...******5555**5555<*55555555555555555*.           ....5*****33555550005555555555555555555555550055555005.           ...**555<*5555**05500055000055555550000000000000005051.            *555555000000000050000505000000000000000000000000005*.         ..*****50000p0005555500550pp0005000pp0000000000ppppp005..        .....**55550ppp000005550pppp00050000000000000pppp00000005            .#**55555555000000000550000000000000000000055555500p0*           .....***550p005555000555005555555550005555555555*5005.   .        ..***5580009555551*******155555555355*****555553******.            .....**....***....#*.....*3**..*****+..........%**...            ....      ...        ..      ...",
"..... .   .                       . ...............+**%%..   . .....  ........                 ..*****11*...**********..555*****************5**.                ......******555555555555**.**50555555555551**=555*               ...+**=555**555*99***505005**5505*500000005555555*.         ....*55555550055555550009555500555500000005500000055555*.            ..******55555555*5555*55000055555555555555555555555*.  ...           ....**5055555555*50005***55555555555555555555*55***               ...**=55555*55555555555005555000005005555555*55555.              ...**.*500055*508555555**5*.+*555*%************55*     .    . ...%***1335<****5555*************5******%..******%*....   ..            ....   ..**..%*%... .5**......**. ........ ...       .                   .....    ...    ....",
"          .                          .....         ......       ..    .. .....                  ......**..  ......... ..*#..........       ....                      ...*. .**..**3*.***.. ..**********+.....+***.                    .**+...**..**...**.*5*..*55*..***********.**.          ......**.******   ..**********#*...*******.******.......              ....   .....*******...******........+%.....*.....*..   ..               ..*+....****.****............***..*..**...*....   .               ..+***.....****..****....************.%.......                      .*****..**...*%...*.  .*5*. .....  . .*....     .      .................******..................  ........       ..  .         ...     ..........  .*....    ...       .                                  .... .        ..  ",
"                                                      ...       .         ..........      ......                       ... ..    ....    .  ....   .............     ....  ...   ...      ....         ............  ... ...5=**..     ..        ..       .  .**=.           ...**.          .....                                 ...             ...  ..         ...#   .        ..           .     ...  .   .  ....%*.      .***.      ....         ...      .       .............*.  . .**.. ....****     ....             ...               ...        ..  **  .....      ..                  .   .*5*   ....    .*.   ...  .       ..  ..........     . .      ....    .     .......... .   .. ..*......*.....     .          .   ...   ....     ...      .                                            ",
"..........*...**   ***......**5****.    .            .*******5551***55****555555555555555****<555005**......          .*****555555555555555550005500550055555555000055555**55*   ..     %50055350555550055000555500500000p05**55555905*55*..**......      .*559005555500000000050p05505500000000p00000005555*******  .......*5000000000ppp0000000000000000555005000000p00005=*.**....   .    .*55505500555000050u009000000000550000000055800p00555*******#.    *5000000pppp000005000000550550p0p005551***005550055*55**........**5500000000000000pp000000005p055pp08055555000ppp05*****             **5000005555555555505555500550555005500;555900005..            ..*595**155555535555555555505**5***5055***55555555**+**.             *55**555553*+.*<55.%*..*55*******5***<****+.....                 ....",
"5555990000fp0ppp550pp0005500pppuupp0555005*       ..*0pppppdffffppppffppurpdffxffffffffffpfffffffddfffppppp05*.  ..  .3upffffccccffxcccffffffcccccbbccbbcccccfkcbccccccccfpcf5.  .*.   .9fbccffccbbcccbbbbbbbbccccbccbbcbMbccbbbbccbbbbbbcffbcs005*5*.  .**pbbbccbMMbcbbbbbbbbccnMbcbMbcbmMMbccbbbMMMbbbbbbbccczffp5...   .5pcMMbbcbbbnMMMbbbbbbbbbbbbbMbbccbnMMbbbbbMMbbbMbcffcbcffd5555*  *50fbbbbbMMbbbMMMbbbbcfffccbbbMMbbbbbbbmMbbcccbbbMMbbcfffpp5500*  .0fcbbbbbbbbbbMbbbbbMMMbbbmmccbMMbbbbbbbbbcMmbcbnnbcfccfp055555...*0fbbbbbbbbbbbbbbbbbbbbbbbbcMbccMmccbbbbbbbbbcbMbcccbbcp5.  .*.. .*.5fcbcfcbnccccbcbcccffccccccbbbccccccccbbccccccccfcffffpp0*.  ..*50pfxfffcccccckffffffcccffccffcffcccffppppfffpfffpp000p00*..       .0fxdpffpsfpp00ppsp00000pfpp0pp0ppffp000pu0ppppu0000005#          *555",
"000000uu0pp000pppppfffppppppffppdfffp00005*      ...*0fccffxccffccbbcf0000pppfcbcccccbbcffffccccccfxbccffp0555**...  .9fccccbbbbcccccccbbMbbcbMMbbbbcccbbMbbccbbbnMbbbbbcccf0* .**.   .*pbNMbbMMMMMMMMMMMMMMMMMMMnbbMMMbbMMbnMMNNNNMMMMNMbbbbcfp5*55*...*0fcMNNMMNNNMMMMMMNNVNnbMNMMMNMMNNNNNMMMMNNNNNNNNNNNMbcccfp0*.....*5cNNNMMMMMNNCCNNNNNNNNMMMmbbbbMMMNVCNMNNNVNNMMMNNMbbbbcffp0505* .*5fbMNNMMNNNMNCCNNMbbccffcbMNNNNNNMMMMMNNNMMMMMNNNNMbcffppu5005*  *pbMNNNNNNNNMNMMMMMNNCCNNNCNNMMMMMNNNNNNNNNNNNNMNNMbbccfp05555*% .50bMMMnNNNNNNNNNMbbMNNNMMMMbMMMbMnbbMMNNMMbbbMMNNMbcMMf0*....**  .*0fbMMbbbMNMbbbMMMMMMcbbMbbbbMMMbbbbbbbMMMMMnbbbbbbbbccffp0*.   ..*0fbbcccbbbbbMbcccbbbbccffffffcbbbbbbcccccccfxccbckfpp0005*..    . *pcccccxffccccffpp0000000pffpffffccffpppfffffffprppp05*....       5rpp",
"0000000000555550pfppfppppppppp0pffffpp0055*...       5fccfffcfppcbbcfp5000055pcbfcccccbcfp0ppfcccccccbbcd5**5555*... .0cbccccbbccfffppfcbbbcccbbbccffpfcbMbcffcccbMbbbMbcfcp*..5u5.  ..*pMNMbbMMMMnnMbbbbbbnMMMMMMbnNNNMMbMbcbbMNNNNMbbbbbbccffp0505*.. 1pcbbMMNNMMMMbbbbMMNNNMnMMMMMMMMNNNNMMMNMMMMMMMMNNCNMmbcffpp05*...+8cNMbbbbMMNNNCNNNNNNNMMbbcgffcMNNNNNMbbMNNMbbbMMNNMbbcfffp0000*  .5cbMNNMnMMMMNNCNMbcffffffcMCNNNNNNMMbbbbbbbnMMNNNNMbcfp0000p0** .5pMNNNNNNNMMbbbcccbMMNNMMNNNNMbccbMMMMMbbbbNNNNNMMbbbccfp0pp05.* .0pbMMMbMNNNMMMMMMcbMNNNMMMnbMMMMmbbMMMMMMbbbbMMMNMcfbx0**995***   *fcbbbbbMMbbbbcccbMMMbnMMMMnnnMMbbbbbbbMMbbbbbbbbMMbbcfpp005*     .5fccpffccbbbbbbbcbbbbcfpfp00fccbccbbcccccffffccbbccfp0555***.     *pfcccfppsfcbbcfp5*5005*50ffpffccfffp0500ppffpppppap0*..*..       0ppp",
"ppppppppp055*550000000000000550pfffffffppp0***.      *pffpppp050pffp055000555pfcccccfffp05550ppffcccbbbbf0550000*....*0xccfffccffpp0500fffffpffffffpp00fcccfppffcbbbbMCNbp5550fbbf5. ..*pbMbccbbbbbbbbcccccbbbbbbMMMMNNNNNMbccbbMMMMbbccbbbcccccbcbf5.. .5pffccbbbbbbcccccbbbMMMNMNNMMMMmmnmMbmMbbmmMbbbMNNNNNMbcczbMf*  ..5pcbccccbbMMMMMMMMNMMMbbcffpfcbMNNMbccccbbccbbMNNNNNMMMMncppp0*.. *fbbMMbbbbbbMMMMbczccfffcbMCNMMMMMbbccffccccbbMMCCNMbcgfaffcd55.*50MMMMbbbbccffffpffcccbccbbbcccffpfffffffffbbMMMMMbbbMMcccbbcp** .00bbbbbbbbbbbbbbbfcbMMMbbbbNNMMNNNNMMbcccbMMMbbfccccb05pbbbcp05. .5ffccxfccccccgfffgccbMMMMMMMnnbbbcccccbbbcccccccbbbMMMbcfffcf*    .5pffpfffcccbbbbbbbbbbcfppppppfcccfffffpppp0pffccbbbcfffpp55*..    .0fffcfp00rppfp05**5055550fffffppp005*.***55000pfffp05**55*.      0055",
"0000000000*****55555555*11****50ppffffffcfp055.      .0p000005**50005*0000550pfccbccp00055000500pfcccbbbfp00ppp0*.....5fffppfffpp005550pppp000pppppp000pffpp00pp0pcMNCMp*  .5pcbc0.  ..*0fccccccccccfffffffccccccbbcccbMNbcfffccbbbbccffffcccccbNMMf5.. .5ffffffffflcffffffzcbMMNNMMbbbbcccccccccbbbcccbbMMMNNMbcfcbNc5  ..;5pffffcccbbbbMNNNNNNNMMbcfffffcbbccfpffzcfpcbbmMNNNNNNNMbfp05*.  %fccbbczccgccccbcfzccccfcbMNMMMMbbcccffffffffgcbNCNMMbccccbbd*3.**5zccccccczfffpppppffffffffffffppppfffpppppfccbbMMbbbbcfppcbf* . *50cccccccccccccckffccbcccccMbccbMNMbccfpfcMMMcfpff5. .0bCNNMx0*. .5pfffppffffffpppppppfMMMMMbbbccccfffffcccfffffffcccbMMbcppfbb5    .5000pppfffccccccccbbcffpppppppffffpp00000050pppfccbcbbbcf05*..    %0pppp0055580005***5555550pfffsp0055***********0ffpp051555*.      55**",
"5555555555********5515***1******5000ppppffp055.      .50555055*150005500005500pfcbcfp00000fp00000pppffcfpp000pp0.  .  *0pppppppp00pp000ppppp000pppppp00ppfpp00ppp0pcbf5. .50pfccf5   ...5pffzffffffffffpppffffffffcfppfccfppfffccccccfffppfffccbbbMp*....0cccfffffffccffffffcccbnnbccfcccccccccccccccccccbbMNMccffcbbf3  ..*5ppffffccccbccbbbbbcbczccccfffffcccffffgffffzcccbbMMMMMbcfp5*    .pxcccfffffffccgfpfcccccccbNMMMbbcgfffccczzfffgcMNMbbccfffcc0.* .%*pfzfffccccccffffffffffffffffffffcccczcfcfpffccbbbbbccfpfccp*   #55ccgfccffgccfffffffgccgfffcfppfcccfpffppfcccfp0p0*..5pfcMMbf5.   5dfffppppppfffppppppfcbbccgfffffpppppppfppppppfffcccccfp05pff*     *00000pppffffffppffffppppppp000pppp000000055550ppfffcxcfp05*      .5000055055555055555555550pfcfp0055555555******0pp05****55*.      +***",
"*******************11****<555***555550000005**.   .  .*55*550555000000p00000000pfcff05500pfpp0000000pppp00000pp5      .5ppppppp000pppppppppp00pppppffp0pppppp0ppfppfp5..500pffffp5.  ...*0sffffppppppppppppfffaappffffffffpspppffzcffffppppppffcbMMp*.*  5cfffffffffccccfffffffcbccffpffffffffffffccffffcccMMbcfffccx0%....*8fffffffccccccffffffffpfffcfffffcccfffcccgffffffffccbbcfffp5.    .uffffffffffffffffffgcffccbmMMbbcffffffffffffgccbbcccfffffff9....%*pcccccfffffcccccccgffffffgcxxccffccffffccffffccccccccccccfr*   +5*fcffccfccccfffffffffffffffffffffffppfffffffppf0**0fdfpfcMbp*.   *pfffppppppfffpppppppfczfffppppppp0000ppp0ppppffffgcffp0000p0.     .50000000pppppp000ppp000pppp0050ppp00000000055000ppppppp005*      .50050550555555555555555500pfpp055555555*****55005**..***;*.      ..**",
"**..*******<********5***55555***555*5555*55***.   .   *5***55555000000p000000000pfpp0500ppppp0000000000000000005       *ppppppp000ppppp00ppp000pppppfppppppppppppfcf0*.*pfpfffppr5*  .  *0psfffppppppppppppfffpppppfckfpppfffpppfffffffffpppppfcbbMp*..  *fffffffzzcccccccfffffcccgfppfffffffffffffffffffgccccfffffff5.... .0ffffffffcccccffffffffffffccfffccccfccffcfccffffffffccfffcf0.  . .0ffffffffffffffcfffffffccccbbccffpfffpppffffcccccccfffffffp5 ..***fcccczfffffcccccccffffcccgcccccffffffffffffffcffffffcbbcfp5*.  .*.fcfpfcccccccccfffffffffffpffcffffffpfcccffpffc5.5fbfpfgfbbp*.   *pfffpppppfffffpppppfffffapp00pppp0000ppp0p0pppfffffpp00pppp5      .5pp00000ppppp0000000000pppp055000pp000pp000505000000055505*      .*005000555*1*55555555555550p005**55551*****155005*...#****.       .**",
"**********11********51***5555*5555555555+*****    .  .*55*5555555555500055500555000055500055500p00p0055550000005   .   *00ppppp000000005550p000000pppppp00pppp005fcf5.*5ppppfpp003.  .  .0ppffffffpppppppfpppppppppfcff00pfzffppfffffffffffppppffcbp* .  5sdfffffffffffccccgffkcccgfffffffffffffffffffffffcpppffffpfk5  .   5ffffffffffffccccccccccffcccffffcfffffffffccccffffffffffcbf0.  . .0ffffffcccffcccccffffcgcccccccffppfffpppfffffffccccffffccf0* ...**fffkffffffffffffcffppfffffffffffffffppfffcfffffffpp0fcbc05*.   .*.fcfpfccccccccccffffffffffpffccppfffpfcbcffpffp..5pfpfzgpbc0.     pfffpppffffffffffpppfffffpppppppppppppppppppppppfpp000pfffp5       5pp000000pppp00000000pppppp00500000000pp00000000000005*500*      .555505555*****555555555555555*******5551****1<55**********.       .**",
"**********1*****11********551**555555555.*55<*.  .   .555555*55555555005555000550005550005555000pppp005500pp0005   .  .50pppppp000000055550pppp00000ppp000pppp0pfs05.  *pffcccfpr3.     .0fffffffffffsppffffffppppppppp00pffffpfffffffffffffffppupf5.    5fffffffpppppffccccfcccgffffccfffffffffffffffffffcp0pfffppff5.     5fffffffffffffffppffffccccccfffppppffffpffcczzcccffffzffcbf5   .  0fffcfccccccfkccccfffcccczfccffpppfffffffffppppfcccfffcccp0* . ...pppffffffccppffffffppfffffffffpffcccffffccfffffffffpfcbcd05.   .. fcfpfcccccfffffcfffpfffffpppfffpffppffccffp05  *uxfpp050zf5. .   0pffppffffppppppfpppppfffpppppppppppppppppppppppp0500pppppp5      .5pp0p0000pppp0pp000pppppppp0000000050000000pp0000000055500*    . .5555555555555555555555555**5*1******55555551***5****555*...       .**",
"************...*551*******1***.**1551555.5555*       .*05**55555555500055550000500055500550000pp0000p00500pp000*   .  .5pppppp00000ppp0500pfpppppppppppp00ppfp0pp*.0p0..5pffffp00*      *pcfsffffffffppffffffffppfcfppffcfffffffffffffppffffffppppf5.    5ppfcccccffppffccccccfffffffccccfccccffcccffcccccccccfffffpp0*   ..5pfcccfcffcffccfffffcccfffffcccfffpfffffffcfpfffcccffccfcbf5  ..  0fffffbccccffffcccccccccccfcccffpffccfffffffcccffffffccccfp5 *   .ffccccffffcffffcccffpffccccfffpfffffppffccffffffffcfcccccf0.   .. cbcpfffffffffffcffppfffffcffpfcccfpfppppfp0*.p..0cf0pfp0fp5  .   0ppfppfffpppppppfffppppppppppppppppppppppppppppp000pffp05505.     .500ppp00ppppp0000000ppppp000000p00050000000000000000005005*       **55000500005555505**5555**5000555***.**555551***.**55*.. .       .**",
"....********##.*****<***=555*****1***11***155*    .  .555555555505555555555000000000555000pp00000000000000p00005.      *ppppppp000pppp000ppppppppppppppfpppffp055.*0pp*..50pffp00*.     *pffppfffpppffffffpppppppffffpfcccffcfffffffffpppffffffffpf0.   .10pffcccfccffffcccccfffffffffffffffffffffccccccccccccfffccff0*  ...*pcccffffcccccffffffcccfffffccccccffffffffffffffcccfffffccf5 ... .9fffcccfffccccccccccccccccccccfffccccffffccccccffffffcfccfp5 .    0fccccfffccfcccccccfffffffffffffccfffffffffffffffffccccffp0.     .pffffffffffffffcffffffffpfffffffcffppfpp05555f5*5pp0pfcppp5      50pppffffppppppffffpppppppppppppppppppppppppfppppppfffpp0005.     .500ppppppppfp0000000ppp000000000000000000000000000000000055       *55500055555555500055500555500055********55555***.***;*....       %**",
"......**************<55555115555<***********5*    .  .55555500000005555555500000000005550ppp0000055500pppp000005.      *pp00pppp00pp000000pppppppppffppffppffp5**50ppp0***<0pp005*.     *pfppppffpppffcfffpppppppppppfffcfffccccffffffppfffcccccfff0.  ..*0ffffcffccffffffffcfffffffffffffffffffffffffccccccffffccccc0. ..  *pccfffffcccfffffffcfccccccffffffcccfffffffccccccfffffffccf5 .   .9fffccfffcccccccfcccffffcccccccccbbccfffcccccfffpfffffffcfp5 .    5fccffffcccccccccccffffffffffffcccffffpppffffffcfffcccfpp05.     .5pfxfffffffffffcfffffffffpfffffpffffffp5**5pffp5*5050pbfpf0     .*0ppfffffpffppppppppppppppppppppppppppppppppffpfffffpfppppp5  ..   50000000pppp0500pppppppp000000000p000000000000555000000p055       *5550055555*55555050555500555555****1**1**5555*********#...      ..**",
"**...#************************5<******<55**<5*    .  .55555500000000005555500000000005500000000005550000p0000005.      .005500p000p0000000pppppppppppppppp0005.*0pffcfp005...**55*      *pfpppffffpffccfffffppffffppppffffpfffffffffffffffcccfcffff0+  ..5pfcccccfccffffffffffcccfffffffffffffffffffffffffffffffccccc5      *uffffffffffffffccccccffcffffffffccfffffffffffffffffffffbcc5 .   .5ffcccfccbcccccfffccfffffffcccfcccccffffcccccfffffffffffcfp5      *pffpppfcccfffffffffpfcccccfffcffppppp000pffccccccffffpp00*      *0ffxffccccccccccccccccfffffffffffppfcf5..0ffffp5**5*5pccfkp .   .50pffffffpffppppppppffppp00000ppppppppppppppppppppffppppp005       *005000000000000ppp000ppp0000pppp0000500000555555500500p055       *5555555555555555555555555555555**<11*****1555********%..*.       .**",
"*****.#.....*****<**.*******511*****35555**555.   .  .55555550000005000055595550000000000p00000000000000000000p0.      .055550up0ppp00000pppppppppppp055005555**00pppfppp05*..*50*      *pfpuppfffffffpppppfffffffpppffffpppfpffffffffccccccfffffffr*  ..*pccccccffffffffffffccccfffffcccfffffffffccfffffffffffcccccc0   .  *pffffffffffffccccccffffffffffffcffffffccffffffffffccffcccc5 .   .5fccccfccccffcccccffccfffffccfffccccfffccccccffcccfffffffff5 .    *ppp00pfcccfffffffffpccccccccffppp0000000ppffffffccpppp000*      *0fcfdffffffffffcccfcccccccfffffffpppp0**5fcf0pp000p0150fpf0      5ppffffffpffppppfpppfffppppffppffffppffpppfffppp0pffpppp0005       *0p00000000000pppp00000000000pppp0000000000500000000550p555       *55505555555555555555555555555551**53****11555**1****%.....       ...",
"3****.....  ...%********555555*****155995***55.   .  +555555555555555500555555550000000000000000000000500p0000p0*      .055550pppfpppppppppppppp00000055555555**5500p0000pf05**50*      *0p0000upppppp55000pppfffffffffffppp0ppppfffffccccccfffffff0*  . *pcccccfpffccccccfffcccffpppfffffffffffffccccffffffffccfcccc0.  ...5pffccccffffccccffffpppppppppffffffffccbbcffffccccccccffccc0..  ..9fcccccffffffffcccccccccfcfccccccccfffccccccccccccccfffppff0..    5pp055pfccccccccccfffccccfffffpppp00000000pffffffccppp00005.    .*0fffpppppppppppffffffffccccffffffppp5**5ffffppfffccp5*5fpfp...   0psfpppfppcffffffffffffpffffffpppppppppppfffffpp00ppppppppp0*   .  50ppppppp0pp00pppp005551*5555500000000000000000000000550555      .15055555555******55595555555555555*53**5*155555555<**%.....       ...",
"<*****....    ....******555555******;5555**155*   .  .55555**5555055550055555**5500000000055500000000050000055p0.      .5535500pffppp0000ppp0000000055555555*.**550pppp0rpp05**55*      .5055*39000005*555000ppppffpfffffp0000000ppppfcccffffpppfff0*  . *pcccccfpffccffffffcccffp000ppppppppppppfcccfffffpfffffffffcp5. ...*ppfccccffffcffffffpp000000ppppfffpfccbbccffffffffcccccfpfc0+%   .5pfffcfcccffffffcccccfffcccfcccccccfcffcccccccfcccccfffpppf0..    5p0555pfccccccffccfffffpppppp0000000000000pfffffffcppp00005.     *0ppp00000000055000ppppppfffpppffp050*..0p00fcccccccp5*5p0f0......0ppppppppfcffffffffppp000000000000000000pppffpp000000ppppppp*   ...*0pppppppuppppppp00555******5555000000000000000000000055*50.     .*555551555555***550505555555555551******55555555555**%.....          ",
"*****....      ........*****5*......**335***11#      .******3555500000005*******55000055555555000000005000005505.      .*..**550p00000000000005505555505505*..**50ppffpppp005*.**.       *5****5500005**555550000pp000pp00050500000ppffffffppp0pppp0*  . *pfffccfpfffffffffffffp00055000000000000ppffppppp0pppppppppfp5     .50ppffffpdfffffffpp000000000pppppppffccffpppppppppffccp0pfr**    *0pppppccccccffffccffpppfffffccccfffcfffcccccffccccffppp0pp0..    *55**50pfffcffffffffpp00000000500000000000ppffffffc00000005.     .*00555550000555550000000pp00000005*5*.*5550pccccfpfp0**5505 .   .8rppppppppfpppppppp000555555**5555555555000pp005551555000pp0*   .  *5000000000000pp00051*****.***55550000055555555555555055*50.      ****1**55500055555555555****5555<*********55555555****.....          ",
"***.......     ..... . ....%*%........%*******.       . ....*555000000055********550055555555550900555000555535*            ..**5555555555555555555555555555..55550pppp0000005**..       .....*55000005**<555500555555990555555500000pfppppp0000p005.  . .0pppffppff000000000pp0005555055555555550000000000000000000p0*      ..*500u00pppffffppp0000000000000000pppppp00000000000ccp00p0%*    .555505pffcccccccffpp0000pppfcccfffffppafffffffffffppppp0005..    *....*50pp0ppp00p000000009005555000000000500ppppppp5555555*        .***55000000555555550500555*555**..*555*550p0ffp0pp5*...5*      *000000ppp00050009555555555555555555555555505555*****5500005*       ..*****3<*55000005***********5555<5555551***********5*5*50.      .......;550000055*****.*...**355******.**************%.....          ",
"...... ................ .....................             . .***55555555**.*****.*5595********5555555555551****.             ....*55<3**155555555555553**505.*50*5500555550000555.   .       .**5555009555555555555=355555550000005500pp0p000555055*.  .  *5555500pp00000000000000555500555500005555555500055590000009*         **555500pppppp00000000000000000000000055585599005pf055p5.*     ...%**550pffccccppp000500000fzffpppp00pppppppppfppp0000000* . .      .**55550p000000005550000000500500000055500000055555555*.         ..*55000000000000555505555555*5***550005***0pp0pp5*.**05 .    .*****500005555555**55555000005555555555*555555555***555555*.           ....****550055****1*****5*55*********#.....%%*****5**5           .  ..*500555****........%****...........%%%..%++.......          ",
".....   .....   .  ...........**........ ...              .   ....****5**....***.**555**...*.***33*<*5555*****..            .....*555***5555***5555555055001 .505555555555***55505.  .      ...***55505005555955555558000050000000555500000055555*5*       .   ..*0050555000550000000000000000000000000000p05500000000*         .*155550pppp00050550pp00000000u000000050000000000p00550* .     .. .*.#*500pp0000ppp00000050pffp000p55000000p0pppp000000p0*  ...     .**5***0p0000000000000000000000000000000000000500005053. ..      ...**5000050p0000000005800000000f5.*0p5**55pp5*500555*05         .  *55505555555*500555**555555555555555555555505555555****.            ..#***555555**********************************.*5<**           .    .*****+******.......%*%..       .................           ",
"....    ..       .  ...+... ..............**.                     ....****#.......**3*......#.********5555**...                   *******555****5555555**55* .*55555555005**55553%.  .       .   ..********5555555500350005500555555555555000005**...       ...**5005905000055550000500000ppp0000050800000055555000055.          ......**500000000000000000050u055555550000005555550055. .           ....**5555000pp00005500000000005000p0000005000u0005*.   .      .....  *50000000055*505p050055000500055550000550005555*. ..         ...*..**50000000005590pp005550**10p055050055155500**.        ....*55555000055555*1555***5505508555*5*5555555555**5555**.                 ..**********5***5<*.****5***********.%%**. *53*.   ..             .....*******..**...%%.   ...........  ..........          ",
".       ..       .  ......    .....   .  ..*.                     ....+***..........*.   ........... .****.  ..                     .....***....*******..***...*#.********.****..                       ...%******555..5**..********************...          .****************.**1*******5505***************...*****..                   .**55****5*****5585.353******.*551****...*55*.                   ..**5***55***5.55****5**55***5555*******;5555. ...                .%3555****...5*55.55*.*5***55******<********...  ..                .**..**3******5555*... ..**55********...**5*          ....**55**5********..*55*****5**55.**.....*******....***#.                    ..  ......5*.*5*..**.****.....**#....... .**%    ...                 ..  ...  ...  ...   ..........         ...           ",
"                      ....    .......                            ......  ..   ....  .                 ...    ..             ..                ..    ..   .......             ..                         .     ...  ..  . .                              .                                                 .                          ..             ... ..+. ........  ......      ..    ..      ....              .     ..        .        .   ..   .*.  .......                    ....* .. 5    .   ..    .         ..    ..                .*        ..                             .*..   ....       ...          .   ..     .  .. ..           .                                       .   .       ...     ....    .  .+%.     .                                  ........                             ",
"             ...      ........**...... .53******.***......*............         %.  ....************.*55<*.*555*....**..****55555*.....      ..        ..*5553**1**********5*51***..**********.....*******..        %    *****11****1**********=55555***5****555555555***....      .**.    .**55555**115*555555******555555****55***5005**5**+.........   ...*3355555************55055***5555********5055555**.**.*5*.....    ..**5555**55555*5000*.#5r****515555****.%***3**......  ...%* .. *  .*555**5555555*****555553***55555**555..*******1***#***.....      .*5555********553***5**55=*....*5555<*********......**..  .      .#*.*************55********.****....**......*%**.....%.           ..**11**...........*%.%;;%OX..O...O%%%...+.........               .+*53***......****..............     ",
"008555****          5900pprppppu000ppp00ffpp00ppppppp000pppppppppfppuuf0555*.  .... .*50pfffspppffffffffpp0pfffppppppppppppfffffccccfffdp0000*......  *5pfxfffffccczfffffzccccccfffffffccffffffffffccccfffffpp05**. *..*.pfcbbbbbbbbbcffcccbbbbbbbbccffffccccccbbnMbbbccffffpppp0*****  .*50pfccbbbcccccccbbMbbbcccbbcccccccccccccfccbbcfbbczfffppp5555...%;8fcccccbbbbbbbbbbbbbbbbbbbcccccbbbbbcccccbMbnmbbcffccpffp055**.  *0pfcbbbbbbMMbbccbbbbcffcbccccbbbbbbccccccbbbMMbccffffdpp5*%3+5* .*0fccbbccbbbbbbbccccbbbbbbccffcccccccccbcccbbbbbbbccfffp05**5*.. .50pcMMbbccccccccccccbbbccbbbcfpppfbbbccczccccccffppppp009*..*.   .*0pfpfccxcfffccccccccfffpfffsfffffffffffffppfffffp000u055*....    .5ppfffffffdpppdssffcxkkkdddudkkusdddddddpppp0000000055**..        *50pp000000000ppp05535505558995555555",
"pppp00555*         .pppfffffccfppppfffffcffppppfccccccccccccccccccccccbfpp00*...     *pfcbbcccccccbbbccfppppffbbcbccbcbbbccccbbMMMNMMbbbbffpp0*.***.  *pcbbbcbbnMMbbbccbbbMbbbbMMMMMbbMMMMMMMMMMbmMMMMMMbbbccfp005* *.*35cbMMNNNNNNNNMMMMMMMMMMMMMMnnMMMMNNNNMMMNNNNNNNMMbbbbcccf05*5=...5pxcbnMNNNNNMMMMNNNNNNNMNNNNNMMNNNNNNNNNNNNMMMMMNVNnbbbccfp000*..*50cMMMMMMNCCNNNNNNNNNNNMMMMMMMNCVNNNNNMNNNNNNCCCNNMbNbccbf055**...5pcMMNNNNVCCCNNMNMMbbbbbbcbMMNNNNNNNNNMMMNNNCCCNNMMMMbcff05=0=0*  5fMNNCNNMNVNNMMMMMMMMMNNNNNNNNMMMMNNNNNNMMNNNCCVNNMMbcffp0555*.  *0fbNNNNMMnMMMMMMMMMMNNNNMMMNMMMnnMNNMMMMMMNNNNMMbcccccpfp0515*.  *0fcbbbMMMmbbbbbbbbMMMMbbbbMncbbnbbbbMMbbbbccccbbbccffffp05***%.  .*0cccccccbbbcbbbccbbMMnbxxkkkxnbxcccxcxbbccccccfffffpap05**.      .*0fccfffssaffffffp0555500pppffffspppp",
"pppp0055**..      ..0p0000pffcp0pppffccffpp000pfccccccccccbcfffccccccccfp000**..     *pcbbbccccccccbbcfp0ppp0pbbMMMbbbbbcbccccbbMMMMbbbbbcppp0055*..  %pbMbcbnMMMbbcccccbbbbbbbbMMNMbbbbmnnbbbbbbbmMMMMMMbcffppp0p0   .55bMMMMMMMMMMMMNMMMMMMMMMMMmnMNNNNNNNNMMMMMMNNNMMMmbbbcgff00005*..5cbbbnMNNNNMMMMMMMNNNNNNMNMMNNNNNNCCCCNNCCCMbbMNCCNMbbbccffff0*  .50cMMMMbMNNCNMMMNNNNNNNMbbbnnMNCCNNNNMMMNVNNNNNVCVNNNbccbfp05**.  *pcMNNNNNNNNNNNNNMcffcbbcfbMNNNNNNMMMMMbbbMMNNNNNNNMMbcfpp0pf55* .*gMNMCCNMNNNMMbbbbbmMMMMMNNNNNbbnMMNNMMMMmnMNNNNNMNMbcppppu05*.  *ucMNMMMbbnnMMMMMMbMNNNNMMmmMMNNMMMMMMbbMMNNNNNMbbbbbbcfcfp055*.  .0fcbbbbMbbbbcbbccbMMMMnbbnMmbbbMMbbbbMbbbbbbbbbbbbbccgfpp0505*.  .*8ccfffffcbbcbbccccbbbnkuuuuudcbxxxxkkkxxccccccccccfffa0555*      .*pffcccffffffffpp055<5550ffffffffpppp",
"0000005***005*      555***500p0pppppffffppp05550pfffffffpfffppppffffffppp0005**. ..  *pcccfffpppfffcbfp000p000ccbbbbccccfffppffcccbcccbbcf000pfp0*  ...pbbcfcbbbccffpffffccccffffcccffffffffffcffccbbbbMMbfp000psf0   .*5cbbbbbbbbbbbbbbbbbbbbbMNMmmMNNMMMmbbbccbbmMMbbbbcbcbcfffffpp05..0cbbccbMMMbbbcccbbbbMMMNMMMbMMNNNNNNMMMMNCNbccbNNNNMMbbccfzccp*  .50fbccgfccbMMMMMbbbbbbMMcffcfzbVNNNNMbbbbMbbbbMMNNNNMbcbbcffp5.   .0fbMNNMMbbbbbMNNbfppcbbf0bMMMNNMMbbcczfffccccbMMMNMbcfp0pfcc5*. *.fMMbMMbbMbccgfffgccbbcccbbbbbffccccccccczfgcbnbbbMbcfp0pfcc5%   *0cMMcccbbbbbbbbbccbnMMmbMbbbbbMbbbccgfccbbbMMbbcccccccgcccfp01.  .0ffxcffccczfffffffccccbbbbcccbbbbccccbbbbcccccccbbbbcfsppp000*.  ..3ppp0000ffccccccffccccp833330sddkdduuusddpfffffffcffff0555*       *0pppffpp00pppp055******5ppffffpp05<*",
"pppfffp050ffp5.     50055550ppfccccfffccffp0055550ppp0000000ppppffcccccccfdpfp5*.%.  *pffpppp000pppffp000ppp00pfccccfffppp00000ppfcbnMMbbcfp5pffp*   ..0xkfpcbcfffpppppffcccffpppp0ppp0000p00pccccbmMNNNNMcfffccbbp   .**fccccccbbccccggccbbbMMMMMMmMbbbbcccccccbMMmbcccczcccbMMMNMg5.   *pfffpfgcbbczfffccccbMNNNNMbbbbbbbbbbbMMMMbcffbMMNNNNMMbccbbbf5. .=0fccgffffcbMCNNNNNNNMNMfffcfpfbNCCNMbbcbMbcccbbMNNNNMMMMbbbf5%   .5dcbmMMbbcccbMMMbcfgcbbcpMNVCCVNNMnccccccccccMNNCCNMbccppcbc5*. 5.pMbfbbccMccffppffccbcccfffpppppfffffffpccggcbMMMMMbcfffcbMM0*. .*0fcbcccbbbbbbccfffcbbbbbNNMMbMMbbbcfpppfccbbbczffffccfccbmbf0**. .0fppfpfccffpppppppppffcbbcggbbbbbcccccbbbcbccccccbMMbfppffpp0*  ...*0055550pfcMMMbbbcbbbbdrruuruskkcckdsppsu50000ppffffcfp0505       *00000055555500555**11**500ppp00551<*",
"55000055***55.  ..  *55****5500pffp055500055550555fp00055555055000pppfcbbfppp0*  ..  .0pp0pp0000000pp0550ppppppfccccfpppffp0000ppppfcbbcfffp0ppf05.   *0pp0pgcfpppp000ppffcffppppssfffppppfpppp00pfcbbbbccfffffffcp  ....pfffffffffffffffffffffffcccccccbbbcccffccbccffffffkccfgMBNb0..  *0dffffccccffppffffpfbMNNMbcccccccffffbMbcffffccbnMNNMbcccbMbf*   *5fcccccfccbbMMMbbbbbcbcffbMcffbccccfpppfccffffcbMMNMNNNMcccp.55. .5pfffcczfffffcccccccccccfbMMMMbbcffgcfffffffpfbMMNMbcffpppff**. * pbbpccffbccffppfgccckffffffffffcccbccffczfpfcMMMMbccccccccf5*.  .50ppfffccccgfffppppcbbcfccffgccbbbcffpffcccccffpppfffffcbMMc0***..0fppcffcfffpppp0p000pfbMMbcfppspp00000p000000000fcbbcp00pppp0.  .. .9050000ppfccccfpppsfkr899955800rur93;*;;*5500ppfffcbcp0005       .55*5555****55555**5551*500pppu05****",
"***5551****<*       *******555550055**55555*5555**00055555555555500000fffp00p0*       0000p00000000p000000pppppfccccfp0ppppp0000pp0pffffpppppppp5#    .*0pppff00ppppppppafpppppffffffpppsffpppppppffffffffsppppffp0.   .*pppffffffffffffffffffffffggfffcccccfffffzffcfffffffcfffcMNb0**. .pfxccfffccffffffffffccbbbcccccfffffffcbccfffcccccbbbbbcccbcp5.   .5pccccccccccccccccccccfffcbczfcfffffffffcfffffcccbbbMMMbcccp**. .+5pfpffcczffffffcccccccccgcbMNMbcffccccffcffffgccbbbccfffppf0... *.0gcfffffczcffffffgcffffffffffgfccccccfffffpfccbbbcccccffffp*.  ..*0ppppfffffffffppppffffffffffffccccffpffffffffppppfffppffcMb55*. .5pfpfppfppppppppppppppfccffppppp00000000000000000fffp000pppp*   .. .0000000p00ppppp00000p058885559980983333555500000pppcp00005       .5555555****555555*5551*5ppfpp055=***",
"*************       .***55<1555555555555555555555555555555005550000000p0p005p0*       00500000000000pp00p00ppp0pffffp000pp0p00pppp00ppppppppppp03      .0pffff05ppppppffappppppfffffpppppffpppffffffppppffppppppfp5*   .500pffffffffffffffffffffffffffffffffffffffffxcccccxffffpfbMb0.1* .pccccfpfccxxklffggffcczggcffffffclccggccffcfcczccccccccccbx0..  ..*pffzcfcccccccccccccccccccccccfgcccccccccgfffffffffcbbbcfccp*.   .5sffffccccccccccccccccccccbMNMcfffcccccccccccggcccccccccfff0. ..*.5pcgffcffgccffffffffcccffffffccfffffffffffppffcccccccccfffp..  ..*0fppppffffffffffpppfffzfffffffffffppppfffppfffffffffp0fpfnb55*   5pffppppppppppppppppppppppppppppp000p0pppppppp000pp00000ppp0.  ..  .00000000050000000050rr99888889989888888855505000500p500055       .055555555555555551*****550p051******",
"*************       .***55*1*55555555555555555555555555500005550555050000005p0*       00500000000000pp0000p0p000pppp0000pppp0ppp0p00000pppppfpp03     .*0pffffp0ppppppfffppppppfffffsppppfffppffffffppppffpppppff0*.   .500pffffffccccfffffffffffffffffffgggfccczggfkcccccfffffppcMc9.*. .pcxccfpfzckxffgfggfccczzgzffffffcccggfccffffccccccccccccccx0%.  ..*pffzgcccccccccccccccccccccccccccccccccccgfffffffffcccccfffp*.   .5dcffccccccccccccccccccccccccccfffpfcccccccccfffggccfffcfff0. ..*.5fccccccgzcfffffffffcccffffffccfcccccffffffffffcggcccccfffp.   ..+0fpffffffffgfcccffffffcfffffffffffpppppffppffffffffff0fpfbc**.   *pffppppppppppppppppppppppppppppp0000ppppppppp000pp00000ppp0*  ..  .50000000050000000050rr009000098888888885555550555550*500**       .0555555555555555511****..****.....**",
"***********1*       .**555***55555555555555500055555555555555500500000000055pp*       00000000000000pp00pppp000000p0000pp00000pp00000000ppppppp0*     .*0pfpffp0ppppppfffppppppffffpppppfffppppfppffppppfppppffff0.     *0pfffffffffffffffffffffffffffffffcccffcfccfccccccffkffffcbc5 .. .pfcccfpfcccccccfffffccffffccccfcffffffccccccfcfcccccccccccf0*.  ..*rfffccccccccccccccccccccccccccccccccccccccffffffffcccccfcfp..  ..5dcfccccccccccccccccccccccfppfcccf0fcccccccccfffffffffffppf0..  . 5pcbccbcffffffffffffcccffffffffffffcccffffffffffffccccccffp.   ...0fpffffffffffccccfffffcffffffffffppppppfpfpfffffffffp0fpfcf..    *0ffpppppppppppppppppppppppppppppp000pppppp000000pp000000pp0*   .   5000000000000000008000000000000555555000050005555550*155**       .0555555555555555511*****.***********",
"*************       .**555***55555555555555555555555555555555500050000500085pp*       00500000000000pp0ppppp0p0000000ppppp0000pp000000ppppppppp0*      .5pp0pfp0ppppppfffppppppfffffppppfffffpppppffffppppppfffff9.     .5pfpdppfffffffffffffffffffffffffcfcffffffffcccccgffccfffccf*     pfcfcfffccccccccffffccffffccccccccffffccccfffffcccccccccccfp*.  ...0fffcccccccccccccccccffffccfffccccccccccccffffffcfccccbcccp*.  ..5pcffcccccccccccccccccccccffffcbbcffcccccccccfffffffffffpff0.     *pcccccfffffffffffffcccfffffffffffffffffffffffffffffccffffp.   . .5ppfpffffffffccffffpppffffffffffffpppfffffpfffffffffppfppcp.     *0ffpppppppppppppppppppppppppppppp000pppppp000000pp000000ppp*       5000000000000000008500000055550555555000050005555550<50055.      .5355555555555555511****<555555511***",
"***********<*       .**5551*155555555555**1*51***555555500005000555055555055p05.      00000000000000pppppp0p00pp0000ppffpppp00pp0000ppppppppppp0*      .5pp0ppp0ppppppfffppppppfffffffppfffffpppppfffffpppfpffffp5.      5ffppppffffffffffffffccffffffffffcfffffffffccccffffccccfccp*     0ffffpfffcffffccccffccccffccccccccccffccfffffffccccccccccccp5.  ...0fffcccccccccccccccccfffffcfffcccccccccccccccffccccgccccccp*.  . *pcffccccccccccccccccccccfcccccbcccccccccccccffffffffffcpff0.     *pfcffgfffffffffffffccffffffffffffffffffffffcffffffffffffpp..  .  5ppppffffffffffffffppppffffffffffffpffffffpfffffffffpppppfp.     *0pfppppppppppppppppppppppppppppppp00pppppp000000ppp00000p0p*       500p000000000000009500000055550055555005550000055000555055.      .5555555555555555511*****5***********",
"*************       .***551*155555555555555555555555555500000000555055555055005.      000p0000000000pppppp0000pp0p00ppfppppp00pp0p0000ppppppppp0*      .0ffppfppppppppfffppppppffffffpppffffppppppfffffpppffffppp5.      *fcffffffffffffffffffccfffffffffccffffffffffcfffffffccccffp5     0ffffpffffffffccccffccccfffcffcccccccfccfffffffcccccccccccfp5.  .. 0fffcccccccccccccccccccccccccccccccccccccfccccfcccfffcccccp*.  . *pcfcccccccccccccccccccccffccccffcbccccccccccffffffgfffcfff0.     *pfcffcffffffffffffcccfffffffffffffffffppfffffffpffffffspp0*.  .  *pffffffffffffffffffppffffffffffffffffffffpfffffffffppppffp.     .5pfppppppppppppppppppppppppppppppp00pppppp000000ppp00000p0p5.     .50pp000000000000009000000005550500500005500000555550**5055.      .5*55555555555555511******#*..*******",
"************.       .***55***55555555555555555555555555550000000550055050005005.      000p00000000000ppp0000pp0ppp000ppp000pppp0p000000000ppppp0*      .0ffppffpppppppfffppppppfffffffffpppppp0pppffffffppfffpp005.   .  *fcffffcccccfpfffffccccffffffffffccfffffcccfffffcfcfcccfffp5.    0ffffpfcfffffcfffcccffccccffffcccfccccffffccfffccccccccccxff0.  .. 0fffcccccfccccccccccccccccccccccccccccccfffccffcccfffccfccp*.  . *pcfcccccccccccccccccccccpfcccfppcbccccccccccffcccccczfcffxu..    5pffpfcccffffffffffcfffffffffccffffpppp0ppffffffffffffpp000*.  .  *pfffffccfcccffffccfffffffffffffffffppfffppffffffffffpppffp*     .5uffppppppppppppppppppppppppppppppp00pppppppp0000pp00000r0p5.     .50pp0000000000000050ppppp000000550000555500550000555**55*5.      .5*555555555555555*******.*#*********",
"***********1.       .***55***55555555555555555555555555555000000555055050005505.      000p00000000000ppp0000000pppp00000000pppp0pp000000ppppspp0*      .0p050fffppppppfffppppppfffffffpppp0000000ppppppppfffpp005**   .  .pcffffffffffpffffcccccffffffffffcfffpfffccffffccfcffcbfspp9.... 0ffffpfcffffccfffccccfccccffffcccfccccffffcffffccccccccccfffp.  .. 5fffccccfffccccccccccccfffffccccccccccccffffffffffffgccfccf5..   .pcccccccccccccccccccccccffccffffccccccccccccffccccxfffcffcp+.    *0p00pfccffffffffccfcffffffffcffffpp00050ppffffffcfffpp0955*.  .  *sfffffffffffppfffccffffffffffffffpppppppppfffffffffffpfffp*     .*0fffppfpppppppppppppppppppppppppp000pppppppp0000p00000000p5.     .50pp000000000000005000000000000550000555505550000550**5555.      .1*555555555555555********151****5;**",
"************.       .**555***55555555555**********5555555555055555000005509555*.      000p000000000000pppp0000pppppp0000000ppp000ppppppppppsdpp01       555**ppfppppppffppppppppfffffppp00055500000pppppfffffp05*5*   .  .pfpppppppppppffffcccccffffffffffffppppfffccfcccfffcffcfppp9%..  0fffffcccfccccffccccffffcfffccccffffffcfccccfffccccccccccfccp.  .. 5ffcccccfffcccccccccfffpppfpffccccccccccffffffffffcccccccbf5%. . .pccccccccccccccccccccccccccffcccccccccccccccffccccxcffcffcp*.    .50550pffffffffffccccccfffffffffpp00555550pfcffffccffp0055**.  .  *ffpppppppppp00ppffffppffffffffffppp0ppppppfffffffffffpfffp5.  . .*0pffppppppppppppppppppppppppppppp0p0pppppppp0000pp0000000p5.     .50p000000000000000555555555555055550005000055550000p550055.       **555555555555555********55<*...****",
"*..*******55*       .**1555555****555**.*******..*55555555550555550000555005555* ..   5000000pppp0000ppp0000000000pppp0000000ppppppppfppppfp00pp5.     .*55*500pppppppfpppppppppp000000000555500000ppfffffffpp05555   .  .0p0000pp00000ppppppppppppffffffpp00ppp0pfffffccccccffffdff0     5fcffpcccccccffffffffffffpppfffppppp0pffffffffffffffffcccffcf*  .. 5pfccccccccccccccfpppfppppppppffccffccccfffffffffffffccbbbcp5.   +pccccfcccccfffcccccccfffffccccffffffcccffcccffccccccfffpfcf5.  . .50p00pfccccccccfffccffffffpp00pp00055*5500pffcccccfff000005.     5pp0ppppp0000p00ppffp00pppsp0pppf0000000000pppffffpppfppffp5.     *0pppffffpppfppppppppp000000000000000000ppppppp000ppppppp0p0.     .*550555000000000055155********5555550000005555555500050550*      .1555*********55555***************%%%",
".... ..%*555*.      ...********355505<..****.....****555555555****55555500005505 ..   *55*555000p0000000055555555000pp0p00500pffp0pppppppp00550p0*      **555550ppdddppp00pppp0005555500055550005550ppffffpp000005*.      *5*55000095550000000000000pppppp055ppp00ppppfffzcccf00pppf0     ;fccffbcccffffffffppfffpp000pp0000505000ppfffffpppppfffccffcf*  .. *pfccffffcfffffccfp0ppppp000000pffpffcccffppffffppppffcccfpp5    .0ppcffffccccccbcccccffppppfcccfffffffcgfpffcffcccbczfp00pfp5.     10p0550fccccccffffcfp0ppfp0055500000050000ppfcccffffp000000.    .3955500000550p0000pp05500pp0000pp055555500000pffffp00ppppfp0*     *0pppfffffspppppp0ppp0555555555555555555500000055000000000p0*      *55550055500000u051*******.#.**55535555555*****5*55555<*55.       *************15555*****....**551*%%%",
"...    ...**.         .......**5550005*****.....**%***355555****.**11<555000555*      .**.***5555000000055*555555550000000000pppp05500p00055*5005*  ..  ..*.**5550ppp0000000000555555500005555055*5500ppp000555555*       ....*5589555550005500055555000000550p050p000pppffffp5*000p5  .  *pxfffbcfffffffffpppppp000000000005550000pppppp00000ppppppdfu*  .  *00pppu0up0000pfffp0000005555555000ppfcffpppppppppppppafp05*.     *5*000upfzcbbbccfffpp0p00pppffffpppppdpppppfpfffccffpp50000+      .*5****5pppppfffffpp05500005555550000000pppfffccpppp0005555.     .%..**35555550555000055p005500000555555000000pffffp000000p05*.   .*0ppppfppppp00000ppp005,<3555555*****.****1***********1150p0.      ***5555555000000005*******....*55***55**1**....*.*5***..**.        . ...%****<*1133*%..... ..*******%%",
"...      .***.          ........*3555**.**....#*****.*.....%******5*1*5<***5**.. .    ....**55500000000955***55555550595055*35095550upppp005***5*       .....*5*.*505***5900000000000000055500005555000000005555005.  ..  .    .***5***5505555005555500000055000550000ppppppp000p0pp5.*.   *50550000000000000000000050pp00000pp05550000505555555555005*.         ...***5500ppp00555555555555000000pp000050000050ppffffp05.  .   ..555550ppfccsppp00055500000fffp0pppppu0000pfffczffpp00p05.         .***.5000000000000550000500055555555000000000pp000000050*...  ..   .%*555005555900050p5***50055005055555555500005555<555*.   ...*555155**5**55555555555*5555555555***55555555*<555555555**5*                .*355555<*********..**************......*5555****.  ..    .  ...****551****.      ...*****...",
"%%...  .....                    ..**....%.....***5***...........****..5******..            ....**5559589555555555550005005****555555500005550055.             ...#*;****550900000000000005550000555555555555555555*           ..*1555555000000p0000000pp0000000000055500000000000055.  ..   ....*550000000ppp0t0000p0ppppppppppp000000000055555505509*..       ..***500500pppp0000000000000pfffppppp000000ppp00000pfpp005          *55**50ppfpppp00000000550pffp0pppppppp0000ppppp0005005.          .****5000000055pp000ppppppp0005555555000005500055500055*.         ..**5505005000pp000p05*500055pp00555555555000555500005*             .****555505**555555000000055555555555551555555**1***5.         ... .....**5******5**********55*******551******55****...   .                ..***+...... ...****.. X",
".....                            ..............*************....****..**.****.                  .%**********55*****555*505*****<55****55***5005*.              ...#**11533535555555550000555550005555555555555550*              . ...*55000000005555555550000000000555500005000055**   ..   .+***555000000pp00000000000005050000000000000000000000005*...       ......***550000000000000000pppp0000050p000ppp0000000055*.          .....*5500000p000000555500pp0000000p000500000000055005.          .....**555000000055500000000000505550000005550555500005.            ..******55900555000000555055555555555555555555500005.            .*5555555585555555555585555555555555555***555*********.  ..             .*********35********#**%.%****5**..******.**. ..                      ..........  ...++.....",
"                                   .....      ..........****....***...........  .                ...  .......*..........***....****%%......*5**.                ..  .***....*.*..*..***5******5555****==******555*                    .***********..+.....*3****55******55*****5..*.  ..     .********155555**5555***55*******5*5555555**55555555555*. ..                ...*********555555<5*****5*.*55*55555=5555**+.         ..       ..**=55555****..****<**5*****<*****555555***=5=%                  ..***555***...***********555*55553****5***55555*                     .*********5505*.**5...*******************1**.         ...**55=*******5******%..************.****...***........*.                 ..........**%....... ...........       ...... ..                             ...     ..   ..",
"                                                .         ..     ..                                         .             ..    ... .     .                          ...  ..               ........   .....    ...          . .                            ..   ...     .      *  .. .%.                             ...      o    .  .       .    ..                                                          ....       .    ...            ..                .          ..        ...                                           ........        .......          .            ...    .  ...    .       ...                         .....                    ...                            .                            ...             ...             ..  ..                                            ",
"   .....            ...........         .                                ..               .        .....                   ... ...                ...           .    ...  .....            ..                                                                   .*.            .  .. .+..*.                 o         oo            .....          ....*.   .        ..***..                                              .      . .....     ...                    ......*                      .....***...         .                                          .   .***%...... **1*.  ..                                  ..  ..                 ..                                         .#.                 .                         .*....                                      ....                  ",
"..**5555**555***55**5555*55555055**555**...           ..*55000555500p055000055000000550p00pp005550005055*.............  .*0pp000000000000000000000pp00pp0pppp0000000000005555***%%....    .50uppppp00ppfffppppppppp0000pfpppppppppppfppppp055555*****......*5**50050pppfffppp0pf0pfp0p000pfppppsppffffpppppptt5,*,,55,*@.o   .o*000pppppsp000ppppappppffppppffffpssffffffp00pppp05*******..    .50pppppppppppppffpppppppp0pf005*3p000ppffffppppp00051*****.......*50ppppppfffpppppppppp00pffpffppppppppp0000000p0p055555*..**..    .*5000005*55ppuppfpp00000pp00f0550pppr000ppp50pp05**555*...***.  ..%*55000p000000ppp0000p0550000p0000000ppppp0000005555***.......... .555000000055500000000pp0005550p000050000005550055....           ..*5*50055555555;*55550p0550055555*5055*<*****5***..                ",
"55500ppp00ppp000ppppsp000ppp00fpp0pdfpppp000u0*        .0pfcffffppffffpfffp0000ppffffffcccccffffffcffffffffpppp55**.... .0fccccccccccccbccccccccccccccccccbbccccccccccccbbbcffpfp05**. ....pfccbbbbbcccbbbbbbbbcccbccccbbbcbbbbbbbbbnbbbbcccccccfbcp51.5. .*5pffbbfcbnmmbbbbbbnMbnMbbbbbcbmbbbmMmmMmbbbbbbbbmbcccllgf0,,@..ooo,sbbbbbbbnMnbbbbbbbbbmnnnbbbbMMMMMbbbbbMMMMbcbMMMMbzfcczp00***.  .0bMMMbbbbbbbbMMNNbcfcccccbMMf55pcMccbbbMMMMNNbbMMmbczzccp5555*. .*pcMmbbbMMMMMMMMMMMMMnbbMMMnMMMbbbMMbbcbbbbMbbbbbMcbbcfpppp05*.  .5pcccbbbfcp0pcbbMMMbbcccfcbbbfp0fcbbbccccbbccbbbcgfffcfff05055< ..50ffccccbbcccccbbbbbcccccggfcccccccbccnccfgcbbcccczffgfpp0***...  %0cckccccbbcfffggcccccccccccfffcbbcffppffccffffffffffp0005.%..    .5pffffffffppffdppp0000p0pffppppfpppfpppp00pp00000005555*     ..   .",
"pp0ppppfffpp00000psfffppppfffffffpffcfffcp0000.o .     .pfcbccczfffcccccfpp000ppffcccccbcbbcfffccbbbccccbbccxfp555*..*...0cbbbMMbbbbbbbbbbbbbbbbbbbbbbbccbbbbbbbbcbbbbMMMNNbcffff0555.  .**ccbbMMMMMMnnMMMMMMMMMMMMMMMMMMMMMNNMMMMMMMNNMMmbbnMMbcbc005*0...*pcbMMNbMMNNNMMMMMNNNNNNNNNMMMMMMNMNMMNNNNMMMMNNMNmmmbbcclr,5@+@.o@5cMMMMMMMNNNNNNNNNNNNNNMMbbnMNNNNNMMbMMNNNNMMNCCCNbbbbbzp0055*. ..pbCNNMMNNNNMNNNCNbffccccbNMcp0pcNNNNMMMMMNNNCNNNNMNMMbbbp55555* **fMVNNNNNCNNNNNNNNNNNNNNNNNMMMNMMMCCNMMNMMNNNNNNNNNNMbcfffp095.  55fMbbVVMMNc0pMMMMNNMMMMMcMNMcppfbMNMMMMMMMnnNNMMbbbbbbfcf05055* .%0fbbbMMbMMMmbbMMMNNMMMmnnbnbbbMmmMMMMMNMbccbMMMMmbbcbccfp055*... .3pbbccccbMMbcbbbbbbMbbbcccccccbbMbbccffcbbcccccbbbcccc0pp5.....   %0cbbcbccccfccccffp005500pcfffffccfffpppppppfpppfffpp005*     ..  .%",
"pppppfpfff005****500ppfffpppccffpppfffffx0<#.....*     .pffccccffffcccffpp00500pfcccbbccccbcfpppfcbbbcccccfp05*.*5*..%**=pcbbbMMbbccfffffcccbccbbbbccccffccccccccccccbmMMMbcfpppp059p*  .5*cbbMMMMNNMMMMMMnMMMMMMMNNNNNNNNNNMMMnnnMMMNMMbbcccbbcpp050p00..*5cMMMMNNMMMNMMMMMMMMMNNNNNNMMMMMMMMMMMMNNNNMNNMNMmmncclfssttt,.ooo@rlbbbbbbMMNNNNNNNNNNNMbbccfccbbNNNMMMbMNNMnbMNVCNMcbbcf055000. .5*5cMMMNNCCCNNMMNNbfpfccffbNc55bVNMMCMbbccbbMMMNMbcbNNMcpp050055*.55fMVNMMMMNMMnbbbbMMMMMMMMmmbbbMMbMNNMbbMbbbMMMNNNCNMbfp0000005.  50cMbbNNMMCbffMNMMmmMMNCCmMMcppcMNMNMMbbMMMMMMMMbbcbcccfs055p=5. .*ucbcbbMmMMMbbbbbMMbbmMMMMMMMMMMMMMMMMMMMMMbbcbMMbbcccfp005505*...+5pcckfffcbbbbbbbMMMMMmbcfpp0pfcbbbcccccbbbfffccccccfpp5005 .  .   .5fccccccffffccffp0055550pfffffffffppp00000pppppffpp055.          %3",
"ppppppppppp005***500pfxcf555pf05550pfcccupfcbcf0*       0ppfcffpppffffpp00550000fccbbbccfffp05500pffcbbbbcfpu00pff0.  ..5pccccbbccfpp0000ppffffffffffffppfffpffffffcccbMMbcfppfcbbMbf*  .55cccbMMMMMMMmbbbbbbMMMMMMMNNNNNNNMMbbccbbMMMMbbcfffccbMbccbbpp*..5cbbccbmbbMnmbbbbbbbMMNNNNMMNNNNNNNNMMMMMMMMMMMMNBVVNmccllmNmt,o  o,sccccccbbMNNNNNNNNNNMMbcfffccbNCNNMbcccbcfgcnNCNNMbbbMMnbz0..**5 .5fbNNNMbcffcNCCMcfccccfgp55pMCNMMNbcgfffcccbNNbcMNCMc0cccbf0*  .1fMNMMMbmMccffppfffcccccccccccccfcbbcfgcccccbMNNNNNbcffxcbMMf5.  00cMccmmbnNbfpbffcbMNNCCCNMcp0fbNNNMMbbcbbMMMbbbcccccccNMMbbm05.  *ucbffcbbbbbbcccccczccbMMNMMMMMbmmbbbbbcMNNbzfcbMcbbbbbbcccfcp5....*8fsppfffccbMMMMMbbmMbbf005550fcbccfppppffdppffccckccbfccf005..   .5pfppcffffpffffp0055**550ffcfffppp0005055500ppffff05*..*500*   ..*5",
"ppppp00000ap005555000ppp0*..*55***50pfcckcbbffp0*       500ppp00000ppp0055550000ffcbbccfpp055550000pfcbbbcffpp0uff0.   .*0pfppfffp0ppppppp0ppppppppppppppppppppffdffffcbbbbcfpffcccx0.  .5*fppfffffffspffffffccccccccbbbnnmbcczfgccbbbbbcfffffgccbMMNb505. %pffppffcccccczggccccbMMMMMbbbbccccggfccccccccccmNBVNmclllmmct@ooo@5pffzccccbbMMMMMMMMMMMMbccffcccMNMMbcffffffffgbMMNNCCCNMMMbp*5*   ..5pNcccccffccnbMMbfcbbc0.5cNMbbbbccfffffzcccbNNVCNMbcfccbMc0*. **pcbcccccccfffssfffgffgffffffffffffffppfffffcbMNMMNbcfgcfxbbr5.  55pcffcczcbcfpfcccccgffpfMf55acbbMNbccfffcbbbccccffffffcbbMNN555* .0fcfpffffccffppppppfccbMMMbbcccccggffffcbbcp0pfcbMMMbcffffcbf5  ...*ppppppffccbbbbbccccccfppp000pfcffpp05000p00ppffffcbMcccf005..   .*0p00ppp0000ppp0005***550pfccfp00055555555550fffffp05.**500.     ..",
"000005005500555**5555555******055*550pppfccp5555*       5550p0555555000055500000pfcbbcp000000pppppppffcccfpp000ppp5     .50p000ppppppfffpppp0ppp00pp0pp0pppfpppfpppppffcbbccfspffffp5   .*.000pppppppppppppppfcfgfffffzcccccffffffgccbbcffpppffffcMMNb555. %pffppfffffgfffffffffcbbbbbbccgffffpppffffffffffcnmmmclkkklll5@oooo,tfffcffccbbbbbbbbccbbbcccfffffcccccfffccccgffccbbbCCNbccccp*5*  .*555ffccbbbccffpgbbffcbf=*pMCCMbccccffffzcccccbNCCbcffcffxcp;*..**0ccfcczffccccccccccccffffffffffffffffffcfffcbbbbbMcfffcffcc5*.  **0cfffffcbcfpp5555550pppg5*5gbcccMcffppffcccgfffffffffffcmMM**5* .5pfpppppffffpppp00ppfccbbccfffffffapppffcffp0ppfcbbbcfppppfcp*  ...*000ppppffgcccffffffffppppp000ppppp00000000000pfdpfcbfffp05.      *5055000555555000055555500pffpp55555555555555ppppp005******.      .",
"55555555555555******53*..*55**005*5555550pfp5505*       5555005555550000555000000pcccf0000pppppffffp0pfffpp000pppp5     .50p0000ppppppppppppppppppppppppppffpppf00ppppffccfffpsppffp5   .. 0ppfffffffffpppppffffffpppfffffffffffffgcccccfffsffffccbbMb55%..%0fcffcffffcffffffpppfccccccccccgfffapffffffffffllccclksssllk,o    @0ffzcfffccccccccccgzccccffffpppfffffffccccccgfffccbbbcffcf0.*.  .50p50fccccccccfpffcffff0*0fMCCMbccccffffcccccfcMNNcpppcgfff5... ..0fffgcfffgccbbbbccccccccczffffcccffccccczfffccccfcfpfcccccc*..  *.5ffffffzccffs555**=50005*50gbcfffffpppffgggfffppppfffffcbMM5**. .5pffpfp0pfffpppp00ppffggffppffffppppppfffppfpp00ffffffppppff0.  .. .000ppppasspppppp0pppfppppp00000pppp000pp000000pppppcpppp00.      *5555005555555500055555500pffp05555555555555559000555*55**.       .",
"************155551**05***155**055**5555*.50p0pp0*       55550005000000000000000050fffp0550pp0000pppp550ppp0000ppp05   .  *0ppppppfpp00000ppppppppppppppppppfppffp000pppfffpppfpfpffp5    . 0fffffcccfffffpppffffffppppffffffffffffzcccfffffffffccffcbb00.  .0fffccffccccccfffffffffffccccccccccffffffffffcffkllllsssklll,o o  o0fcccccfffccccfffffffffffffffppffccffffccfccccffffppfffcbc0 ..   *pcp5pfpppffcczccfccfp550fcccbbbcfsgcccccccccfccbbfppffcccc5     .5sfpfccfffffcccccffcbbcccccccfcccfpfccfcccfcffffffpffcbcccf...  ..5ffkfffffffffcffpp0555*.5pfffccfpffpffffffffffpppffffbcccbM0*. ..5pfffffpffffffffpppppfffppppffffffffppffppfcff000ppffffpppff9.     .pppppppppp0000000000p0000055000ppp0000000500000p000fp00000.     .*55550005555555000000055550pp055555555**1555***111****50***. ..   .",
"#*****1555155550059500055*****55***55005.*55*505*       555500000000000000000000000pp0005505555500005500ppfpp0..**.  ..  *0pfdpppppp005500pppppppppppppp0pppppffppppppppffffffp055005   .. 0kf00ppppp00pffffffcfffffffffffffffffffffffppffccccfp0000fc00.   5pffffffcccbcccffffffpppffffffffffffffccfccccccstttssttttsss,oo@@@,pcccccfffffccccccggffccfffffffccccccffpfpffcccfccbcfffpfbbf3*... .0bxp5**5pcbcf0ccffcf055pzcfppfccf0fffccccccccccccfffccfccc5..%.*.5pffcccffppfffffpppccccccccccffff00fffpfccccfffffffccfffp05 ..  *.5ffcffffppfffffccbccfp0*pccfpfcfpffffffffppffffffffffppppfc55<. .5pfffffpffffffffffppppppppppffffffffffppffffffppppppp00550ff5.     .pppppppp0000000p0pppp00000500000p000550000000000055p055500.     .*5555005555555555500055555500055555555***55555********55**.       .",
".****15555***<555555**55<#**50055555555**5005005.      .50555550000555000005000000050pp0555000ppp000ppppppp0000ppp5      .5pffpppppppfffppppppppppppppp00ppppppffffpppppppfffffppfcp.   .* 0ppffffffffffffppffffpffffffffppffffffffpppppfccccccccbbcfp**   .0fcfcccfffcccffffcccfpppffcccccfccccfcffffffflfsssskllllllll,o    o0ccbcfffpfcbbccccccccccffffcccfffccfffffccccfppfcbcfccfcbcp.   .*0pfpffp050pcccf05005**0pcbccffccffcgffffcccffcbcccfffcbfcbb0....*.5pffcbcfpfccccccccccccccffffffcccppfccfffcccfffccffccccccfp.    *.0ffbcccfppcccccffcfffffpfcbcfffccffffccffppffffffffccffcfpf...   5dfppfffppppffffpfpfpppfffffpppppppfpp0pfffppppp000ppfffppf0*  .. .5fppppp0000000pppppfp000pppppp0550pppppppp0000000050f055000.     .*0055005555550555555555555555555555555**155500055***55*..**       .",
"*...**********11555555555****505555555555*550005.      .500055550000005000000000p0000pp00055000ppp00pp00000000ppp05      .5pfppppppppppffpppppppppppfppppppppppffpppppppppppppfffff0*   *. *pfpffffffffffffpppfppffffffffffffffffffpppfffffcccccfbbcfp*.  ..0fckcccfffffffffffcffpppffccccfcfccccccccccccffklllccccclccf,@o    0cccccccccfcffccccccfccccccccfccccccffffccccffffcccfffffccs... .*0pppfccfp05***5500pp0pppfcxfffcffcbcffcfccffccccccffffcffcc0......*pffccccffcccccffccfffffccccccccfffcccfffffffffffffccccccf0*     .5fccccccffccccccfffffffccccccfcccfffffffffpffffffffffpcfpff*.    *0dfffxfppppppppppppppffffcfpppppppppppfffffp0000pppfpppffp0*     .5pppppppp00pppppppppp0000000000000pp0000p00000000055p055500.      *000555000000555555555555*5005**505*****11555555<1*****.**.        ",
"*************33;55555555==****05555550550<*55505*      .50005555555000550pp0055000000000p00000pppppppp0000pppp0000*   .. *5pfppppppppppfffpp00pppppffpppppffpppppppppppppfffpfffppp05  .*  *pfpppffffpppfffppppppfffffffffffffffffffffccffffcccffcccfp*    .5ffffcfffffffffffffffffffcccffffffffffccccccfffgccccclllfccf**.  . 5ffcccccccfffffccccccccccccccfcccccffffffcfcccccffcccppfccf..   .5upffcccf05**500ppfcccfffffffffffcbcccffffccccccccccfffffffp*...  *pxcfffccccccccccccffffcccccccfffffccfffffffccffffffccfcfp5*      5fbffffcccccffffffffffffcccccccccffffppfffffccfffffffpcfpff5*.   *0pfffccffffppppppppppffffffppppspppppppffppp000ppffp00pfcf05.     .0pppppppppppppp0ppppp00000000000pppp0000000ppp0005500000pp*      .50005000000000000555555**5095**505****115555**55551******.        ",
"*************3355555555*=1****055555555505*50505*   .   *00000005555555550005050p00000000000pppppppppp000ppppp0000*   .  .5upppppppppppfffpp00ppppppppppffffpppp0pppppppfffffffffpp0*   .  *pfpppfppppppffppppffffpfffffffffffffffffffffffffczcffcfccf5.    3pkffccfcfccccccffpffffffccfffffffffffffffffffffffffffffffcf*@.  . 5ppfffccccccccccccccccccccccccfffccfffffccfcccccffcbcffccbc*     *pfccccfppffxccfffcbbccccfffffffffcccccccccccccccccccffffcfp* ..  *0fcfpfccccccccccccffffffffccccffffffffffffcccgzcfffccfffp5%      5dbffffffffffffffffffffffffffffffccfffffffcccfffffccfpbcfcf*... .*0fkfffcffffffppffpppfffffffppppspppp00ppppppppppff0550ppffp5.      50ppupppppfppp000ppppppp0pp000000ppp000000ppppp0005p0000pp*       *5000000000005555555555555555555555555555555155555555**5*.        ",
"******1*******;;5555********<5055555555505550505*  ..   *0050055550000*5500055500000000000pppppppppp00000pppppp0003      .50ppppppppppppfpppppppppppppppppppp0p050ppp00pfcffcffpppp05   .  *pfpfffffppppffffffffffpfffffffffffffffffcffffffffffffcffcf0.    5fccccffffffccccffpffccccccffffffffffpfpffffffffffffffffffkf5.   ..0ffcccbbbbcccccccccfkccffffcccfffffcccccccfffcccffcccffcccc*     .0cccbbcffcbbzffccbbbbcccffcccffffccccccccfffffcccccccccfcfp*     .0ffppfcbccccccccccfffcffffffccfffffpppppfccfffccxffcfpppp5.   .  5pcfffffffffffffffffccfffffffffffccccffcccccccffffcccpbbcf0. .. .*0pfsppfzffffpffpffffffpppppppfffppppppppppppppp0p0*  ****05.      .50ppppffffffppp0ppfffpppppppp00000pp0000000pppp0000p0pp00p*   .   .550000000055555555555550555555555055555555***5555555555*.        ",
"*********.*********1*****55555055555555505555555*. ..   5005555550000055000000000000000000000000000000000pppppp0005      .*5000ppp00pppffpppffffpppp0000000055555500000pffffffp055005      5pffffffffppppfffffcccffffffccccffffffffccfffffffffffcfffcc0%  ..0fccffffffffffffffffcccccfffffffffffffffffcccccccfffffcccccf0*   ..0fffcccccccccffffffpffffpppffcfffffcccccccfffcccccfccpfffxx*.... .0cbccffpfccbcpffccccccffffcbccfffccccccccffffffcccccfccfccf*     .5pp0ppcbgfcccccfffcccccfffffffpppp000050pffffffccgccf000p0*     .5pcffffffffffpffffccccccccccccccccccffffccfffffffffccpccffp*     +5pffppffffpppppppfffffppppppfffffppppfffffpppppffp5**55****    ...*500000upppfppp0p0pppppppp000005000ppp000000000000000000550.       *50500000555555555555555055555555555555*****.***151**155**        ",
"*****35**....%%*****%****55559055555555505555*555.  .   50p0000055555555500050000000000000000000000000000pppppp0005.      *555500p0pppffffpfffffpp000000055555*555500ppffppppp0055555      5ppppppsppppp0ppppppfffpfffffffffpppppppffffffcccffffffpfccp*   .0fccccfffcccfffffcccccccfpppffffffffffffffccccccfffffcccccbcp*    .0ccfcccccfccffffffp0pfppp0ppfffffffccccccccffffcccccfffffff5  .  .0cnbffffccccfffccccffffffcccccffffcccccccfffffffccccfzcffcf5.    .5u000pfcfffcccfffcccccffffffppp0000055500ppfffffccccp550p05.     *pfpsfpppppppppppffffffcccfffcffcffpppppfpfffffffffccffffff0.    .5pffffcfffppppppfcfffppppppppppppppp0pppfffffpdp0550pppp005*.   ...0pfppppfpp000p0p00000000055555500pppp0000000000000005005*0*       500555555555555555555555500005*5595555****************11*.        ",
"****;;3**#..........%%***;5555555**5555595555*555*      *005005855555500005555005500000000000000000000ppppppp005005.      .***55000psffffppfpppp000000555555555505500pffsppppp0055505      *005000000000550000000ppppppfpppp0000000pppffccccccffffppccp*    5fcccbccccccccccccccffffp000ppppppppppppppffffffppppfffffcbcp*     0cccccccffccccccffp0ppp0000pppfffffffcccccffpfffcffccfcfffc5. .  .0fbcffcbbccffccccccfffffffccccccffccccccccccfffcccccfffpfff5.    .*9550pfffxccccccfccffffppppppp00000555000pffccffccffp550p00.     *0p00000000500000ppppppfffppfffpp0p000000pppffffffcccfppppfp*    +5pfffccfffsppppfffffppppp000000000005500pppppp05..*0fpppppp0*     .pffffffffp00pppp00555555551115500000000000055550000050p550*      .50555555085555555555555**50005*509555555*1****;555*1*****.        ",
"..***3***.  ........%%%***55555*****55555*555**55*      *555**;5555555000555*555**5550000000000000p000ppppp0005<505.      .....*500pppfppppp0000055555000005555500550pffppffpp000000*      .*****5555555**5555555000000000005555555500pffccccffffp0pff0.    5pffcbbccccccccccfffppp0005500000000000000ppppp00000pppppfcfp.  .  5ppfffffpffcccccffpp00000000p0pfpfffffffcffppppffffccfcfffc0.... .50pp0pfcbcffccbbcccfffffpfffccccffffffffcccccccccccfffp0ppp3.     ****50ppffccbccffcfpppp00000p00000005000pppfccffkfffp50pp00.     .*5****555555555000000000000000000555555500pppfffcfffp0000fp.   .*0pfffccfffpppppfffpppp000005555555555550000551**  *0p0550ff0*.     0pppp0pp000upfppp055*5*********550000000055<**5500p050p0505.      *5***555050000005555***+.*500555555555555555555555<***....        ",
"....***+..  ...........%********...*******355****.       ...  ..*5550000053***15..**55055555555900000rpppp055***555.      ...  .*5550p000000505555**555505509555555500ppppfpp0000005*         ...**555555555555555555550000055555555500ppffffp00p050pp0   . *0pppfffppfppppffppp00000055050555550000000000055550000pppp00.  .   .***55550pfffffffp00000000000ppppppppppffp0000pppffffffppx5*..   .**5..50pffcbMbcccfppppppp0pfcbcfpppppppffffffccccffpp0500p*      ....*555ppfffffpppppp0000000000000000000ppppfffpfpppp50p055.      ...*****5555555555555555555555550805555550500pffffpp5*55500.    .50000ppppp00000ppp00000555555555555**050555*...5**50p05*5005.        .....+.*0upppp0055555**********555500055**..*55005*005*05.      .*...***55599505555**......*5005*******11<1155553**...            ",
"    ....  ...............******...........*3*...*.           ..%*****50055*.****...*555555..****555500000055***.*5*...     .   .****5551*<55555555555***5555555****5555550p055550055.         ..**5500000000000005550000000000000055555500pp00550555pp5   . .*3**5*5555500005005555500000000000000pppp0000005550000pp05*5   *    ..**55000000ppp0055500pp00050pppp00000pp005500ppppp0pp00p*      . .*555000ppppfffpp000000050pcbcf0555500pppffffffpppp05**00*         .***.500ppp00050000000000005000ppp0550000000ppp00050p0**         ***5555000000050555555509055850000000000**5pfffp055*00555  .  ..*****5055511*555000055555555555555*155555*****555550055*55*          ...*555*55555**#*5555555***..***5555553*...**55*..*5* **. ..         ..****550555*......  .5pp0. ......%..*****%.                ",
"    ......%.......................******.%**. .*.             ......*********355.*****155*..********55555555****5;.....        .....**35*555555555555505555535555555555550000550555*.          ..****5555505055000000000555000000000055550000050005555.       .....*55000000000055550000000050000pp0050000000000000ppp0**   .      ..**55500000000pp050pp05555000p0pppppp00000000000000000*          %**55550ppp00050ppp555550pffp0550000000pppfp0000uu0005*.           ..**3550000000000p0p050p000p050000000000000ppppp00005.          .*****55000000000pp5559550000000050000pp550p00005050005.  .    ...***555*15555555555555555****<5**1555****55555***155555*.             .****1555******5005;*505*****5555553********....****.  ..            .***55*..****..+  .*5***%.............   ....            ",
"      ......... ..............    ..*#...**%  ...                   .....********51***155************155****51.**.                 ..***555555555555*5555555+*555555*5***555550555**                 ..*555555555000000055550055000555055500005005555*         .****550000055000555555055555550550p05550p000000050000p0*            ..****55555500p00550p05*5500p000000055555555555000005*    ..       .....*50000555pp05555500ppp0550000550055005*5000p005..             ....*350ppp05550*0050p05pf55505005555550055555555**            ... ..**5500000000*5555550050005555000p**505155*55555*         ..#.*5**1<55555*5555555**5****5551*505**.*5555*****15555*                . ..**********555***55**5***********......***..*5*                  .*.*5. ..*<+ ..  .*.  **......... ...   .+*....         ",
"                     ....   ..           .*.  .                          .  . ..*******5**..*****.....*#...*** ..                     ...**5055*****........ .%*****......*******#..                   .5555*****55555555************155*55555**5*****         .****.******..*55*******..**5555*.*5****5555**********5*             ...**.....***55******155*555555****************55***.     ...             .505***55***555555555**555*****.*55****555555.....     ..        .*50pp5*..* **.55**50***5***********..........                    .**555*+..+*55******51******55*..*5..*******5.         ......**.*********555**..**************..***************.    .                ....***.. ........****............. .*5**..*.                  ....*.   ..      ...   ..         ..............        ",
"                       .     .                ..                                                               ...                          .                 ....                      ....    ..                ..                  ..            .     ...... ..                       .%**+.       ...           ..                               .    .                      ........                     .                  .            ...  ......              o....        ..  . *. .   ..   . .....o ...    ...  o                ..                                .  ..  .***...+.        .....                                                             ..  ..    .         .                   .....                  .            ..                ..         .                          ",
"**.....             ..***...*55*****<**. ..***555*5****5555****555**...*+.           .*;***5555555555555*555555505555050000005550005555**%%.*.    .     *5555555555555115***5555555555550000005000055555**...**....*.   +555555555555555555555555=555055580005551<5555555=***.......**%   .%*15555**5500005555555555550000000005500000055055****.   .**.   ..*15055555500000000005555550000000000000000000055**5*.......*.   .%*5555555555555500005590055555=5500555=**50pp0055***335....*.**   .*505555555555555555550000000555500050055555500085***+.****.      .**55555555555*.***5500055500555500050055555555555***.......       ...*5**155=5555=1=5555****55**55555555550555***....***....       .55555***5555555*****.******15***55555555555*5*5*......   ...    ...***********.*55***...........***%..",
"0055****..          0000000pppppppppp000000ppppp0pfdppfffffpppppfffp000005*..........5pffffffffffffffffppppppppffffffcffccccffffcccffffffppp05****..  .5afccflffcccfcffffffcccccccccffffcccccccccccccfffcfppppp0**55*. .0fccccccccccccbbccccccccczfcbcccccccbcccccbbbccccfffffppp055**...*50pffcccccbbbbbbbbbbbbbbbcccccbbbbbbccbbMMMnbbcccffffffp05555*   .5fbbbbbccccbbbbbbbbbbbbbcccccbcbbbccbbbbbbbbbbbccfpcfp0p05**5*. .5ufcbbbbbcbbbbbcbbbcffffffcccccccbbMbbbbbccccccccczfcccc05**5.** *30fcccccccccccccccccfccccccbbccczcbbbccbbbbbbcccccfffffp005*5*.  .50szbcccbbccbccf000fbbcccccccbccccbcccccccccccccczffpppp055*...  .*500pfccfccccccccffffzzzgffffffffccccfppffxcfffffpp0000005....   .%0cccfffffcfppppppppppffffpppppp0ppffffffffffppp00550005*.  .    ..50ppp000000000pffp005500000000ppppu99",
"pp005555**..        pfpppfffccffffffffffcffffffpffcccccccccfffffcccffffpp0055*....  .5pcbbbbccccccbbcccffpffffccccccbbbbbbbbbbcbbbbbccccccfpp085**.. .*pbMMMMMbbMMmbbbbbbbbbMMMMMMMMbbbbMMMMMbbbbbbnMbbbMbcccffp5555*. .0cMNMMMMMMMMMMNMMMMNNNMMMMMMNMMmMMMNNNNNNNVNNMMMbbbbbbccfp05*...*5pfbbMNNMMMNNNNMMNMMNNNNNNNMMMNNCNNNNNMMNCCCNNNMMMbbnMMbcfp055*.  .0bNNNNMMMMMNNNMMMMMMNCCNMMMMMMNNNNMMMMMNNNNNNNNNNMbMbcfff05555.  5fbNNVCNNMMNNNNNVNMbccccccMMMMNNNNNCNNNNNNNNMMNNNMMbbbbbp0550.*..50fbMMMMMMMMNMMMMMMMMMMMMNMMNMMMMmMNNNMMMMNNNNNMMNNnbbbbcp05505. .*0fbNMNNNNNNNNMNmfpfMCNMMMMMMMNMMMMMMMbnMMNNNMMMbbbcccccfp055*... *0pfccbMMbMMMnbMMbbbbbbbbbbbbbbbbbbbbbbccbbbbbbbnMMbcffp005**5*.  .5pcccccccbbbccccccccccbccccfpfccfccbccccccbccccffpppffp05*        .5pfccfffpffffffcfp055500ppppppdpsspuu",
"pp000005****.       0p000ppffffffffcffffcfppppppffccccccfffffpppfccccccfpp000*.      *pcccbcccccccccccfpppppppcccccbbbbbbcccccccbbbbcccbcfp050055*.  .*fbbbbMMmbbbbcccccbbbbbbbbbbbbbbbbbMMMnbcccbnMMMMMbbczfffpp0<+   .5fMNNNNNNNNNMMMMMMMNNNMNNNMNNNMMMNNNNNNNNNNNNNMMnbbbMbcckfp05.o .5fbMMNNNMMNNNMnbnMMMMMNNNNNNMMNCCNNNNNMMMNNNMMMMNNNMMMnbcffp05*.  *ucMmMbbmMNNNNNNNNNNNNVNMbbbbbMNNCNNMMMMMMNMMNNCCCNMMbcccfp05**.  *pbMNCCNMbbMNNNNNMbcfccfkcNNNNNNNNNCNNMMMMMNNCNNNNNMbcffppppf5<. *5cNNMMNNMMNNMMMMMMMMMMMNNNNMNMMbbbMMMMMMbbMNNNNNVCMbbcffppp00*.  *0zMNMMMMMMMMMMNMcpdMCNMMbbbMMMMMMNNNMnbMMMNMMMbbccccccfffp005**. *0fcccbMMbMMbccbbccccbbbbbnMMbbbbbbbbbbcbbbbbbbMMNNMbcfp005555*   .50fffffffccbbbbbbbbbbccffffpppfccbbbcccccbbccccccffffpp005.        *pffcccffffffffp05*.#*=50ppppppppp099",
"pppppp085*05*       555*35500pppfffccczff0555050pfcbcccfffffp000pfcccccfppppp5.      *0ffcbccffffcccbffpppppppccccccbbcfffppppfffcMMbbbbcfp050pp05*..+*pccffcbbcfffpppppffccccccccccccccccbcccffgccnMMMMbbcffffccf0.  .*5fbMMMMMMMMMMnbbbbmMMMMNNNMNNNNNNMMbbcbbbbbbMMMbbbbnMbcbbbcfp5,..5pcbbbbbbmMMbccfcbbbbMNNNNNNMMNNNMMMMMMMMMMbbbMNNNNMMMbcfpcbcp5..30pfffcccbMNCVNNNNNNNNNMbcffffccMNCCNMbbbMMbbbbMNNVNMMbbbbbcfp55.  *pcbMNCNbccbMNMMNbcffcccccNNNNNNNMMNbcffpfcbNVMMNNNMMbccfffcb05. *5cNNbMNMMMbbccccccccbbbbbbbbbbcccccbccccfffcbMMNNVNMcfpfccbb9.   .5pcnbbbMMMMMbbcbc00cbbbbccbbbcccbMNMbccccbbbMbbcffccbbffcccfp05* *0cccccbbbMbcfffffffccbbmMMMmbbbMMbbccccbcccgccccfccccfpffppp5*   .*5ppppppfccbbbbbbbcccccp0ppp0pccccccfffffffppfcccfffp000005.       *0ppfcfp000pppp005****=50ppppppp005%%",
"ppppfpp055pp5*     .*5555*55pfffffccccccbp5555550pfccff00000p0000pccccbcffccc0*      *0pppffp000pppfcfp000ppppcbcccbbccfppp00ppffccccbbbbcp00psp0*.  o*fccppcbccffdpppppffcffffffspfffpfpffffppspfcbMMMMNMbfpppfccp*  *90pccccccccccccfffzcbbbMbbbbMMMMMMmccffcbMMbbbcccfffccbbMMMmcp0*+*5pffffccbbbbcfppfccbbnMNNNNNMMNNMbbbbMMMMnbcccMNNMNVCNNMbbbbbf*  *55fccfffcbbMMNNNNNNNNMNNMcffffcbMNNMbcffcbcfffcnNNNMNNCNMMbc0***  *0pfbMNMcffcbbbbbfppfccckcNNMMNMbbbbcffgfcccbbMMNNCNMbcfccccc5*. 0*fnbfcbbcczfffpfffffccccccccffccfcccfffffffcbMMMMMNMbzffcccc0*. .*0pcbcccbbbccccfccp5pffcnbnMMMbbbMMMbcfffcbMMbcfp00pfcccbbbcf0*   *0fcfppfgbbcf00pppppfccbbMmbbccbbbcffpfcccfpp0pfccbMbbcfffcbf0*. ...*000ppppfccccccccccfccp0000*50fcffpp00ppp0550pfflcccfpfffp*   ..  5pfpppp5***50000055**5550ppppppu00533",
"000pp005**005.      *555***500ppppppppppp0555555500pp000550005500ppffffcfffffp5 .     0000pp00000ppppp000pppppfbbMbcfffppppppppppfffccbbccfpttst8.  .o@5ssttsllsffppppppfffffffffpsffffffffppafffffccbbbbbcfpppfff0. ..*50pfffffffffffffffzzccccffgcccccbcczffffccccllkksssglfglmmmc0,@o.;pxccfffcccccffffczccbMMMMbbccbbccccccccccczgccbbbMVNncccbccbp*. .*3pfffffzcccbMMbbbbbbbbbbccfffccbbbbccgzccccfffcbbMbNVNNMbccp**.  *0fcfcbbcffcccccccfffcccccbMNNNbcfcccgfccccccccMNCCMbcccbccff... 5*0fcfzccccgfffffffffgfggcccffpzffffffgcccccfffcnMbccffpfffff0*. .5*0fgfzgccccccfpcffp05pffccccccfzccccffsffcccfffpppfffffccbbb05*.  0ffppppffffpppppppfppfcMMbcfffffffppppffdppppppfcbbbcfdfffcf0.  ...*0000000pffcfffffppppp000005500ppp000000005500ppsffcfpfpp05. .    *p0550555*555555555555550pfffp05*****",
"*500055*..55*       .*5****5555000555500555555555555000055005555000ppp0cfppppp5       0050000000000000pppppp00pcMMbfpppppppppppppppffffffpppsttt,o ooo@,tst0tsttfffpfpppppfffffffffffffffffppffffffffcccfffffppffp9. ...%0pfffffffffffcccffffffffffffflcccccffpfflllkkskkkssssslnnmn0;@o *pcbcffffcccccccccfffcbbbbccfcccfffccccffcccfffzzcbMbcfffcfcc5..  **ufffccccccbbbcffffcccccccccccccccccccccccccffffcbbMMMbbcccp**.  *5fcpccccccccccccccccccccccbMMMbfffcccccccccccfcbMMcfffcccffp ...*+5pfgffccccccffffffffffffgzfppfffzczfffccccfffccccgfffffffff5.  .5.0fffffffffffffffff0*0ppffffccfzccffffpppfffffffffffffpfccbM055.  5ffppppfppppppppppp00pfbbcp0pppppppppppppppppppppfcffp00ppff5.     .0000000ppffpppp00000000000005500000000000555550pppffpp0555.      *0555555555555555555555550ppp05**.%**",
".*5555**..*5*       .*****155555555555555555555555550000550055550000005pp00000*       0000000000000000pppppp00pfcbcfpppppppppppppppppppppppptttt,o o  o@tstttsttppppffppppfffffffffffffffffffffffpppffccfffffffffp5  ....0sfffffffffffccffffffffffffffffffccffpffglgskkkkkskslllclmn0;@o *pcccffffcccccccccfffcccccfffcfcfffccccffcccfffczcccccccfpfff5.   ..0fffcccccccccfffffffcccccccccccccccccccccccffffccbcccccfcxp.*.  *5fcpcccccccccccccccccccccfcbbbcfppfccccccccccppcccfpppfccffp .. *%5pccffcckcccfffffffffffffffffcccccccffffcccccfppscczfffffff5   .*.5ffffffffffffffffc0*5ppffffccccbcffffpppffffffffffffffffcbM05*   5ffppppfpppppppppp0550ppfp00pppppppppppppppppppp0ppp005550pp5      .00000000pp0000000000000000005500000000005555555000pp0005*5.      *055555555555555555555555550051******",
"..*55**...*1*       .*<***1555*1555****5555555555555000050005555555555*0005555*       000p000000000000ppppp0000pfffp000ppppppppppppppppppppptttt,o o   @tsstttttppfffpfffffffffffffffffffffffffffpffpffffffffffff0*  .  .0fxffffffffffcccfffffffcgffffffffffffffflassskkkkskklllllcc,@o  *0fccffffcccccccccffffcccffpfcfccffcfccffccccffzczpppcccfpfcf*    ..0fffccccccfcffpfffgcccccccccccccccccccccccffffffccfppfzfccp..   .*fcfcccccccccccccccccccccffccccffffccccccccccfffcccfffcczffp .. %.5pzcffccffcccffffffffffffffkcccffffffccfpfcbbfpfcccfcfffppp*   .* 5fcffffffffffffpfcf550ppppfffffffffffppffffffffffffffffffcb05.   5pfppppfpppppppppppp0ppppppppppppppppppppppppppp0ppppp000000*      .00000000p05555000ppp000000005500000000005555;<555500590555       .05555555555555555555555*************",
"..*55<*****1*       .*****5555155555*155555555555555550500000555555555*0055050*       000p000000000000ppppp00000ppppppppppppppppppffppppsssst0tt,o o   @tkktttttppffffffffffffffffffppfppsffffffffffffppfffffffff0%     .8fcffffffffffgccfffffffccffffffpfffffffffasssskkksskllsktks@o   *0fccffffcccccccccgccccccffpfcfccffffccffccccffzcgfpfccbcdfcf*..  ..0fffccccccccccffccccccccccccccccccccccccccfffffffcfffcccbcp*.   .*pcfccccccccccccccccccccccccccccccccccccccccccccccbbbbbcfffp .. . *0fczfffffffcffffffffffffffccppfccccfppppppfcffccccfcfffpp0.    . 5ccffffffffffffpfcf550fffffcffffffpfpppppffffffffffffffpffc*.    *ppppppfpppppppppfcfppppppppppppppppppppppppppppfppppfffpp00*      .00000000p0000000pppp00000000550000000000008555555500390050.      .5155555555555555555555555*.***555***",
"..**51<155*1.       .*15**555555555555555555555555005555005500005555555p0000005.      000p00000000000000ppp0p0p0000pppppppppppppppppppppppppt0t0,o     @0sstttttppfffpfffffffffffffppffffffffffffffffffffffffffff0.      9fcffffffffffffcfffffffcccfffffffffffffffffssskkksskllsststo    *0fccfffccccccccccccccccfffffccccccfffffffccccffffffccccffccf* .. ..0fffcccccccffffccccccccccccccccccccccccccccffffffffffcbbbcp.    ..pcfcccccccccccccccccccccccgcccbccccccccccccccffffccccccfffp .  . *pzczffxffcccffffffffffffdfxccfffpp0000pppppffffpcccccffppp.    . 5ccffffffffffcfpfcc0*0fffffffzccfppppppppfffffffffffffdfffg.     *pppfppfpppppppppfcfp000pp0ppppppppppppppppppppppp00ppppp000*      .50000000p0000000pppp00000000550000000000000008555500580000.      .5*555555555555555555555551***<55****",
"..*****155*1.       .*55**555555555555555555555555005555000500005555555p000p005.      000p00000000000000ppp0p0p0000ppppppppppppppp0pppppptrtt0t0,o     o5ssttsttpfffppppppffffffffffffffffffffffffffffffpfffffffp0*   .  5fcffffffffffffcfffffffcccffffffffffffffffssskkkssskllkltsto    *0fcfffcccccccccccccccffcffffckccgcffffffccccfffffccbcfffcccf*..  ..0fffccccccfffffffkccccccccccccccccccccccccffffffffcgccbcccp.      0cfbcccccccccccccccccccccgfffcccccccccccccccccfpffcccccfffp..    *pcczffccfccfffffffpfffffffffcfp51**50ppffpppffp0fccccfffpp*    . 5fcffffffffffcfffzbp*5ffffffffzffppppppppffffffffffffffffff      *0ppffpfpppppppppfcf0000000pppppppppppppppppppppp0000ppp0000*      .5000000000000000050000000000550000000000000000855500580050.       **555555555555555555555555**********",
".********5***       .*55**5551*55555*5555555555555005500005500000050005p050p005.      055000000000000000ppppppp0000ppppppppppppppppppfffppttt0tt,o     o5ttttsttfppfpffpppffffffffffffffffpfpppppfffffffppffffpp00*   .  5ffffffffffffffffffffffffffffffffffffzfcffskkkkkksssklklsls+oo  *0fffffcccccccccccccffffffcccfffffffffcccccccfcfffcbbcfpfccck;    . 0fffccccccfffffffffffcccccccccccccccccccffffffcccccccccfff0       0ccbccccccccccccccccccccffffffffffccccccccccccffffcccfcffcf..    *pccfffcccccfffffffffccccffffp005**500pfffp50pffffffffffffp*    . 5ffffffffffffccfffcf**pccccffffffsppsfppffpffffffffffffffff... . .0ppffpfpppppppppfffp00ppppppppppppppppppppppppppp000ppp0000*      .500ppp0000000005555500000000550000000005580000855500589555.   .  .5*555555555555555555555555******%***",
"*********555*       .*555*555**55555*555555555555500550000555550000000500500005.      5550000000000000ppppp0pppp0000ppppppppppppppffffffpppstttt8o     o,tt5tsspffpfppppppffffffffffffffppppp00ppffffffpppffffp0005   .. 5pfffffffffffckffffffffffffffcccfffkccccffssssfffsssssslscf*oo .*0fffffcccccccccccffffffffcccffffffxfccccccccfcfffcbccfpfffcc5..  ..0ffccccccccccffffffffcccccccccccccccccccffffcccccccccccfffp. ...  0ccbccccccccccccccccccccffffffffffccccccccccbbcccccccccfccf..    *0fcpdfccfccfffffffffcccccfp0..5pfffp05ppp05*5pfc00ppppppp05    . 5fffffffffffffccfpcf*.0ccccffcccfffffffffffffffffffffffpfff... . .50pffpfpppppppppffffffpppffppppppppppppppppppppffpppppppp005       500ppp0000000005555500000000550000000005559000955800588;*5.   .   **55555555555555555555555****1******",
"155******5551.       *5555555*55555555555555555555555555550055555000000p000p005.      5550000000000000p0pppp0ppp000000ppppppppppppppppppppfsstsp5.     o,005tsfsppppffffppffffffffffffppp0000000ppffffffpfffffp0558   .. 5pfffffffffffffffffffffffffffcccffffccccffsfffffffffsptsslg=.   +9pffffcccccccccccccffffcccccffzfffffccccfffffcfcccccccffpfcc0*.  .*pfffcccccccccccccffffcccccccccccccccccccfffcccccccbccccfccf5....  0ccbcccccccccccccccccccccccccfffccccccccccccccccffffffcfccf*..   .0pppppfccccfffffffppfffffp0*pppppppppp00000*  *055500000555.   . 5sffffffffffffccf0cf* * .***5ppppffffffffffffffffffffcfpppf*.. . .50pffpppppppppppp0pfpp000pfppppppppppppppppppppppppp00000pp5.      500ppp0000p000000000000000000000000000055800rrr988rr898;%5.   .   **5555555555555555555551**555555****",
"*******3*555*.      .*555*5555*5555551**555*****5555555500000555000000005500p05.  .   50p00000000000pppp00000ppp0000000pppppppppppppppppppppstpp5.     o,5050pppffffffppfpppppppppppppp000p0p0500pppffffffccp005005   ...*0pdppppppp0ppppffccfffffffffcccfppppffffffsfllccllfsssssgs5o  ..5fccffbbcccccfffffcccfccfffffffffffccccccccccccccccccccccfff0.  .*.0fcccbcccfcccffccccffffffffffcfffffcccccbccfccbbbcbbcfffcbf5...  .pbbfcccccffcccccccccccccffcccccfcccccccccccccccccfcccccfcbf....   50p00pdffccccfffffcffffp050ppp00000ppp000ppp0000f05.*5pp055     .9ffpuppppfpp00ppp0pp00p50pp0**5pfpfffppffffffffffffpfcfp0pf5*    *0ppfffpffffffppppfffffppppp0ppppppppppppffffffppppppppppppp0.      500upp000ppp00ppp05500000555550595500559000000000988555500*       550055555555551**5555555*<55555*****",
"..********5*..       .****555535555551**5**....*5555555550005550550005555550000*  .   50p00000000000pppp0000000000p0p000pppppppppppppppfppppt5tt5.     o*55550tppffffp0pppppppppp00005555500005500ppppffpfffp555005.  ...*0pu0000ppp00ppppffffppppppppfffp000000ppfppsllccclfssspfss5o o..*pccfpccccccccfffffffffffpppppffffffffffffffffffffffffcccfccp*  .. 9ffccccfffcbcczcccfppfpp00pppppfffffccccccfpfccbcfcbbgpfccp5..   .pcbpcccccffffccccccffccfffffcccccccccccccccccffccccccffffbc. ..  .50pp0pfcfcccffffffcccfp0550f00555550000000fcfffffp0***00000     .5pf0000pdfpp0550000pppp0ppp05*555500p050pppffffffppppff00pf0.    .5ppfffpffffppppppppppppp00550000p0000000pppppppppp00000pppf0.      5550000000p000ppp5**11********599555555900988889083385330r3       *0055555555555****35555****555;*.***",
".....++***<*..       ..*****55*355555<****......****535555555555555555*50055555*  .   *5050000000000pp00000555*550pppp00p0pppppppppppppfppp0550t5.      .@**;580ppfpp00000pppp00055555*****55550000pppfpppppp555905. ....*8055550pppp00000pp00000000000000555555500tpsflcccflstp0tfs5.    .0ffppfffffccccccfppppppppp00ppppppppppppppppppppppppppfffccf5     50ppffffppcccccccfp50p00000000pppppffffffpp0pfffp0fcccfpffp0. .  .0ffpffcccccfffcfffffffpppppffcccffffffccccccfcccccccfff0pfc*  .  .*00pppfcffffffppppfffp0550pp00505555550550pfffff0ffp5..*500.     *9055500pppp0555555000005555005*  .*55**500ppppppppppfp00pf5.    .0ppfcffdppfppfffp0000000055*555555555555000055500555555000p5.  .   **5500000005500p05******.....*5555555555533;;;3353;385;*59*       *53******55555**********#***33**..**",
"  ........**.         ....*******555553*........*********3*5555555553**5005***5*      .**.***550ppppp00005555* .50pspu00000pppppppppppppppp0*=0p5.       ....*50pppp0055005555555550005555555500000ppddppppp000005*       **...**50005*55555***5555055000055***5*550ppfffccfcp0u00pp0.    .0ffffccccffffffffppppp00000000000ppp0000000000ppppppppppppfp*     .*5000p0ppp00ppfffp00000550000ppppsfpfffpp000ppp000fccfppppp.     *00500pffcbcccfffppppp00ppppfcccffffffffcccccccbbbccffp55pf*       ..+**55ppffdpppp00pp0*.*005000000555500000pppp05pfp5   *55.      ..  .****5555555555900f05*50pp5*..*55**50puupppppppp005500*   ..*0ppfccpppppppfffp0000000005***555****555555551*55****55550p5       ..***5555555550005**<*********555555555;;;%%%%%;;%%333%O%;+       ......****5555******%......%***.....",
"  ...........             ......********.#.*******.********************5005*..*.          ..***80ppp00000555**.**00pp055**1555550000550055,*=50t5            .*50000000000555555000005555*****55555550005055555555*        .  ..**55555000555550pppppppppp005555500555500pppp00p00pp5  o...5005500000055055000000550555555800000000p0pp0000000000uu0005.      ..*<55000pppp000000ppp0000ppp0000p00ppp0055500055500p00005*      .***  .*50pppfffffppppp005550pppp000000ppppffpfffffpu0p000p*        ...**500pppppppp000*.*50055500855***00050000050pp03....**          ..****55000000000005555***555...*5*.*5005000pppp0500555.      .**555****5555555555500005555555555550505555515555555555550*          ..********550555******....***********%%OOO++%%%%%3;O.O%.           ...****555***%%.....  ..%**+....",
"  ......                     . ....*%%%*..%******...********.**..#.#.**;5*****.           ......***10058555*****1550955****155550000055055**5500*            ..****55500000000055550p00555555555555000000000000055*         ....****550pppp000005555555500p00000000055000pppp00p0005+   .  ......*555050000pp000000000pp0pppppp00p0ppppp00000ruuppppp05.        ...***50ppp000pppppppppppppppppppppppppp000ppp0pppp0pp0*         ..***550ppfffffppppp0000550pffp000000pppffpppppp000000003         ..*55955500000pp005555500000p0p00055555000p0pppp055505*..           .*****500000000005.5ppr5*5005*.*55***55555000005500055.          .*.******55555500000000000555555500055555*55555555555*5.             ....*****5555*********.**********%%O%%%%%++%%O%O..O.              .....*****%%......   ..+%.....",
" .......                          .........%**%..............***....%.**...*5*                     .555;1*******1**********555550000555005*5555,.             ..   ..*5555000055555500055555550000000000055550005*.         .........*0000000000555555555000555050500000000pp950p85.          .**5000000000p00r0000000pp0pppppp000000000000000uppppp05*...         ..****55000rpfp0000000000p0ppp000ppppppp0pppfsr00pp0*           .....*5500ppp000000000000pppp0000000pppppppp0000000005.           ...*..**55550005*500550p00p0p00005**55500000005555005*              . ..*55555555555.5upp055500*..555******555555**555**           *****<5555555555000000555555555555555555***51*****5**.*.                  .********111***************%%%OO%%%%O+%%.....O.                     .**.......    ....... .",
"....                                      ......  ....................%.. ..*.                      +%****...****.......******555*********.*5**.                     .**..********************555555555***.******..                   .*******.*5555555551******5=555555**555**505..         .*5555555555*;;=**55*****555555555555555555555555555555*.   .           ..  .*31==555*555555**555555*****555555*5505**3005.                  ..*555555535*533355555*55555555555555555555155*                   ..***555***55**55553===5555**5;5*==***555**55=*                  ..*************55*****5*...*=*...+******+..****.    .     .*****5555*1****************....***%*****...***...+%*. .                   .......******.***.............OO%O+..OOO  .....                      .........       ..    ",
"                                            ..    ..  ..    .......... ...  ..                         .......*..                           . .    .                 ...        ...           ..                                                          ......*+*...       ..1*..   ..****.***..**..                         ...****...      .         .           ..  .%%.     .........                          ..      ..   .      ..............                       ........+.. ... .***..         ..........*.....          .****...  ..*%. .... ..  ..  ..      ... ..........               ..  .........  .....           .   ...                       ...     . . ........... .   .               ...   ...                   .....OO...XX  ..X..                                            ",
"                    .    .                                  ....    .   ...   ...       .*      ...         ...         ...........  ...*...     .**  ...........    ...                   ...**+++......%.........    ...+. .......+.    .*#...  ..          .....*=**........*. ....*. .......  ......   ...........    ......    .      ............**.. .**..   ......*..  .*          ......... ..***....*........**.   ...  .*.****.           . .....     .*+.......  ..****...   .5*..*..**..  .......       .*. ... ..    ..**  ....... ....  ..  .**  *.  ...     ...      ....  ....     ...  **........     .*..*....  ...     .....     .......          ..        ............. .   .    ...        ...   .+.                      X.X.X.    X..  ...         ......                           ",
"5555550000005555000p055550p00500pp005***.*..         *0pppppppppppppppu000000pff0ppppp0pffppppppfpppp05=5005*...   ...+5pppppdpppffffppfffcfpppffgcgfpfffxccffffffffffpp0050005* ...  .*5pffffcccccgfgfffcffffzzcfffffffffcgffffcccccgfpppppp0********. ***5pffffffcccczfffcccbbcccbbbbcfcccccccfcccccccccfffppppp05***.  .*0fcffxccbbccfcccccccccbbcccbcccccccccccccccccbbccfpp00055*5**5   *fbfffcbcccbbccfffccfffffcbbcccccccccccccccbbcccffp0000055***5.  .*pccccccccccccccccccccckfccbbbcbcccccccccbgzccccffppp00p0**5*....+5fccccffffffzgffffffffffppfcccccfffffgffffffxcxfppppp055******. ...50pffffzfcffffffffffcccccccccfffffffffffffffffffp0000p00*. .     *0dfpppffffccfppffffffffffp00ppppp0pppp00pffdfffpp000955***..     .0ppppppppddspupu09989900up00000pppppp0000000555555551*..         .300",
"puurppffpppp0000pfffffpppfcffpffcccfpp00505*.  .    *5fccccccbbbbbbbccfspppppfbbgcbbbbbbbbccccbbbbbbbcgfffp05***.....*5pbbbbbbbbbbbbbbbbbbMbccbMMMMnbbbbMMMMMbbbbbnnMMbbcccfffp03*5* ..5pbNMMMMMMMMMMNNMMMMMMMmmnbbnMMMbnMMMMMMMMNNNNMMMMbnMncp00505*** *50fbMMMMMNNNNMMMMMNNNNNMMNNNNNNNNNNNNNNNNNNNNNNNNNMMbbccfp0550*  *5pMNMMMNNVCNNNNMNNNNNNNNNNNNNNNNNNNNNMMNNNNNMMNNNNMbcffffp005*0.  5bNMMMNCNNNCCVNMMMMbbccbbMNNNNNNNNNNNMMNNNNNNNNNNMMbcccfpp9559.  *0bMNNNNNNNNNNNNNMMMMNNNNNNNNNNNNNNNNNNNNNNMMNNNNMMbbbffcf555*. ..5pnNNNNMMMMMMMMMMMMMMMMMMMMMMNNNMMbMMMNMMMMMMMNNMbbbbbcf05555**. .5pfcnMMnMMMNMMMbbMMMNnmnbMMMMbMMMMMmmmMMMbbbbMNNMbcccfffp05*.*    .5kbbbbbbbbbbbbccbbbbbbcbncfffcbbbbcccccccbbbccccccfdpp0055***.    5fbcbbbbcbbbcccccfpp000ppfffpffcffccffcffffxfpppppppp05*.         *0pp",
"ppurpppppp0005500pffcfpppffffppffccffppp505**.... ..*0fccfffccccbbbbccdp000upfcbccccbMMbcfffffccbbbbbbbbcfp0p0;5*%....0fMbbbbbbbbbbccccccbbbbbbbMMnbbbbbbbbbbbccbbnMMMMbbcbcfp0pp05. ..5fmNMMMbMMMNNNNNNMMMMMMmmbbnnMMMMMMMMNMMMMNNMMMMMNMNNNbfpppp5*** *0fcMNNNNNNNNNMMMMMNNNMMMMMMMMmMNNNNNNNNNNNNNNNNNNCNMMbccpp00p05 .*0fMNbcbmMNNNNNNNNNNNNNMMMbbMMMMNNNCNMbMNCCNMbbMNNNNMMbccccp0*#9..*5bNNNNNNNNNNCVVNNMbccfffcbMNNCCCNNNNNbMNNNMMMMNNNNNMbbccffp000* .5pMNNNNNNNNMMMMMMMMMMMMMMMMMMMMMMMMNNNMMMMNMMNNNNNMMbbffbc005*  .*5fMNNNNNNMMMNMMMMMNNNNNNNNNMMMNNMMMbnNNNNNNNNNNNMmbbMbbcf0p05**   5bbMMMMmnMMMMMMbbMMMMbbbbbbbbbbNNMMMMMMMMMbbbMCCNbcbbccfp05555.  ..0cbbccccccccccccbbbbbccccfpppcbbbbMbckcbbbcfxfccccffdp0055***.  ..0xbccccccccccccccp0855500pfffcckffffpfcfffffxfffpppp005*....      50pp",
"ppppppfppp55555500ppfppppffpp00pffcfffff*5*.%*...   *5fcccffpffxcccccfr05000ppfcbcfcbMMbfpppppfgcbMbfcbbf055009093.. .0cbbbcbbbbbcffffffffcccccbbcccgffzccccccfgcbbbMMMbbbcf050pxp*  ..=pbMMMMMMMMMnbbbbnnMMMNNNNNMMMMMMNNMnbbbmMNNNNMbbbbbbbbxcczf05*. .pcbbbMMNNNMMMbbbbbMMMNNNNNNMMMNNNNNNNNNNNNMMMMNNNCNMMmcfpdfbf05  *5pMbcfccbbMNNNNNNNCCCNMbcccbbbMNNNCNMcbMNNMcbMNNNNNNMMMbbbpp*.5 .*5cMMNNMMMMMMNNNNMMcffffffcMNNNCCNNNNMcbbbbbbbMNCNNNMbcfffdfpu0*..5pNNMMMMMMMbbbbbbbbbbnMnMMMbbbbbbbbbbbbbbbbMMNNNNNNMMcpfbbffp5* .*0fMNNNNNNNMMMMMMMMMMNNNNNNNMMMMMNMMMbMMMMNNCNMMMbbcbbbbbcfcfp5*  .5cccccbbbbMmbbbcbbbbmMMNMMnbbMMMMMMnmmMMMMbfcbNCNbbbbcffpppff0.. .%0fccfffffccbbbcbbbbbbccfp000pfcbbMNcfpfbbcpufffccccccf055*..      5dccfccffdsdfccffu555;350pffkccffppp0000000ppfcffppp005****.      5ppp",
"fpppppppp05****5500pp000000055500pfffffcccfu05..     *0fffpp500upppppp09550uppfcbcfffccf00pp000pfccbcbMbcp500pup0*.  .0fccfffffffppp0000pppfffffffpppppppsppppppgccbbbbbbcfffffbMf*  ..*0cbccbbbbbccffpfcccbmMNNNNMbbbbMNMMcffccbMMMMbccfppfzccbMbbp5*. .0ccffccbbbcccccffcccMVCCCCNMMMMbbbbbbbbbbbbbbbMMMNNNCNMbbbNCc0*  .50ccffffgcbMMNCBNNNCCNMbccgccbbMMNNMbgcbbbcfbMMNNNNNNNNNbcpp5*5  .*dbbbbcbbcccbmMMbcxfcccfcbMNNNNMMbbbcffzcccccbMCMMMMbcfppsbfp0*..*0bbbbbbbbcgffffccccccbcbcccccffffccccgffgcbbMMMNNMMMcpfccbbf0* .*5pbbbbbMMMbbbbbcccccbbMMMmmNMMMMNNMMbczcbbMNMbcccffffccccbMbf0*  .5ppppfgccccccgfffczcbMNNNNMbbmMbbbccccccbbcp0pzbMbbMMbcfffcbc5.   .*pspppfffcbbMMbbbbbbbccf00580fccccbf000pfp00dffccbbbbbcfp05*...   %0pppfppp090ppfpp09555550fkccccfp0005*.#***350fffppp055***5*      5555",
"p000000005*****55000055555551**500pppfffccppp5       *500005*55500000000550pppfcbccffp0000pp0000pffcbbbccfpppppp5.   .5pfsppppppp00000000pppffpppppp000ppppppp0ppffccbcccfpfccccbp* ...%0fcffffffffffffffffffcccccbcccbbbbbcffffccccccccfffffbbMNMMp5*. .0cfpppffffffffffffffcbMMMMbccccccccccccccccffccbMMNNNMbcccmNf5*  .50cffffffccbMMNNMMMMMMbcccccccbbbbbbccfcccfpfccbMMNNNNCNbcpp0*5   +fcccgfccfffcbbbcfccccccccMNNNMMcccccpccccfffcbMMMNMMcgfffbf05.  .5ccbcccccffppffffccccccccccffpfpfffcffffffccbbbbMbbbcffcfccp*. .*50fccfcbbccccffffffffccccccbbbbbbbbcffpffcbMbcffffpfffffcMNMf5.   5ffffffffffffffffffffcbMbbcfffcffffffffffcfpp00fcbMNMbcfppfbc*     *0ppffffffcccccbbccccffp00000pffffp005000000pppfcccbbbcffp0*....  .000000505550pp0000055550fccccfp05555555555*580pppp00551****      ****",
"555555551*****15555555555*******50000ppp005555       *500555*5550000000050000ppfbbbcp5550pppp0000ppfbcfppfpp00p0*     *0ppppppp000pppppppppppppppppppppppppppppp0ppffccffp0fffppp0* ....5dfpppfffffffffpppppffffpffffffccccffffffcccfccccffffcbMNNMf5*. .0cfppppffpfffffdfffffcccccfffffcccffcccccccffccbbbnbccfpfffcp5*  .*0ffffffffccbbnnbcccbccfcccccccccccccccfffffffffccbbbMNMbcfp5.5   *fcffffccfffccbbccfccccfccbMMMMbcgcccfccccffffcbbMMnbccfffcp5*   .*fcccccccffpfffcccccccfcccfffffpfcccccfffcffcccccccccffffcc0.. .*50fcfpfccccffffppppffccccccccffcccfffpppfcbbczfpffffffffcbNMf5.   5fxfffffpppffffffffffffcffp00pfffpppppppppfffp0pfbMbbcfp0ppfp*     *00pppppppppfffffffpppppp0000ppppp00000500pp000ppfffffppp05.   .  +000505555*50000555555550pffffp05*55550005555500p00055555**.      .*<*",
"****.*****11<*<5155515555****5**55550500**..5*       *500000550000000000500p000pbbcfp5500ppppp00000pfpp00ppp0005.     .5ppppppppppppppppppffffpppppppppffffffpfp00ppfffffppffpp005*.....5pfppffcfffffffppfpfffffcfpppffffffffffffcfffffffccffccbMMMp5*. .0cfffffffffcfffffffgfffffffffffccffffccccccffcccbcccfffffffx0*%  .*5fffcfffffkccccgffffffffccccffcccccbbbffffcfffffffffcccffp0* *.  *fccfgfbccccccbbcccccffffccbMMMbcgcccccccfffffcccccccgffffc0*.   .*scccccccffffcccccccccffccfccfffcccbccccccffffccfccccfffpcc0.. .**5fffpfffffffffpppfffcccccffffffffpppffffccccfffffcffpffcbMbf5%  .*dffffpppppffffffffffpfffppp00ppppppppppppfccfppfcbffpp000pp0.     *0pp00000ppppp0ppppp0000pppppppp0000pp0000pp0000000pp055555.      .00000005555000555*55555500ppp05**50059555555550005555555**.       *55",
".*...*****5555*1*****1555**1555555555555p0*508       .5000p000000000000000pp000pcfpp000000ppp000000pffpppppppp05.     .5ppppppfppppppppfpppfffppppppffpfffffffpp00ppfffppfcfffffp0;.   .5pfdfffcffffppppffffccccbfpppppfffffffffffffffpfffffppfccbbp*.. .0fffffkfffcccffffcccccffffcccffccffffccfccccccccccccccbbMbbb9..  .*5ffcckffzcfffffccccffffcccccfccccccbbbcfffbccccfffppppppp09. *.. .pfccccccccccccccccccfffffcccbbcggcccffffffffffcfffpsfffffc0*. ...*pxccccccccffcccccccfffffccccccccccbbcccccffffffffffffffpbb0.. ...5fccffffffffffffffcccccffffffffffpppffcccccccgffcccfpffccbcp5*. .*ppppp00pfffffffffffffffffffpppfpppppppfppffffppfcfp0000pp005      .0pp000000pppp00000000p0000pppp000ppppp00ppp0000055005550p0*  ..  .5000ppp0500005555*5550555500055**5005*..**55555555*5<5555.        .**",
"*****555555555********5555*550000555555505**05      .*5005555000005555p00ppp0000p05*50pp05000p0000000ppp000ppp55.     .50000ppffppppppppppppp00000pppfppppppppp00ppffffppffp0pffp*      *pffffppppffffffffffffppfppfffffffccccfffffp0pcfcffp0pccfcc0*.   5ffffffffffcfffffffccffpffzccfffffffffffccccccccccgccccccfpp*..  .*5fcfffcccfffffzcbbbbcccccffccccccffccccffccbcccccfcccf0***5. *    5pcbbffcccccfffffcccffffcckffcffffcffcccccfffp0fcffccccccbp**....*0fcccccccccfccccffffffffffcccccfcccfcfccccffcffffffcccfpcx5      *fccccffffccccccfcccccfffffcbbbccffffccffffffkfccbcfppffpfp5..   .fgcffppfccpppppppppppppppfffppffpppppfffcfp000ppffffppppp05#      .5ppffppppppppppppppppfp00000pp000p00000000pppp0000055550p0*      .5555000000000555**50p005555*55<*5000555155555**55****5505.       .***",
"55***555**55555555*****151**55000555555555*555.      #0055505555500000ppp0p0000005500p00550000000000ppppp000pp00.  .  .5pppppppppppppppppppppppppppppppppppppppppppppppppffppfffp5.     %pccfppppffffffcccccccfffffffffffffcccffffffffcccfffffcffcf*..+  0ffcfffffffccffffffffcccccgffffcfffffcccccffffcccfffffcccfgf5..    *fccccfffffffcccccccczfffcccccffffffcccccccccccpfccpp00pppp5   ...5fffffpfccffffffccccfffffffcbccccccffccffffffffcccccccccff0*  .  .pfccccfffccfcccfffffffffcccccccfffcffffcccccffppffffffffcp.      *pccfcffffffffccccccccffffffccccccccfccfffffffccfffffffppfp5.    .pfffpppffffffpppppppfppppfffffffffffpppfffp05555500pfffu555*      *0ppppppppppppppp00ppppppppppppp000000000000pppp005005550p0*      .5550000055555000000000055055555555555555*555555555555555*.       .***",
"55*.*551*.*55555555****55555550055555555555555.      .0p05500055000pppp0000000005000ppp0000000000000pppppppp00p0   .  .;pppppppp0ppppfppp00pppppppppppppppppppppfffpppppfffpfffpp0.  .  .pccfppppfffffffffcccffffffffffffffffffffffffcccccffffccfcf*.** .0fcccffccffccccfffffffcfcccffffffffffcccccfffccbccgffffgzffc0.     *fccffffzcccccccffcccfffcfccccffffffccccccccccbpfcc5550fccf0.  .**0ffcccfcccfffffcccccccfffffbccgfffffffccfcccccccccccffffffp*     .pfccccfffccccccccffccfffcccccccfcccffffcccccffpppfffffffc0.   . .*pccfcffffffffffffccccffffffffffccfcfcfffffffkccfppfccfsafp5.   ..ppffppppppfffffffpppfffpffffcffffpfpppppffp055500550ppp05505      .0pppppppppfffpp000pp000ppppppp00pppppppp00p00pp00550050pp0*   .  .505000000005000000000005005555555*1155555555555555555*51*.        .**",
"51***555**********11**555055555555555555555005.      %0p5550000000pppp000000000500pppppp000000000000ppppppppppp0   .  .*pp0ppppp00pppppppp0pppppppppppffppppppppffffpppffcffffp005. ..  *pcfpppppppppffffffffffffffffffffffffffffffffcccccccfccccbc5*** .0fcccffccffcccfffffffffffccccccfffffffcccccccccbbcccccccgfff0.     *fccfffccccbbbccfcccccffffcffcccfcccccccccccccbcccp*=0scbccp* ...*0fccbbbbcccccccccccccccccccccffffffffcccccccccccccccfffcccp5. .  *pccccffffccccccccccccfffffffcffcccccfffccccccffpffgfffffcp*  ....5fccfcccfffffffffffffffffffffffffffffffffccfccccfppfccfffgf0.    .ppffpfffppfffffffpppfffppfffffffffppppppffp00pfsp0500pp05000.     .5ppppppppppppp0000pp00000p000000ppppppppppp000000550000pp0*   .  .50550560000000000555000505555555555555555555555*5555555***.       .**",
"<****5551********555<*555055555555555555559005.      .50558000000000pp00000000000000000000pppp000000p0ppppppppp0.      *pp00ppfpp0ppppp0p00ppppppppp00pppppp0000ppffppffccfppp0505  .*  *pcfppfffffpppffpfffffffffffffffffffffffffffcfccfffcfcccccc5%.*  5pfcccfccfffffffffffpppfffkccccffffffcccccccccccccffffzcffcc0.    .*pccfffffcccccccccccccccffffccccccccbccccccffzcccfp*0pcbbbc0* .   5pfccbbccccffffcccffffccccccccffccccfcccccccffccxcccccccccf5.    .0ccffffccfccccffccccccfcffgcfffffcfffffpfffffffffccffpppfp*  ..  *fccccccccffffffppfffffffffffffffffffffffcccccffffffccfffcf0.    .upffffffpffffffffffppppppppppfffffpfpppfccfpppffpppu0ppp00p0.      *0ppppppppppp000000p00000000pppppppppppppp0000005555000pp0*      .55555550000000005555550505555555555005555555******5555**55.       .**",
"******5555****;55555****5555**5555555555555005.      .505590000555550005000000000055555000pppp0000000ppppppppppp.      .p0550pppp0pppp000pppffffppp000000055555500pppppffffp00555*  ..  *pcfppffffffffffffffccccccffffffffffffffffcccfffffffffffzff5...  *pfcccfcffffcfffffffffffffffccccffffccccccccccfffzfpfpffffccp+    .*fcffffffffffcccccccccccfffffccbbcccccccfffccffffp05ffccccf0.  . .0fcccbccfffffffffffffffffffcccffccccccccffffffffccccccccccf5      5ffpppfffffffffffccccccccccccxfpffpp00000pppffffffzffp00p05.     #pccfccccccfffffppffccccccccccccfffffppfffccccfffffffcfffcf0.    .0pffffffppfffffpfpppffpppppppfffffffffpffffp0pfpp0p0555****.       *00ppppppp000000000pppp000pppffpp0000pp00000000055500000p0*       55555550555555555*555500055*1*5***5005**5****.****55555555*       ...",
"***************35555****5555555555555555555505.      .50558005090555550505000000000555000000005555500ppppppppppp.      .05**50pp00ffppp0pppffffpp0p000005555****50pppppffffpp05*5*      *pfpppfffffppppppfffccccccffffffffffppppffcccffffffffffffff0.    *pfccccccffcccccffffcccfffppfffffffffccccccccffffffxccfccffxp5     5fcccccccffffffcccfffccfffpffffcccccccccfffccfccfp5*ffccffp0*  ..*0ccfffpfffccffffffffffffffffffffffccffffffffffffffcccccccfp5.     *pp00ppffffcfffffcccccccccccfffppp00005550pfffffffcffp050u5.     *pff00ffffffffffppfffccccccfcccffffffppppfffccfffffffffffff0*     0pffffffffffffffpfffcccfffffffffffpppppp0ppppppffps05*******       =0ppppppppppp0p000000000000pppppp00000p000000pp00500pp0000*       50550000505555555*555005055555***590055*5*********55555555*        ..",
"***1**.%**....%******<555555551*33555555555909*      .*555000000000050005555000000000000000000000000ppppp0000000.  .   .05**50ppppfffpppppfpppp00000550055551**500pppfpffffp00055<.     .0pppp00pp00000pppppffffffpppppppppp000pppffffffffcfffsfxpcp* .  *pfkkkcccfccccccccffcccfppppppppppppfffffccbcfffffccccccccccf5.   .5pfcbbbcccccfffcccfpffffppp00ppfcccccccccffccfcccp3.fcccfff0* .. .0xcfffpffccccccfffffccccfffffzccffffffffcccccccfffcccffffff0.     5ppp0ppfffcbccffcccccffffffpppppppp0005000ppfccccfcfpp05500*  ...*pfp00000pppppppppppffffffppffffpppppp0ppppfffpffcffpppffff0*  ...0pfffffffffffffffppfffffppppffppppp000000pppppppfpp055500000*      5pfppdfffffffppppp000005555500000000pppp0000pppp000ppp00005.      <550p0000000000555555555555555555550055555551<***5555551***        . ",
"*155*.....  ........*555555555*****35555555505*.     .*55155900000000000551555550000000000000uuppppppppp00000000.  .   .55***00ppfcffppppppp0005555555005555555550ppffffpfp0000555.     .50000*55555550000000p00000000000000000000p0ppffcccffppffpcp* ...*0pffffccfcccfffffffccffpp0000p0p0pp0ppppccbcffppfffffffccccf5.   .50pfcccccccccfffcfppppfpp000000ppffkfccccfffp0fffp5*fcccfffp* .  .5fffccffffcccbbcccccccffffffccbbccffcfffffcccbcffcccffffpfp0*..   *0000ppffccbbcfffccccppppp0u0000ppp000000ppffcccfffspp05500*    .*0p055555500000000000pppp0000pppp000pp00000pppppffffp00ppfp0*  ...8rppppfffffffffpppppppp000000000000050000pffp00000p5<50ppppp5      *pfppppppppffpppp005555*5**5555550000pp000000ppp0000pp55005.     .*55500000000000005555333**555555555555555555555**55553**...          ",
"*155*.. ...  .......*****553**....%*****5**=55*.      .**.**55500ppp00p05******5550000055500000ppfffppp000555550.       **...*50pppp0005000055555555555555555555550pppp00p05000555.      ...**.*****555555000005550000050555000005000pffffffp050p0fp* ...*0pppppffffppppppp0pffpp0005000000000000pffcfp000pp00pppfffcp*    .*5*5ppppppfffffccfp000pppp055500pppppffffffp550ppp0*ffffppfp*  ...*pppfccpppfcccccccffffppp00pcbMMcfffcfpffffccccccccfffpp0pp5.     ***55500pfcbcffpffffp00000000000ppppp000p0ppffffffppppp05005      *5555***555000000000000055500pp0000p0005500pp0pfffp05500pp5.  . .50rpupfffpppppppppp00055*555555555555555pppp0005***...*555000      .*5555500000pppp005***555**111***550000555555005555500<1555.      .*..***5550000000551********555555*****51555555**553**..  .          ",
"*155*.   .................%...  ....*****..***.            .**55500000p05*...******55551**.****55500ppp00055**15               .*50051***555555555555555**555555**5005555555555555.          ...****5500000000005555555555550000550000ppffpp05*50*p0.    .*00000ppp00000550550p0055550000000000pp00ppp05*5055509555005.    ..%  ..**5500ppffcfp0550ppp055000p00000ppppppp055555*ffpp00p0*      .  ...350pfffcfffppp00555550fccp05500000ppfffgccccffpp0055*           ..*500cfp000pp000000pppupp000000000p00ppfpppp0000p0*005          ..***5000000000000055*550pp0000p0055550000pfff05***500*     .*50000pppp0000000000ppp00555555555555*5555555505*.*...******5   .      ....****50pp05****5055555555****555*************5*#.*5*.            .***550055555*%......**5555*......*********33**.    .          ",
"..***....#.. .%*..**.....%**..............***.              ...***5500*555*...***..*55************550055555****.            ..*******555*50055***55055555055***5555000555005**555*          .*55555*50pp05*5000505550005*50000005500p000500009550p0*  ..   .....*55555555000pp005555000550000000550000055505500000000*         .*5555550pppffpp00000p000ppppp080000000pp0p05***5pp00000*        .*5550000ppffccfppp00000550pfppppp0000p0ppppppffp00ppp505*. .     ..***5000pppppppfpppppp0pp005050pf5*5500000000000p0000005.        ..1555555000p5500005555555000p000pp005000pp50ppp00000555.      .  ..**55**550000pp00550005500*500055555555*****.*11***1**1*.         *..**5055***555**1555555555555*555555555*****....******.             ....**55**********. .******......*.*********....   .     .     ",
"  ....  ..%..............%*%..............%**.                 ....*;5555<...*553***55**35**********5555*<****5.   .          ......*3;*.*900055553<*5555005***555555555500055555*.         ....**...*500**5005*5000ppu0550pp000000pppp0000ppp000p5.  ..  ..+*+**500005555000000550000000upppp0000000000ur00000000000* ..       ..**+.+*50ppppp00pp00000p0000ppppppppppppp05**50pppppp5.  .     ..**.***.*500pp00055000pp00pp00ppp50rruppuur00pfp00pfp55*.         ...*****0ppp000005000u5p0005p00pf055000000000000pp00005*          ..**...**50050055**50p005555000ppp005500p0*50005550p55*.          .#**5555500000000550005555500pu055000055555<***15*****=*          .   .***..***555555555555*********33555555;*******5***.                   .******......#.**..... . ....***....*%%........     .     ",
"  .       .%*.  ..  .....*%................**.                       .53*.....*5**555*..*5**......#************.   ..             ...%+...*5*5553*.#.*5***55**************55555**...                 ..***5005..*005500055555555=55000005550055555*.  ..  ..*****5555555*****55555000090000000055555550000005555555=*. ..              ..59000555000555555**50pu000000p095*..*55550000*.                  .*=555555550000500955005*5555090555500055000**.                  *555**555*5555*55555p555055805555555555500555=*.                 ..**50055***5000055***5500555=1=555**555***555*..          .*****===*******555555**.*555895555555555511**********+.                    ***************.........%%...*53********5***..                   .......    .***...       ...............  ...            ",
"...        ...  ..     .....              ...                           ..**.    .**.   .*                   ..                   .....   .. ..+......    ........     ..   ...                       ....55*.  .**   .*.                      .**.                ..........*33******....     ..      . .........                  ......o.     ..****... ...*..........    .*.   ..        ..      .*...*****+*55055*  .*.....+. . ......    ..      ..                       ..*<5*...... ...     ... ..   .. .. .....     ....     ..      . ..*555**.....*%..   ..     . . ..%..  ...               .   .       .   .   .   ..   ..              ..***..            .         .          ...   ...    .     ...      .. ...                           .****....     ..    ....                          ",
"             .  ...  ...*%.   ..... ...               ...%....***..    .                ............       ....     ...           ....            .       ...+++............***...*........+*.    .....          ..    .  . ... ........   ..   .         ..................        ..       ...*.  .....+*.......      .......                  .*....     ....       ..    .*.   ..   ..          ....        .      ..     ..*+..  ..     ..*..  ....                ......             ..%*    ..***.. o    .            ..        ..        .            ..     .........           *   ..   .+......   ..    ...   .   ..       .***...........          *........           ..                ......%..   ...                        ...*....             ..     .**............  .    .....        ..",
"p05*..              **55555***5555555550pr00pppppp555509000000pppp0555*55**...**.    .5000000p00p000000055000000000000ppcffppppppppp000555**5.. .+*.  .*0ppp0ppfppp0p0pppppppppppfffppppppp00pfffffkfffp0055=*5****.....*5pppppfffffffffpppffpppfppfffppfffdfffffffppppfp005*5055*#... ...*50ppfffppppffffffffffpsppppppsspssfffffpsffggfcccfp0555*....    .*pffffppsffpppfppffffffccfpfccfcccffffpppppppffffpp5555555***..  *50ppffpppppppppffffpppppfffppfffffzccccfffffffffp000pp05*.........5pffffffffppppppppsgfffffffppcffffffffcffffffgcccp05555******.   .50fffffffaspffffffffppffp00pfpppfpppppffffpfsppp00055*5*.  ..     .*0pppppppp000ppffffffpfpppsp00pppp00ppffpppfffpp05555*****..     *000pppr0000000000000000005*500p0p00000000050000555***%.   .      *5009555555555555555*3555555555555555",
"pp05500055.        .0ppppp00upsdppffffffcffffccfccfffcfffffcfffccccfdp50rp005****.   5fccfccccccccccccffpppfffccccccccbbMMbbccccccbbbbcccfppp5*.**5%  *pcMbcccbnmbbcccbbbbbccbbbMMbbMbbbbbbbcbMMbbMMMbbbbbcffffp5*<*....*pbMbbbbMMMnMMMMbbbMMMbbMbbMMMbbMMbnbnnMMMMMMMMMMbcfpcbcfp05*....*0pcbbbMMMMbbbnmMMMMMMMMMMMMMMMMMMMMMNMMMMMMMMMMMMMbbccccf0555*  .*0bMMMMMMNNNbbNVNMMMNNNNNNMMNNNMNNMMMMMMbbbbbbMMMMnbfffcccp05.*. .5pxbMNNMMMMMMMMNMMbbbcccbMmbbbMMnbmMMMMMbbbbbbMMMMbbMMMbcf0505*.  .pbMMbbbbMMMMMmmnMMMMMbbbMMbbcMbbMNNNMMNMbMMMMNNNMbcccccfu5*05.   5sbMMMMMMMMMMmMmbbmMMMMnMbbbMMbbbMMnbbnMMMMMMMnbbccczzffp05555*. .*5pfcbbbcbbcccccbbbbbbbbbbbbbbcccbbbcccbMbbbbnMMbccfffpp0055*.    .5ccccccccccccccccccfcbbccffpfccbccccffffffppffffffp00pp05..      .5pfpffdpppppppfpp000000000pppppp00000",
"p0000pfpp0*        *pffffppffccccccccccccfp0pfffffcbbbccfccbcccccbbbcf0ppppp0<..*..  5cbbcbbbbbbbbbbccffpppppfbMMMbbbbbbbbcccccccbMMMnbbbcfpt05555,@oo,fmNMbbbMNMMnbbbbbMMMMbbMNNNMMMbbbMMNNMMMbbbbMMbbbMMbccccp5*5*....5gNNMMMMNNNMMMNMMMMNVNNNMMMMNNNNMNNMMMMMNNNNNNNNNNMMbMbbcfp05**..5pcbMMMNNNNNMMMMNNNNNNNNNNCVNNNNNNNNNNNMMMMMMMMNMMMMMMMbbcfppp5%..5pbNMMMMMNVCNNCCCNNNCCNNMMbMMNNNNNNNNMNNNNMMMNNNNMMbbbbbcfp05**.  5dcbNCCCNNMMNNCCCNbbbbccbMMMMMNMMMMNbbbbbbbmMMNNCVNNNMMbcfppf05*...fMVMMMMMNNNNNMMNNNNNMMMMNNNMbbbbMCCVNMMMMMMNNNNMMMMbbcccp055*.  *0gnNNNNNNNNNMMMmbbMMNMMMNMMMNNNNMMNNMMMMMMMMMMMMMMnnnbcffpu005*..*0fcbbMNNMMMmbbbbbMbbbbbbbbbMMMMMMMnmnbcbMMbccbMMbccccczp0005*.   ..0ccccccbbMbbbbbbccccbbbcccfffcbbbccccccccccfcccccffpppfp0*       .0fccxccxfffccccfp05500550ppfppppppppp",
"ffp0000*. **.     .*ppp0000pfcfffffcffffcp000pppppcbbbcfpfccffpfcccbccbfp05005*....  *fcbcMbbccccbbbcffp05500pcbbbbcbbbccfffffccccccccccbf05*5tt5,+oo.=fcmbcccbnbbccffxccbMMbbbMNMMbffkcbbMMMbbbcbbMNMmbcbcd00pp00p5. .*0cNNbnMNNNMMMMbbbbMNNNNNNNNNNNNNNNNMbbbMNNCNMMMMnMMMMcpppppp05*.*0fbnMbMMNNNNMMMmMMnbbMMMNNNNNMNMMMbMMMbbbMbbbbbMNCNNMMcf05pcff5. .5pxcccccbbMMMNNNNMMNNMbcfffcccbbMNNNNNNNNCMMMMNNNMbcbbcp05500p5.  *pfcMCNNMbbbbMNNCMccccczcbMNNBCNNNNVcccccbbMMNNNNNMbcfp5000pcp05,0*gMNbNNNmmcccccccccbMNNNNNNNNNbccmNCNMbbMMMMNNNMMMBnf0550ppp*.  .*pgbbbMMMMMMnbbbbccbMNMMnbnMMbbMMbbMMbbcbbbbbbbcccccbbbp05905*.  .5fbbbbMNNMMMnbcccbbccbbbbbnbbMbMbbbcbbccbbbcffgbbcccccccp5500*.   .*0ffppppfcbbccccccfffffp000550pfffffffffckfffffccffffp005*.       .5fcffcfffffffcfp0***55*.5ppppppp00000",
"0000pfcfp5pf0*      555****5pfffffffffffcp55500050ffcfp550ppp000pfccccMcffgbc0. .**. .pcccbcfpppfccbccffp0000pfbMbcccbbcffpppppppfbbbbMMMcp5,tccp*   o,plvvlccccccfpppppffffpppfffffppppffcfffffffcbMMbbbMbf00fbMbp*   *0gbbcbbMMMMbbcfffgcbMMbbbMNMMMMMbbbbcfccnMNNMbccfffccbMMMbbcp5*..5pfcfffcbMbbcccccccbbbMMMNNNNNNNMMMbbbbbMNMbbbMNMnMNNCVNbccccf5.  .5fcccccbMNNNNNMMMNNMbMMcfcbcccbnMNNMcgfcbcccbMNNNMMNVVVNMcp5*5*  *pfcbCMMbbcccbMMNbfpfffpfcMMMNNMMbmNbcccccccbbMNNCNNMbgpfcccMp*. **fncfmNNcllllfffffllfccccfpppfcfffcbcfccffcbnMMMMMNncffcbbbcp1   *pcMNbMMMNNMMbbcfpfgbbbbbbMMMMMNNMbbcczccbMMMbbcffffffcMbbbbbp*.  *pfcfpffccbccfpppfccccbbbbbbcbbbbbcffcccbMbcfpfcbccbbMMbfppcf0*.  ..5p05550pfccbcccccccccbcfp0050pfccfffppppp0pppfcccccfffccf0*       *pp00ppp0000ppff0*.*555.5purpppp00511",
"50pffp0555pp0*      ***55*1550ppffpppppfcp05*50055pppp055500p05550pfcbbbcccfp0*  .*. .0ppppppp00ppppppppp0pp0pfbMMbfffffppppppppppfcMMbbfffptaas5@   o*,pfatffllffsppppfffffpppfffffffffffffpfccffcbMMMbcccffpfcccp*  .*0pfffzccccccccffffgcccccccbbbbbmMbbcccccbMMbcccffffffccbNbMb055..5pfffccpfcccccccccgffcbMNNMbbbbbbcccfkcccbbcccccbmNCNMbcfcbMMp+  .5*pccccccbbbMNMMMMMMnbMbccgccfgcbbbbccffffcccbbMMNNVVCCNNbcfp**.  .5pffbccccccccccbccckcfffcbMNCNMbbbbccccccccccbMNNNNMbgfccccc0*..*+0lcllcccsgglllfffffpfccccccf0ccfffcccfffccccbbMMMNbzfcbcccc5*. .*5pccccccccccccffpaffcccccccccbbMMnzgffccbbMbgfffffffffccbMMM55*  .0fppffppffffpppppfffcbbbMbbbfffffpppfpfffffppppfcbMMMbfpppccp*   ..*p00000pppfccccccccccffp00000pppppp0005550000pffccbbcffpp0*       .0000005555555005**5555*50pfffp05<***",
"*5pfp0*..*505.      .**551555500ppp0000pfp5*55005500000555550055=50pfcfccffp00*   .. .000ppupp00000000ppppp00pfcbbcfpppfpppppppppppcbbcfpppptstr,.   o@.tstrssssppppppfffffffffffffffffffpffpfcfpsfcccccffffffffff0.  .*50pffffffffffffffffffffffffccccbbbccggfxccbcccfffffffgccMcMM05=..;pfpfcbpfcccccccccffffcbMMbccccccccfffcccccccccccbMNNbfpffbMb0.   **pccfccccccbbbbbcccccbbccffffcccccccccffffcffgccbbMMNNbmcfff**.   *pffccccccccccccccccccccccbMNNMbccccccccccccccbbMMMbcffccffp5. .*.5sclslllsgaagffffflcfppfcbcfpffffppfffffffzcccccbmcffccffcc5....**pcffffffffffffffffffffzfffffccbbbfpppffccccffffffffffffbMMN55*   0fp0ffp0pppppppppp0ppffccccfppppppppppppppppppppfcbMbfp00pfc0.    .*0000000pppffffffpppppp00000000p0000005555555000ppfcfpp055*       .5055555<1<153555555555550pffp05*****",
".*9005*...*5*.      .**55*55555500055550p05*55005500555555500055**550ppfppp050*   .. .000ppuppp0000000upppp000pfccfp00pppppppppppp0pfcfp00rpttt6,o    .o6st0stssppppppfffffffffffffffffffffffpppppppppppfffffffffp9.  .*50pfffffffffffffffffffffffffffccccfffffffffcfffffffffccfbfMM55*..*pfffccpfcccccccccffppccbbccczcccffffcccccccccccfzbmbcfffccbc*    ..0ccfccccccczfcffffffccccffffcccffcccccccffffffffcccccccffpp..    *pffcccccccccccccccccccccccbMMbcgccccccccccccfcccbccffpfffp0*   @o,sllskllsssssffffflbfppfccfccfffffppffcppfffffffccfffcfppfc*.. .*.0cffffffffffffffffffffffffffffcccfpppppffffffffffffffffcbbM5=*   0fp0ffpppppppppppp5000pppppppppppppppppppppppppppfccfp0800pp5      .0000000pppppppp00000p00000000000000000055555555550p000555*       .5055555***15*5555555555550pp05******",
"******.*.**<*       .**5555555**555***5505555000555555550050000555555500000000*       500ppppp0000000000ppp0000pfffp00pppppppppppp0pssp000pt0t0,;o    oorst0tttspppppffffffffffffffpppppppffffppppppp00pfffffffffp*   ..*0fcfffffffffffffffffffffffffffffffffffppsffffffffffgccfcfbb5*. .*pfffccpfcccccccccfffpfccccffffffgccccccccccccccfpfcccfffcfff*     .0fcfccccccffffffffffccccfcccccffffccccccfffffccccbffffffffd..    *pffcccccccccccccccccccccfccbbcfffcccccccccccffffffffffcffp5.   .o,tlssllltkkkkkkkkllcfffcfppcMccbbbcffccppffspppppfffzcfppfc*    ..0cfffffffffffcffffffffffffpfpffccffppppppffffffffffffppfccM5**   5pppffpppppppppppp0ppppffpppp00000pppppppppppppp0ppp05550pp0%      .0000000pp000000000000005500000000000000055555550555*55555*       .55555*********5555555551550055******",
"*******55<*5*       .**5555555*5555**5555155000055555550000000000095550p0000pp5       500p00000000000000ppp0p000ppp000pppppppppppppppsppppas0t0,@o    oo0st0tttspppppffffffffffffffp0pppppffffffffffffffffffffffzp.    ..5fcfffffffffffffffffffcccffffffffcccfffffffffffffcccccfcpcc**.  *0fffccffccccccccccccffcccccfffffcccccccccccccccfffffcccccffp*..   .pkxfccccccfffffzzcccffffcccccbffffccccccccccbcbbbMffffccccf.     *pcfcccccccccccccccccccccffccccfffcccccccccccfffffffzcccccf0*   *o,tlkslllskkkkkkkkllscbbfpffccfccbbbcccbfffffffffffffccfffff*    +.0cfffffffffffcffffffffffffffffffccclfffffffffffffffffpppffb**.   5pppffppppppppppppfffffffffppppppppppppppppppppp0ppp0550ppp9.  .   .0000000pp0ppppp00000500000000055000000000000000pp05*555005.      .555555********555555555**155****1<**",
"1*****5555*5*       .***5*15555555555555**550p000555550000000000p00000pp0000pp5       500p00000000000000ppppp0000p000pppppppppppppppppppppspttt5,o    oorstttttspppppffffffffffffffpppppppfffffffffffffffffffffffp.   . .5fcfffffffffffffffffffcccczffffffcccccfffffffffffccccffbpcf.... .0ffffcffcccccccccccccccccccfffffcccccccccccccccccfffcccffffp***   .0ffcccccccfffffffcccfffccccccccffffcccccbbbccccffffccfccccf.     *pcfcccccccccccccccccccccffcccfcccccccccccccccfffffzccbcccc0*  ..o,tllllllkkkkkkkkkllcbcfpkbcp*5550pccccffzccccccfffffffffffp*    . 5cfffffffffffcfffffpfffffffffffffccccffffffffffffffffp0ppfb**.   *pppfpppppppppppppfffffppppppppppppppppppppppppppppp000ppfp5. ...  *00000pp000ppppp0000050000000005500000000000055555505500505.      .555555551**555555555555**11*****51**",
"5**..**55***.       .***5**5555555500055**55000000000000000055500000000005000p5       500p00000pppp000p0ppppp0000p0pppppppppppppppppppppppptttt0,o      0sststtppppppffffffffffffffppppfpffffffffffppffffffffffff0.    . 5fcffffffffffffffffffffcczfffffffccccffffffffffffzkcfffbpff...   5ffffcfccccccccccccccgfffccffffffccccccccccccccccfffccffffff*..   .0fgccccccccfffffccccfffcccccccfffffcccccccccccfffpfccfccffp.     *pcfcccccccccccccccccccccfcccfccccccccccccccccffffffccbxccz0*    .;tklkllllkkkkkkkkllccppfccp5.1*.*5pccfpfcccccccffffffpfcfp0*    . 5ffffffffffffcfffffffffffffffffpfcccffffppfffffffffffpppppc...   *ppppppfpppppppppppppppppppppppppppppppppppppppppp00000pppu0*. .   .0000ppp000pppppp000000000000000000000000005555***50555555*       .555555555555555555555555*1*****=51**",
"***..*******#       ..*35555555555550055*5500050000000000000*155550000005505005       500p00000ppp000000ppp000pp00ppppp0pppppppppppp00ppp000ttt0,@      5sststtpppppppffffffffffffffpffffffffffffffppppfffffffppp0*      *pcfffffffffffffffffffcccfffffffffffffffffffffffffffccfbpff ..   5fffffcccccccccccffcccffffccccffffczcccccccccccccfffcccffpff*..  . 0ffcccccccccccccccccfcccccccffffccccffffffcccccccffccfcfffp..    #pcfffcccccccccccccccccccccfffcccffcccccccccccxxfffffccfccf0.     @0kklllllllkkkkkkkklfppff055505**50ppppfffzccccffffcfpfffp5*    . 5fcffffffffffffffffffffffffffffppffffffppppfffffffffffpffpc...   *0pppppfppppppppppffpppppppppppppppppppppppppppppp0000pppp005.     .0000rpp000ppp0000000000ppp0000000000000555500005550555555*        *555555555555555555555555******55***",
"***********5*       ..**5555555555555555*555555500000005555555555550000p0005505       500p00000ppp0000p0ppp000fpp00ppp00ppppppppppppppppp000tstt,@      5sststtpppppppffffffffffffffffffpppppppfffffppfffffffpp009*   .  *pffffffffffffffffffffffffffffffffffffffffffcffffffffcfbpcf..    5fcfpfcccccccccccffccccfffcccccffffffcccccccccccffffcccfffcc5.   . 0ffccccccccccccccffccccccccffffcccccfffffffccbbbbbfccfcfpff*.    .0kfffcccccccccccccccccccccfffcccfffccccccccccccxffffkzfccc0+     @,tkkkllllkkkkkkkkktpffp0**pcffpp0550pppppffcfffffcccfpfp05*.   . 5fcffffffffffffffffffcfpffffffffppffffffpppfffffffffffpfffx  .   *0ppp0pfppppppppppfffppppfffpppppppppppppppppppppp000000000p5.      500r0p0000ppp000000000pppp0000000000555555000000p00*555555.       *555555**1115555555555555***11******",
"555555551*505.      ..**5*<5555555555555<5555**500000055555500000000000pppp00p0.  .   5500000000ppp000pppppp0pfp000ppp00pppppppppfcfpffffp00ttt5,@      8psrpt0tppppppfffffffffffffffppppp000050pffffffffffffp00553   .  .pcfffffffffffffffffffffffffffffffffcccccccccfffffpfccfcpcc*.    3fcfpfcccccccccccffcbcccffccccccccfffcccccccccccfffccccccfbb0.   * 0fffcccccccccffffffpfccccccfffcccccfffffffccccccffffcccfffc5.  . .rffpkcccccccccccccccccccccffcccffpfccccccccccccccccffffbbcp*     o,ttttskkllkkkkkkkkpccf5.*pcMffff0***0p00ppffffff0fccp0005**    . 5fcfffffffffffffppffcccpfffcccfffffffffffffffffffffffffccff      *0fppppfppppppppppppppp0ppppppppppppppppppppppppp0000000050f0.      500pp00000pppppp00000ppppp0050pp00055555555000555005555500*       **555<*******<555555555511**1***.***",
"*****555**155*      ..**55555555500055**50555000009555555*55p05555000p0p0000005.      5000pppp00pp00000pp00pp00000000000pppppppppppppppffpp0ptt08+      500950tpffppffffpfffffppppppppp05555555550pfccffcccfpp00505.     *pffffffcccfffpfffcccccffffffcffffffppffgccfffffffppccfffff5.  ..5dccfffccccccfffffcccccffffffffffffffffffffffffccccccccccccc0.  .* 0cccccfffffffffcccbbcfffffffffcccccccccffccccccffffffffcccf5.    .0fffccccccccffcccbbbcccffcccbccfffffffccccccccccccccccpfbc0.   . .8pprtpslsfffssflllap5*50fccffpp0555**5500pfcffdpfcccp555000   .  0cccfkfffffffppppffcccfpffffffffffppppppffffffffffpppfppppp*     *0ppppffppppppppppppppppppfppppppppppppppppppppp00000p0000pf0.     .50rppp0000p000000000p0000000000000055555000505005000555505.       50055550055*************5511********",
".**********55*       ..*550555*5500005*#%#%#******5555555555p055550000000050005*      *000000000000000ppp00ppp0000pp0000pppp0pppppppppdffpppp00p0*     o500950pfffffffffpfffffpppppppp005555550555pfccffccffp000000.     *0pp00ppppppp000pppffpfffffffffffffpppppfffffccccfffccfpfcf0*  .*5fccfpppfffccccfccbbccccfffffffffffffffffffffffcccccfxfccfccp*  ...0fccccccccfffffcccccfffpppppfffffffcccfffccfffffcccfffffccf0. .. *pcccffccbbbccccccccccfffffcccccfffccccccccffffffffczccfcccp*   . .5pp0ppfcffffppfaapf0**0ffffpppp00055**90ppfzfffffcccp0550p0   .  5ffpppppppppppppppffffppppppppppppppp0pppffffffffffpffpppfp5.   .*0ppppffpppppppppppppppppppp000ppp0000ppppppppp000pppppppppfp.     .50ppppp00pp0000000055******55500005095500055555555550555p0.      .5005<580005****1<<<******55*********",
"..##*******55.       ..*55553**<550055*..  .......5555555550p055555000000055005*     .*5055555500000ppppp00ppp000ppppp000pp000ppppffffffffpp000005.     *55550ppfffffffffffppp00000000055555550550pfcfpffffpp000005.     .50055000000000000ppp0ppppppppppppp00000pppfffcccccfffppfcf0*   .5fccfpppfffccccccccccfffffpppppppppppppppffffffffffffffffpfcc5   ..5pffkcccccffffcfffffpppp000pppppppffffffccffffffccfcccfffffp*..*.*pcccfffccbcccfccccffffpppfffccccfpcccccccffffffzzcffffffffp5.  . .50050pffffcfffffpp0550pppppppp00000555000pffzffcffffp0550p0   .  50000000000000000ppppp00000000p0p000000000pppfffffpppf00ppp5..   *0ppffffpppppppppppppppp0000000000055500p000p00000000000p00f0.      500pppp00ppppp000051*......***555555800055*55155*5555550p0*       *555*5550055*=511<******************",
".........#.**.        ..**=*****555555*.**..**********555555055***5555500055555*      *****55550000000pp0050000050pppp000000000pppfffffffpt0555005.     ...***50pppfffpppp0000055555055555555555500pfppppppp0050005.      *5555500pppp00000ppp00000000000ppp00000p0pppfffffffp00pffp5.   .0fcccffffcfcffffffffppppp000000000000000pppffffpppppppppppfcc5    .*00pppppfffcccccffppp000000000pppsdfffccfffppppfffffccfp0ppp*  . .9p0p00ppfzfffpfcffppppppppppfcccfppfpffcccccffccccffppp05505   ...*,,*5580pfccccfffp550ppp000000000055555*500pfcccppfpp0550p5   .  *5515555500000000000005000000000000005555500pppppppppp000pp5.   .*0pfpppppppppppppp0p000005555555555**50000000005**555555000p0.      **55000050pp000055*****5511******55555555***********5555p0*       .**.**155555*=55<******....*****1***",
"         ..**           ......*****55**.......****...+******1***..*****5055555*.      ....***5500p00500055**5555550pp00555555000pppppppp005555855.        ...***55000000005555555**555*5555555555500000000000555051.      .....**55000050055555555000585000000000005500pppppp0500pp0*    .50pffppppfffpp00000000000555555555555555000ppppp0000upp0p0pp0*     .**55550000pppppp05500000000000558900pppp055555500pfffp00009.     .*.*  .*0fcbMMcffpp0000ppp00pfcfpp000ppffcccfffcccfpp055**5.   . .....****5500p0r085*50sf055505555555555****550pfc000p00550r5   .  .......*****50000000055555555555500005555555000000000055005*     .*50005500000000000090555555055555*********1551******555555p5.        ...*****5555555******5551***....*****55***************55.        .  ..********55***...... ..%*****..",
"      .. ....                 ...%*****................%*******..******15***55*           ...**5500055995****5***5500055**15555000p0000005555000*          .******55555555595555555555555550005*555555550000000005*         ..******5500000000090000000000000000000555000pp000000005.     ..******5500000000000000000000000000055000000000000000000pp5*        ..*155005500pp0005000uuppp000099900ppppp000000pppppp0pp05.       . .5000ppppppfffp0000ppp000ppffpp00pppppppppppfffp005pffp5.         +*5505550055*..50ppp05550555555000555<**=55005000005500*         ....***555000u00059555555005550000555555555500000000955*.       ..+***555555555000055555550055553**************55555500059*               ....**555******351***......*****5**..+********..**              .......*****.....    ...***.  ",
"    ...... ..                 ... ..+%........%%......%*********************5*.               ..****55555****5***5500055****15559009855553**5005.           ..*****555**5500055555555555555009***55555555000005505.         +********5000000000089000000005550000005558000000000000*.        ..*.*5550000550000000000000000000005000000000000000000p0*    .     ..***555500ppppp0000000000000000uppfpppppp0pppfpp0500pp*       .. .****555000pppp0000ppp0000pppp00000000000000ppp00550ffp*   .      .**555555005***50u000000555555000050055****555550055555.         ...*****55500000555800000000095555555555555555555500055*          ..**555555555500005055555555555******<<**3**55555550005*.               .....**555*****351<**%....*****<3**..%%%%*5***. ..                     .......         .......",
"    .....  ..                      ...........%%+......%*%.*******5***.**..***                     .**5***********5555**********555555555**..55+               .*********555555555555<***55505*********55555551<**.          .......**=5555555555555555555*555555555355505555505555.         .*5*555055555*500000000005555555555500055555555555555500.  ...      .......*55000000555555555559990000000005555800055*=505*          .      .**500000555000555555055555*5555505500000555*50*   ..        ...*.**555***500555505555555555555551*********555555*           .........*5555555555555555555**************<15***5555*.         .+***151*****555555555555*55*****.*****************555**+   .            ...  .******.......%.......%******.......*1...   .                      .....            .....",
"       .   .   ..                    ..        . .  .............***..........                      .............*****............+...***%.  ..                 ......*........*******......*. ..... .**.****.....                      ..............***....***.......****.***....   .      .*5****515**...***************************............*.   ...     ..        o...#**...**.................      ...***.***.                     ..*************...#*.....****5**********.       .     .         ....*****...***.***.%%%*...#***..+.....+****.                      ..***.*.***********............*#*......%*..         ..**.****.....**......#***................................   .             .     .....             ..........   ....*  .   .                                            ",
"           .   .*.                   ..                                 ...              .                      ...                   ...         **                                                  ..  .           ..... ....          .  ...            ....                      .. .                                      .                      ..                                                        ..         .      .......          .            ......             ..    ......  ...    .       ..      ..            . ...          ..     .  .                       .                    ....                                                                            .   .*                        .      ..           .                                                             ",
"............   ..... ..     ..*..+*..                     ..*********#...*......*.....****5**.....****.. . ...   ..       ..*............*************+*........******....     ....   .     **********==*******.**==********=55555****==***...*....   .   . ..*55**..*..#....***.....**********51******+********.....  ....  *.***5******55*1****.%*******+*********155*****51*..  .  .. .*  ...   .*************55*.  *0..*55***50005***5555*....****..   ..   ....%**555.**********5****11*****.****....*.*****55  .  ......      .****15*1*******=******************555*****.*555*......*.  .   ....*..*******.*****5*...****.*...+*******...****%.. ...... . ..   +....********************...*****.....*****5*****.    *   .   ..    .* .***.......   .......*.     .... ..        ...     ..           ",
"555555555555555**500500005500p55000p055*0**55+.+..     .50pp0000000000pp00955500pp0000ppppffppppppppppp000000055***.*. .*50ppppppfdppppppfffffffppppfffffffffffsffffffpppp000u0095;*.... .*0ffffffffzcccfffffffffffffffffffffffccccffzcgffdppppppp05;*3*..  *50fcpffcccccfffcccffdffzcbcffffffcccgzcczffffcfffffppp005*3*1.  *5pfffcffffcccccccccccccccgzgffccccgffffzcffffcbbcffpsf5500**5. ..*5rfcbcccccfcccccccccp55pbbccccfffcbbcccccbcffpfffffpfp0;  #***. **5pfffcccffczgzffxcczcffffffffcfffccccfxcccccfxfczppppp005**5*....*pffcffffczfffffxggffffzcccgffcffffccccfffgfpfcccfp0u00555..5.    .5000ffpfcfffcfffcffppppfffffffpfffffffpppppffpppppr000055* ...  .*5ppppppppppppppppppppfppp00ppffppppppppppppppffp0535p5*55.       .5p5ppppu0u0p00000009550000055500000000000055550085*****+          .",
"ppppppppppppffp550pcfffffpppfcpppffccffpfp0p05***.    .5pcbbccccccccccccfpu00uppbcxffcccccbbcccccbbbcccccffffppp555*5% .5pfcbbbbnMMbbbbbbbMMbbbbbbbbbMMMbbMMNMMMbbmMMMMMMbcbcccfp005*....*0cMNMMMMMMNNNMMMbbMMMMMMMMMMMMMMMMMMMMMMMMMMMMMMMbbbccccfp0095*...0fcMNMMNCVNNNNNNNNNNMMMMNNVNMMMMMMMMMNNNNNMMMNNMMmmbbbccfp00*5#  50cNMNMMMMNNNNNNNNNNNNNNNNMMMMMNNNNNMMMnMMMMMMNVVNNMnMMgfcf8553*..*pbNNNNNNNNNNNNNBMbbbbfpcMCCMbbMMbMNNMMNNCCNMbbMNCNMbbcc5..*5**. *5fbNMMMMNNNNNMMMMNNNNNNMNMMMMMNMMMNCNNNNCCNNNNNMMmMMMbbcf0550*....0cMNNNMMMNMMMMMMMMMMMMMMMNNNMNNNNNMMMMMMMMNMnMMNMbbcbbcp05*5p5.   *pfzcbMMMMMbbMMnbMbMMbbbbmNNMMMMMMMMMMMMbbbbbbbbbbbccfffpp0..**   *0bccccccbbbbbbbcccccbbbcfffccbbbbbbcccccxxffcbbbcffpcp000*.      *pcfcbccccccccccckfppppppfcfffffcfffcfffffffffffppppp053*    .    .*",
"ppfdfpppffpfffp559pcfczcfpppfffffccbccfffp0p0*..      .5accbbbbbbbbbbbbcf005550pbbbbbbbbbbbcccccbbbbcbbbbcffp000***.*.  *ucccbbMbbMbbbbbbbbbMbbMMMbMbbbccbbnMMMbbbbbMMMMMMbccgffpp00*.   *0cMMnMMMMNNMMMMMMMMMMMNMMMMMMMNNNMnnnMMMNNNMMMMMMnbbbcfpp0055*..%5fbMNCNNVCNNNMMMMNNNNMMMMMMMNNNNNNNNNNNVNNNNMMNNNNMMMnbcccffp**%..0pbNNNMMMMNCNMMMMMNNNNNNMMbbbnMMNNNNNMMMNNNNNNNNNNNMbbbgcbf05*05. .0bMMbNVNNNNNNNCCMcfccf0pcMbccbNNMMMNNMnMNCCCNNNCCCNMcfp*.*05**. **fNCMNMMNCNMMMMMMMMMCCCCCNNCNNMMmMNNNNNNNNNNNNNNMMMbbcfffp050*   .0cMNNNNNNNMMMMMMmMMMNNNNMMMMMMMMNNMMMMmMMMNNMNNMMbbbbbbfp050p5   .0cbbbMMMMMMbbMMbbMNNCNNbbmNNMNNNMmbbMMNNMMnbbbmnbbbbccfpppp5*5*   *pbbbbccbbMMMMMMMMMMMnbcffppffccbbbbbccbbccccbbbbbcfpf0555..  . ..*pbfccccffkcccccbcf000p0pfcccfcfcffffppppsfffffp00ppp5***.....    *5",
"pppppppppp0p005*.*50fffff000pfpppfffffppfpppp5**  .    *0pppfffcfzffcccfp055550pfcccbccccfppppppffffcbbbbbcpp05p000.*....0fcfcbbcffffpppppppfffffffffffppffcccccccfcbMMMMMMbcfpppfgf5.   .*pfcbbbbMMMMnbbbbbbbMMMMnMMMNNNNNMbbbbbMMMNMMMMMmbbbbcfffffp05*.*5cbbbMbbMMMMbccccbbMNMMNNMMmMNNNNMMMMMMNNNMMbbbMNNNNNMMbcccbc5*...0pfcggcfccbMMMMMMMMNNNMbbcccccbbMNNNMMMMMNNNMMMMMMMMbbbfbbcfp*05.  0bNNMMMMbbbbMMMNbfsfcf000MVVCCCCCMnNMbcgcbNNNVNNMNNMc0*00pcf05*.5*cVVMNMbbCnbcccccccbbMMbbbbbbbccccbMbbbbccccnMNNNMMbfpppffffp5. ..0cMNNNNNNMMMMMbbbbbMMNNMbbbbbMMMMMMbbcbbMMNMNNMbbccbbbbfpppp0*  .*pbMccccbbmbccbbccbbMMMnbcbbMMMNMMbbcbbMMMMbcccbbcbnbbcffffcp055. .*pcffpppfccbMMMbbbbbbbbcfpp0ppfffcccffpfcffpfffccffpfcpp0055...   .0cppfffffffffffcp55*55550fcbbccffpp0055500ppfffppppp5*..***.    .*5",
"0ppp00000pfp55**5555pppp0555005000pfffffcfccfp05*..    .0pp0000p0u0p0pppp0555500fcbbbbcfpp0000ppppffccbbbbcp00fcffp** ..*pfcffcccfffppp0000pffffffffffppppffccffffffcbbbbMNMcffppfcf0*   *50fccccbbbbbcccccccccbbbbbbbnMMMMMbbbbbbMMMMbbcccccccbbMMMbcp5*  *pfcccfbmnbbcgffccccbMNVCCCNMnnnmbbbbbbMMmbccccbMNNNMMnbccbNNp.   5*uffffffgcbNNNNNNNNNNMMbbcccbbbMNNMbbcccbccccbbMNNCNNNMMMbxp**%  .0cMNNMbbccccbbMMbcgffcfp5pcMNNMMMbcffppffccccMNMNMMcf0*pfcMc05*.*<cMMcMbcfnccffffffcccczcgfffffcffcbbbcccfffcbMNCNNNMcfpfccccf5...*0fbMMMMnbbbbbbcccccbbMmbmMnMMMMNNNMbcccbnMMMMbbccfcccbcbbMMc0*.  .pccffffbcbbcgcczccffcbMMNMMbbmMMbcccccbbbbcfffcccbmbbcffffffp5*  .*5ppp00ppfgcbbbbbbccbcccfpp0ppffccccfp00pp0ppffccccbMMccfp00*      5f00pppppppppppp055550550fccccfpp0055***55000pffffp055*.*5*.    ..*",
"0000000000p05**505**50005***5555500ppfffcffffp05*      .5pp000000000000055550500pfbbbcffp000000pppppfccbbcfp00ffpp0..   .5psppppp0ffpppppppppppppppppp0000pffffpppppfcccccccfffppffp0*  .*50pfffffzzgffffffpffffggggcccccbbcczcffzcbbbcgffpppfgcbbMMMcp5.  .pfffcfbbbbcfffffcfpfbMNNNMMbccccczfffccbbcffffgbMMMbbbcccbNNp.   *.0gccfffcbbMNNMMMMbbbbbbccccccbbbbcccffffffffccbmNNNVNMMbcfp .*. .*0fcccccfffccccccbcpfccp*+0cNNNMbbf5==5500ppfcbMNMcp000fcbbp5*.  *pcfpccgpfffffppfffffggcgfffffffffcccfffffffcbMMMbMbcfffcccf0*  .#5pfccccccccccfffpffcccccccccbbbbbbccfffgcbbbbcfpppffgccbMNNb0**.  0ff0fffcfzfp0ppppfpppfbNNMbcfccccfsppffzgfpppppfccbbcffppppfp*   ..*ppp000ppfgccccccggzfffpp0000pfffffp0000000ppffcccbbbcff080.      5f00000555000500055000055ppfffp0055***..*555550ffp5**5****..      .",
"555555555505*.*505*.*555****55555550000pfpppp005.       5000005500555550050000000fcbbcpp000000000ppppffcccfp00pp555 .   .*0pp00000fpppppppppppppppppppppppppffppppppffffcfpppppffffp*   ..*9pfppfffffffffppppppffffffffzfcfccffppffccccffppppffcccbMMcp5%..*fffffpcccccfffffffpfzcbbcccfffffffffffccccffffccbbbbcccffcMM5 .. ..pccccccccbbbbbbccccccccffffffcccccfffffcffffffccbMMNMbnbccf .*%..*50pfcczfffffccfcbcffcbf5*5fMNNbfp0******50pcfcbMbf00pbcccb0*..  *0ffpcckspccgfffffcccccccccccccgfzcccfffffffccbbbcccfccccfff5.  ..*0dfcccccffffffffffffzzzffffffzgcccffffffzcccfppppfffffcbMNb5..*. 0fp0fppfppp050pppfpppfcbbcfppafffpppppffpppppppfcccccfppp0pf0.     .ppp00pppsfffffpfpppppp0000000pppppppp000000p0ppppfffppp850. ...  *p550005555555555550000550pffp0555555***5555**50005***5***.        ",
"11*155555<****1555*.55555**5000055555550p00p0000*       *500000000000000000p0pp00pccfp00000000000000ppfffffp000p555 .  ..*5pppppppppppppppppppppppppppfpppfffffpfffffffccfpppfffccxp*     .<0pffffffffffffffffffffcczzggffccccfffffcccccfffffcccffcbbcf5*..*fcfffpfccccczffgccccccccffpffffcggccccccbccffccbbcbbbcccxfxf. **  *pcccffffccccccccccccccccfcfffccgccccccbbbbbbccffccbbbcbcccc.....*5pfcbcccccccccccbbcffcbcfpppfbcp*..50005555pcppfccfppcMccbb8***..*0fccccccccccccccccbbbbcccccccbccccccfffccccccccccfffzcccccc5. .**50fccccccccccffzcccccccczcffffffffccccfffzccbcfppccccfpffcMc*...* 0cp0fp0fffp00pppffpppffffppppaffffffppffpppfpfffzffffffppppp5.     .pppppppppppppppp0000000pppppp005500ppp0000000550000000050p* ...  *0550000500000555555555550pffp05500005550555***55055******.        ",
"**********.*5505555*********5551**550000***55500*       *000005505550000555550000pffp0550ppppppp0000500p000055pfp05    . .10pp0ppp000pppppppppppppppppppppppppppppfppppppfccfppppppp5.   ..*0sffpppfffgffffpppppppffffpppppfbcfpppfgczffffffffffcfcccf9+   .pffccfgfppfpppppffccgfffffffpppffffffpppffppppffffffffffpffp .55  ;pcccccffffffffcfcccccccccxcfffggfffffffccccccffffcczfffffcc.    .5pfccgzgccffffccccfppffccMf* .*. .pfzcbc0*. .5*...50pffffff* .... *0ccpfcbbffffffffffcfffffffffccfffffpppfffffppfffffffpppfff5.  *.*5pcffzzgfffffffgccfppffcccfffffffcccgfppffccfpppfffffcfpfbb5**.. 5fp0cppfffp550ppffpffcfpppffppppffffppfp000ppppp005500pp00fp*. .   *ppppppppprppp00000005500ppp000pp00pppp000000000ppp0555535p.   .  *050005555555550000055555*5000*.*55*******..*5*.*5005*#*55*        ",
"55**********15555555****555550555555*555*5***500*       5000555500000055555555500000055000ppp000000000000000000pp0#       5pp0000ppppppppp0pppppppppppppppppfpppfffppppfffffcfpp0ppp5.    .50pffffffffffffffffpfppfffffffffffffppfffcfffffffffffpfpccp.+.. .0pcccfczfffffpsppfffffffffpffffffffffpppppfffffffffffccccccc*.*. ..0ffffffcccccccffffccccccccccccgffcffffccffgcckfffffffcfpfcf.     *pfffpffccccccfcccfffffffcfp00ppppczzcccxfp05**550fffppfffp3..    5fcfpfccfccgffffffpccccccxffffccccccccccfffffcgfffppffdfffp.   . .5pfffffffffffzggcffffffffffffffffcccfffppsppcfff5fffcfcffcf.     *ufffppffcc0**pcf0pfcf0p00ppfffasfffppppppppp00000000pppppff. ..   *pp00pp0pffppp000000000pppppp000000pppppp00055500005p000000.      .50055555500000000555555**55005555555*5555**553*;3553;**33*        ",
"5<***************551**555555555500055155505*5000*       *0055555000000500000000000055500000000000000ppppu000000pp0*       5pp0p000ppppppppppppfppppppppppppffpppfffpppffffffffppppp0*     .50ppppffffppffffffffppffffffffffffpppsfffffffcccccffffgfbbp...  .5pfccccccccfffffffcccffffffffffffffffffffffccccfffcccccbbcbc*..  *.9ffffffcbbccccffffffcccccccccccffcffccccffccccfffgfkccffcbf..    *pcfcffcccbccccccccccccffcfffffffcccccccccfp0550pfcccffcccf0.     5fcfpfccfbbcccccfffcccbcccfffffffffcccffffcccccffffffcffgfp.     .5pffffffffffffccfffffffffffccfcccccffffffffpf00p*ffpffcfpcf.     *0fffppffffp5.0ffppfcf0fpffpffffffppsfpffffpp000000000ppppfp. ..   .p000pp00pfppp00pp000ppp0pp000000000pppppp0000000p00p000p00.      .500550000550000055555555555000555555555555553333333333333+   .    ",
"*******************155555555555500005555505*5000*       *5055550000555000000000000005500000000000000pppppp000ppffp*       5pp0p00pppppppppppppffpppppfppppppppppppffpppffffppppfffp0*      5ppppppppppppfpffffpppfccfccccccffpppfffffffcccccfffcccfbbp..   .5pfcfffcccccfffccccccccccccfffffffffffccfffccccccccccbbbbccc*    ..9ffcfffcccccccffffffccccffffcccffccfffffffccccffcccccbfgcbf*.    *pcccccccccccccccccccccccccfffffcccccccbbcffpppffcccccccccf0*.    *pcffcccfbbcccccccccccccccffffffffffffffffccccfffccfccxfzfp*..   .5pfffffffffffffffffffffcccfccccccccfffffffffp**p5zf0pfcfscf*..   *0fffspfppffp**00pfpfppcccfpfffffffffffffffpppppppppppppppff* ..   .p00pppuppfpp000pp0000pp000000000000pppppp0000000000f000p05.      .900090000500000000000000555000555555555555553333333333535%.  .    ",
"*******<11******1*555555555555*550005555*05*5000*       *555000000055555500000000000000000000000000000pppppp0ppffp1       5pppfppp0p0ppppffppppppfffffffpppppp0000pffpfffcfp00fccfp0*      5pfffffppppppppffppffffffffffffffffffffffffcccccfffffcccbbp+.   .5pfcffffffffffccccccfcffcccfffffffffffccffffcfcccccccccccccf*    ..8ffcfffccffffffffccfcccccffccccfffcfffffffccccfffzccbbcfcbf*.  . *pccccccccfffcffcccccccccccccfffccccccccbbcfffffccccccccccf0*.    *0ffccccfccccccccccfffcccfffffffffffffppffccccffcbccccfffp05.     5pffcfffffffffffffffffffffffcccccfffffffffccp**p0cf0pffffff*. .  *0fcfapppppfp00055ppffpcfffpffffffffffccfsppppppfffffpppppff*  .   %ppppffffffp0000pp000ppp0000000p0pp0pp00000000000000f000p05.      .0p0000000550005500055005555005555555555555553333333335555*.       ",
"..***15555555555555555555*15*****555555**5**5555*       *55500000555555555500000000000000000000000000ppppppp0pppp0*       5pp0pppp00000ppppppppppppppffpppppp00550ppfpffffffppfffp00*   .  5pcccfffffffffffffffffffffffffffffffffffccfffffffppppfpsfxp*.   .5pfcffffpppffffffffffffffffffffcccffffcfffffffffccccffffffcf5.    .9ffcfffffpfffccccccccccccccccccccccfffffffffffffffccccfffcp.     *pcccccffffppfffffffffffcccccffffffffffcccccffffffffffcccfp0*     .0fcccccfffffffffccffffffffffcccffffffpppfcccffcccffcfp0005*.     *pfccccffffffffffffcfffffffffffffffffffcccccf55cpcffbfffpff*     *0fffpppffffp0cf5 50fffp00pfppppppppppfffp00000pfffffppppppp5.     .pppppffffp00000ppp00ppp000000000000000005550000555pp550005       .500000p0055505555555555555500055**55555555553333333335535;.       ",
".+**555551**33555555555555********55555**5**5555*       *50500000055555555000000500000000000000000000000000pppp0p05       5pp0pppp00000ppppppppppppppppp00000005*50pffpfffffcff05550*   .  5scffffffppffppfffffffffffffffffffffffffffffcfccfffpfspfffp0.   .5pccffffppffffffffffffffffffcccccccfffcfffffffffccccfffffccf0. .. .0fccccfffffffccccccfcccccfcccccccffcccccccffffcccfccfccfffp*.    *pcccccccfffffffffccccffccffffcffffffffccccccccfffffffffcff05.    .5pfcccccfffffffcccfffcffccccfffffpppppppfffffccccffcf05005*     .5pffffffffffpfffffcccccpffffffffffffffffccccf50bpcffbccfffp5     *0fffppfccffppcc0.*50pfp0pfcffffffffffffpp0p0000pppp000000pp5.     .50p00ppp00000000pp00pp0000000000000000005550000055pp550055.      .5p00000000550555555555555550055555555555555533333333355;53.       ",
".**5555***..********555555555555**550055*5**5555*.      *0055555555555000000000055000000000000000000000000ppppp00p5.      *00500pp00000pppppppppppppp000000005555500pppppppcccp5**50*   .  5ppppppppppppppppppffffffffffffffpppppppfffcccccccfffffccffp.   .5pccffffffffffcccfffffffffffcccccccfcfffccccffffccccfffcfccfp.  . .0fcbbccccffffcccccfffffffffffffffffcccccbbcffcccccccfccccxf5*  . .pcccccccccfccfccccccccccfffccccccfccfccccccccccccffffccfffp5*    .5pffffffcfcccfccccccccccccccpppp00000000ppfffcccccccf050005     .5pffpffffffppppffffcfcfffffffffffpppffffffffp*5cpbfpcbccfff5     *0pfpppfcffffpppp00550fffppfffffffffffffapppppppppppppppp00p0.  .  .0ppp0pfpp0000000000000000005000000p0000000000pp000pp550050*      .5000000005550000555555555550000005555555555533333333353%;;.       ",
"#**155**..  ........**5555555000***50005151*50555.      *5055559005555000000000555500000000000000000pp000000ppp00p0.      *55*500pp00ppppppppppp000000555555555555500ppppppfcf05**55*   .  *0055000000p000000ppppsfffffffffp0ppppppppffccccccccccfczffp.   .5pccfffcccccccccccffffffppfffffffffffffffccccfffffffffcccccfp. .. .0fcbbbbcccffcccccfpppppppppppfppfffffcccbcfppfccccccfcccccf0*... .0cffcccccccccccbbcccccfcffffcccccxcccgcccccccccccccffffffff0*  .  *0pp0ppfccccccfffcccccffffff00000000500000pfccffcxcxf000p05.  ...50p00pppppppppppppfffffpfffffffffppppppppppp0**fpbf0pcfffff0. .  *0pfppppcppccp50pfcp*5fffp00ppp000p00ppppppfpppppppppppffp0pp*  .  .0pffppcfp0p00pp00055555555555500000pppppp0500pp000pp5500505.     .50055005555500000055555**5500000055555555555333333333;*+**+       ",
".**15**..    .......%****55555p0*..*555*15**55555.      *5555555505555000005555**5500000000000000000pppp0000pp05500.      .**.550pppppp00pppppp005555555**55555505550pppp00ppp055505*      *55**55500005555550000pppppppppp00000000000pfffccccccfpcfpff.   .5pfcffffccccffffffffpppp0000pppppppp00ppffccffppppfppffffcffp.  . .50pffcfcffffccccffp000000000ppp0pppfffccccp00pfcffffpfccckfp*... .0ffpfffccccccfccccccffffpppfccccccccccffcffffccccccfffppppp0%     *500550fccccccfffffffppppppp000000000005550fccffcfppp000005.  ...*55555000000055000pppppppppppppppp0000555055055f0cf0pf0pppfp. .  *0pfapppf0pfcp50pcbp*5ppp555555*******50ppppppp00000pppffp0pp*  .  .5pfpppffp0ppppp00555555155***55550000pppp555500005005508;05.     .*5555555555500000055****.**55500055555555555333333333;+.%*+       ",
".%**;*..  ..........  ...**<*505.  .%*..*5**55*55.      .*5**55555008595553*******550000550000000000p0pp0000005*555.      .*. .*50prrr000000p00555****55*;555550p05550pp000055500005*      ***.***559005*5555500005555555555555555500550pppppffp55p00pf*   .5pffffffffffffpppppp000555555000000005550ppfpp0000000ppppffpp.  . .**5pppppp0pffcccfp000000099000000pppfffccp0550ppp0pp0pfffffp*...  5fp000pfcccffpffffffpp0000pffccccfcckffffffappfffffffp05000*     ..*05330pffccfpppppppp0005555000ppppppp05550fccfpcp055550055.  .   ....**555555<*55550000000500000005555555** 0rfc5ffpf05500pp. *  *0pfppppappfffffp0p5.1p09**00000000005.*500p005*.***5555000pf5  .    505**00**ppppp005***<************5500005*...*555**5*555*55#      ******5555590000055**......*<555555555555555333333333;. .+.       ",
"......... .....     .  .*.. .***.........**..*55*             ..**5580000055*+%****50ppp05**555500pppp0000055*0555*           ..*500000055500555555*.*5555555555p0000900555555550000*.          ...***50p055500055500055555505500fp0550550ppfpppp000555.    .*55000pfppp0000pppp0000055550000000005500000000pp0pppppppp0*  ..    .******500pffffpp000p00090up00ppppfffppppp0ppppp00pp0pffp5       .*35**50pfffppfccf0550dp00ppfccfpp0pppppfffffffcccfp000pp0*. .......*3;550ppff0055500000pppppppp00pp000000ppppp00p000000p005.         ....**555500005*35550ppp0055555005***55500pfpfppp050000*     .*5550pp000ppp0000p050000550p55*58055555558005555555555550p05.  .        .....559000055***55***********55000***********55***5*.           ....#**5500pp0*  .**.   %555**....*****;3**;333*+++..         ",
"..................  ....**...**......... ...  **.              ...*55555<*.*.**55..*5555*.********555**35555**55*.             ...*#**5****55555505055515550555555555555555555550055*.          .#****5505555509000000000555555500055555*550p0000055**.       ..***555555000000000000550ppp00055550000000000000000000p05.  ..     .****55550ppppp05000000000p000pp0ppp000000000000pp000005.        .%***150ppdppppdr5550ppp00pffpp095000ppppp00000ppp0000005.   .     ..***555pf00005555500pp00500550005000uppp00000900000005*.        ....***55500ppp0550055500pp05550000***501580pp005555000*.   ...   ...+***5555555***55555550555500055555555551*555555555905.            .....*35555*****55551**5*...***511**********#*55*.*5*               ...********.  .*53*..**5**.*******5**........ .+..         ",
" ............%........****...****%..*******.  ..                  ...***.....**50*%*<***..5***.....*****55555*5**.               .....*******5555555005555005555555*355555555555555*..         ...*****<*50055500p055500005505*555*55005550000050055*..        .***505555550000555000000p0000p00000pppppp00000000000009*.   .      ...*151<50ppp055500000000p000p00ppr000000000000pp05505*    .    .*..*55**50pp00000000pp000pppp00000000000p055550000p0005*          .......*0000pp00000000000555550000p00pppp00005558855555.         ....%****550pppp000085*50ppp0550005**500*3500055*555005*   ...     ...***55553** .*5553555555955559555555555*559900555555*.                  .***..**5555555555*..***5***************51*.***                 .o..... ...****5******...***..****........  ....         ",
"      .................**.....***.....**555*..... ....                ...****...0*.*******5***..**+*55555555*5**... ..            .  .*555<**5553****50555005155******555555555****.                 ....5005550p05*..*5055505*5505*5000000000055555**.   .......**5u000553**5***5550005***550ppp0555005585500000000055*.   .          ...**55055555000000000000005500550000000005905**55*......   ..  .*.   *5005550ppp00055000000000000000800000000000555.    ...........  .***0pp5500p055*5005**50000p8099005555555555555*                 ....%3500555505***0p05**555*+**501555555=***5505*  ...    .*55555555**....*5005*155*<555*..*;55555555555555555555*.                    .....*55**********..**********************..*+. .                   ..  .*3*.........          .....++....+.            ",
"                                                                        .***.   .      ...            .                                 .   .**..    ..  ..            ...******...                       ..   ....    ..... .....                                      ....        ..                               +*.                               ......  .                                        .     ...   .... ***.       .....       ..              .                .**   .**   .**.   ..  .                     ..   ...              ....   *..                . ....               ..    ....            .*..  ......      ...                 ..    .                    ***..   .....                                                  .   ....        .                     .             ",
"                                                       .....*........          ..      .*.      .    ..... ...                      ...     .     ..     ..          .....          ..****...**......+*...        ....   .*. .*   ..              ...     .........    ....  ...        .           . . .  ...........                .....                   ...   ..  ................**........  ..     ..                      ........ .   ..    .   .......    . ..***.     ..          .     .   ..... .. ...........   .   ... .......... ...*..   ...     .* .......*#........  ....  ....****..                        .    ...........   ...........                    *.        .      ....       ..............       ....    . ........                  .+.  .     . .          . .........  ",
"*******...          .555**55550005555000555000550050000055555000000005.....   .#*. ...0p05***55000000ppp0000pp00000ppppppppppppppp0ppp055555**....%.  .*000pppppppppppppffpppppppppppppfffppppfpppppssppp05*.*55...**.   3pdpp5**0cc00pfffppppfpppffppp00ppppfffpppppppppu00500055**+.....*50ppppffffpppfffffffffffffsppffppppfffffffffzcfpp00550005**..  ..*pfffpppffffccffffffffffffpffffffffffffffcffpfcccfp00p00*....    .5pfccffdspspppfasppppppfffffffffppppppffspfccf05*55500505...**.  *500rfpppfffffppffffpppspffppppfffpffffppppddfdppppr00085*...%*.. .5pcppppfffffffffpppppppppppppffpp0ppdppppppffspp0055505**.**.  ....*0pppppp000p000rppppppppppppppppppppppppffppppf0555555*...     ..*000000p000000000000pp0000050ppppp00000000000000553.***.         .505550008558885553;%++*33;;33333583*;",
"00000055**..        5pfp00fccffffffffffccfffcffffcccccffp0550ppffffffd000055*...%...*5fbf0550pfccccccccffffppfcbbbbbbbbbbbbbbbbbbbbMMbcffffp0055***.  *pcccbMMnbbbbbbbbMMMMMMMMMMMMbcccbbMbbbbMMbbMMMMbbbcf050p05****. .5fbNNc05pnCVbcbMMMMnnMNNMMMMMMMnbnMMMMMMMMnMMMMMbbbbccffpp005**..*0fcbMMNNNNMMMMMNNNNNNNNNNNNNMMNNNNMMNNNNNNNNMMMMMMbbcccccp055+. .*0bNNNMMNNCCNNNNNNNNNNNVNNMMMMMMNNNNNMMNNMNNNMNNVNMbbbccfp0055*...5dbNCCNMMMNNNNNNCNNbcccbbMNNNNNNNMMbNNNNMMMMMNNbppccccbcbf5*555.  ;pcbMNNNNVVNNMMMMNNNMMMMMMMMMMMMMMMNNMMnbbmMMMMMMMbbcfffp005**%...5sbNMMMMMNNMmMNMMMMMMMMMMMMMbMNMbbccbbbbbMMMMMMMmbbcccbf00505*  ..*0pcbbbbbbbbbbbbbbbbbbbbbbbbmbbnnMMMMMcbbbbbbbbbbcfffccp0555*..  ..5xccbbbbbcccccffffffcbccccfffbbcccccccccffffffcfffppp05*.   ..   .0sfffccffffffffspr9855000rupppuuppuuu",
"ppppp0555*...       5pfp00cbbzcffffffffcbcdpfp0pfbccccff05**500fccccccbzfpp05*      .*cbf5*5pfcbbbbbccfppp0050bbMMMbbbMMcccccccbbbMNMMbcccffpp005*.   *fbbbbNNMbMMMbbbbbbbbbbMmMMMMMnbbnMNMMMMMMMMNNNNMMMMbp050p005*   *pbNNMf0pcNCNMbbbMMMbnMNNNNNNNNNNMMNNNNNNNNNMMMMNNNNNNbffpp005**.+5pcbMMNNNNNMMMMMNCCVVVVNVVVCNMMNNNMMMNNNNVVNMbbMNNNNMbbcccpp05*  .*pbNNNMMNCCCVNNNNNNNNNNNNMMMMMNNNNNNNNNCNNNNMMMMMMMMNMbcfffp05**..5pbNNNNNNNVCCCCCCNMbcxccccNCCNNVVNNMCCNNMMNNNNCMfcNNMMbMbf0005.   *fMNNCCCCCVNNMMMMNNNNNNNNNNNNNNMMMMMMbbbMMNNNNNNNNNMbcccffp0*.   +0cMNNNMMMNNNMMNNNMMNNNNNMNNNNNNNNMMMMMMMMMNMnMMMMMMMnbcfp0000*   *pcbbbbMNMMMMMMMMMnbbbbbbbbbbbbbbbbbbMbcccbbbbbbbbbccbbbcpp005*.  .*0ffccbbbbcccccccccccbbcffffpfbbcccccccccfffcccbbccccfp05**.      .5pcbbbccccffcckfp08335550sddfdsspsppp",
"ppp0055*****..      .505.*0ffpcffffffffccp055*.*0fpffccffp05.*50ffcffcbf0**55*    .  .fc0.5pfcbbccccccppppppppfcbbccfgccfffffffcccbbbccccfp050005*.  .*cNMcbNMcfcccfffffffcbbbbbbbMbbcgcbMnbbccccbbMMbbbbNMf055ppff5   *pcbc00fbMcpfMMcbMMMMnMNNbbbbbMMMbbMMMMmMMMNNNNMMMbbcccffpp0055*.*0gbMMMMNNNMbbbbmMNMnnbMmmmnmbbMNNNMbMNMbNCCCNNNNNMNMMmccfpfffp5. .5fccccffcbMNNNNNNNNNNNbcccccbbMNMMMMNNNNNNMNNNNMbMNVNbf000pp5..   .pcMNMMmMMMMNNNNMbcffcccfpbMbbbMMNMMbcgfcbMMMMCcppMMcfpf000pp5  .9*fMCMMMMMbbbccfzccbbbbbbMMbbbnNMbMNNMbbbccbmMMMMMMMbffpffpp0p3   *pcnMCNMbbMMMnbbbbbbbnMMMbMNNMMNNMMMnbccbMMNNMMnbbccffp00500pp5.  5cMMcffcbbbbbbbbbbbbbbbbbbbbbbbbbcbbbbbcbbnMMMMMbcfffffp0550003.  .*5pp0ppppfccbbbccbccccxp000050fcfffffffffffffcccccccf0*..***       .5pfcfffpppppppp03%%%%%.3upssspuuu058",
"ppfffp0555005*      *****550ppffffffffcccfp0055550ccccf055005***5pcbbbccffcfp0. ..   .5*.*fffpppffccfppp0000ppccbMbbcfffpppppppppfbbMMbbcffpppppp5*. .0pbczzbcccppffffpppfffffffffffffffffffpfcfffcbMMMMMbcfa00fMMf3  .5pfp5*fMMbccbMbcgfcbbMMmMNMMMMMNNMMbbbcbbMNNNMmbccffkfcbMbMMb05. .5fbcffcbbMbbbccccccbbMMNNNMMbbMNNNMbbMMMNNMbccbNNMNCCNncccbMMp*  .55fccgcccbbMNNNNNNNNNNNNbcccccbMVCNNMbbbbbbbbbbnMMNNNNNNMbcfp*5*  *pxcbMnbbcccbbMMMbcfpffcffMNMMNNNNMbbffffppcMbNM0*bMcfcc0fbc0*  .03fbbcMMbbMcccfffcccccccccccccccccccccgzcbcccbMNNNNCMcfccccbbp*  .*0fbmMMbbbbbbbcccffcbMMnbmMMMMNNNNNMcfsfcMMMNNngpppfffffbbbMc05+  .rcfpffffcccffffffppfcbMMMbbcbbbbcgfffccbbcfppfcbMnnMMbcfppccp*    *0p00pp00pcbbbcccccccccfpp00000ffccfp050pfppppffffccccccfp0*       *0ppppp05500pp0555;*****30updppr005**",
"000ppp05**005.      **55555500pppp000pffpp00555555pppp0***5505***0pfzfccfffp00*      .* .5pp0000ppffpp0000000pfcbbbccfppppppppp0ppcbbbbcffppppppp5..  50ffppcfffppppppppppffpsapffffppffffsppfffppfcbnbbbccfp0**0p5.   *55555fbbcfccccfppfcbbbcbbbbccccbbbccffccbmMMbbcffffffcbbbNNbp0*..*fccfpfcbbcccffffffccbMMMnbbccbbbcczccbMbbcfffcbbbMNNMbccbbMM0.   **pcffcccccbMMMMMMMMMMMMbgffffcbMMbbcfffffcccccbbMMMNNNNMbccp*5*  *ufcbMbbczffccbbMbcppffccfbMNNNNMbbbcffff0pcbcnbf0NCcfcffcf0*5*..*%pccfccffbcffffccccccccccfcccgffffffffffccgccbMMMMNbgfccccbbp.  .*5pcbccccccccggzfppfcbbccccccbbbMMMbfp0pfcbbbMbfp0pfffpfbbMMc05*  .0fp0fffpfffpppppp00pfcbbbcccccccfpppppfccfp050pfcbbbbcfpppfc0*    .5p000p050pccffffffffffpp0055500pfpp5**50pp000pppfffzfccfp05       *5000055***5005555******550ppp05555**",
"5555555*..50*.      *5555***55555555500p00555****555555*15**555***500pffppp000*      .*.*0000505000p0005050000ffccccfpp0ppppppp0ppfffccffppppppp0*.   .*pp00fppfppppppppppffssppffffppfffffppffppppccccccffff0**55%    ..*50pfffffffppppppfcccffffffffffccfffffcccbbccffpfffffcbcMNbp0*..*pccfpfccccffffffffffccbbcccfffccffffzbbcffffzcffcbMMbcffccbc5.   +*pfffgggfccccccccccccbccfffpffcccfffffffffzzgccccbbmMMMbcccp.*.  .8pccccczffffcccbcffffcccfcbMNNbcccbbffccppfcfccfpMNcfcfccp*.**..*.0ffpfffpczfgffccccccccccfcccgffffffffffczffgcbbbbbcffcccfcc0.  .+=0fcfffffffffffppppfggfppppfffccccff000szfffcfpppfffppfccbbc05%   0fp0fffpppppppppp00ppffccfffffffppp00pppfpp5500ppfccf0500ppp5.     *0050p0550ppppp0pppppp0005555500005***500009000000pfppfp00*       .555555*..*15551**;;*****5500055*5***",
"****55**..*5*       *5555<*****155***5505551******515150005555005****5ppppp000*       **5055555000000555000000ppffffpp00pp0p0000000ppffpppppfppp5.     %0000p00pppppppppppafppffffppppfffffpppfppppfffffpppfffdfcp..  ...*5pcppppffp0pfsppffffaffffffffffccffffffgccfffffffffffcfbncp05..*pccfpcccffffffffffaffcccczfffgffffffcccffffccffffcbbccffcfff*..  .+pfffkffffczffffffffffffffffffcffffffccccczzggggcccbccccccfp..    <pfcfcffffffccccffffcccccpcMNMcfpfbbfffcffffppf5+0ffcbccf0*.*...5 5pppppppfczfkkxcffzffcffffcczffffffffffffffffffccgfffcccfff0. .*.*0fffpffffffffffpppfffsppppppppffpfpppppffppfppppfffppfffcbc05.   5pp0ffpppppppppppp0pppfpppppfffpppppp00pppp050005pffp5*50p00*      .p000p000000000055000005555555000055550000055500050p000090*       .*5155**.***1<1*****<*****3555*****..",
"**155555***<*       *55555****=555***500551115555505550pfp0500pp05****5000pp00*      .550u5000000000000000pppp0pffpp0000pp0000000000ppppppppf0p03      .0000fpppppppppppppppppppffppppfffffpppffpppfffffsppfffffcp*......*0fbfpffcgfpfcgffffffffccgfffgcccccfccffffffffffffccfffpcbf05*...0ccffcccffffcccccgfffcccczccccccccccccbcffccccffcccbccccccfp*..  .*pffkffffffcccfffffcfffcccccccccccccccbbbcccccfgfccccffffffp.     *pccfffffffffccffffccccccsfbMbfppfbcgffczfp0000*  *0fbccs5***  .5.5fcffffffczfkfccffffffffffcccfffffffffffffgfffffgffffcccccf5...*..5pfffffcfccccckfffffffffffffpffppffffffffppfpppppffffffpfcc9*.   5pp0ffppppppppppppfffpppppppfppppfffpp0ppfpppppp0pppp050pp00.  ..  .ppppfpp00000000555500055550000p00500p000005550055005555505       .****55***55555*****1*55***55**.*****",
"**51555555*5*.      .*5555555**555551500555555550555**5008**0000055****1*50055.      .00005500ppp0000000000ppp0ppppp0000pp0000000000ppppppppp000*      .0pppfpppppppppppppppppffffpppfffffppppfffffffffppffcccfp05*      *0fffffccffffccccfffffffffffffffcccccccffffffkkccccccfcpfcp5*  ..0fcffccfffffccccccffccffffkffffffccffffccffppfccccccccccccfp*.%. .*pccccfffffcccccccccccfcccccccccfffffffffcbccccccffcffffffcp.    .*pccffcccccccccfffcccccccfccccffffccfffccp0505pffp55500fp5***  .*.5pccffccffffcccfffffffffccfffffffffffffcccccfffccfffffcccfp5. ....5pfffffcccccccccffffffffffffcccccfffcfffpppppppppffffffpfcf5*. . 3pp0ffpppppppfffffffppppppppppp0pppppp0ppppfppppfp00ppfpppp0.  ..  .ppppppp000ppp00000000000000000005500p000005550055005***505.      .****555555555*******155**<5***#*****",
"*****1*****1*        .5555505***555**15555555555555515505***55555055****..**%5.       0000555000000550000000000ppppp00pppp0000p0000pppffppppppp0*      .0pppfpppppppppppppppppffpfpppfffffppppffcgfffffppffffccfp0*      *0pppfffffffffcccffppffffffpffffccccccffffffffcccccccccfff0*.  ..0fcxfccfffpffffccffffffffffffffffcccfffcccfppfbccccgccccccff*... ..0fcccfcffffccfcffcccffccccccffccffffffffcbccccfffffffffffcp*. ...*pcccfccfccccccpffccccffcccfffcccffffffccp5505pcbcp0555p0550*   ..*pccffccpfffccccffccffffccfcfffffffffffcccccccccfcccffpfffp*   . .3uffffffffffcffcffppppffffffcfccgffffffppp0pppfffffffffppff*.. . *pp0ffspppppppppppfppppppppppppppppppp0000ppppppf0550fff00p0.  ..   5ppp0000550pp000000055500000000555500055005555555505555505.      .*51****1555<********<11=*551**#*****",
"**********.*.        *5555505<***55**155555555555555555555**55**50051*1*.....5*       9p005550000000505000000000pppp000pppp0pppp000ppffpppppp0p0*      .0pppfpppppppppppppffpfffpppppfffffpppppfkccfpfffpfppppccp05     .*pp0pfppfffffffcffpppffcfffffffccccfcfffffffffcffffffccfcf0..  ..0fcxccffppppffffffffffsppffffffffccccffcbcfppfbbccffffcccccf* .  ..0fccccccccffcffffffcfcccffffffccccffffffcccccccfffffcccfcfp+ .  .*ufccfffcccccffffcbccfffcbcfffccccfcfffccp1*ppfcccffp05000pp.   . *0ccpfccpfffccfcccccffcccccccffffffffffccccccccfffccfppffp0*     .*pfffffffffffpffffppppfffffffffpspffffpppppppfccffppfffppfp.     *pppffffpppppppppppp0000000pppppppppfpp00000pp0pp0500pfp50p0.   .   50p0050005000p00000005550000005555500055055555555555505505.      .*55***********1****11****551****1***",
"************.        *55**555***5551*555*555555***500005550055*555055505**5**05       50000000000000000000000000000000ppppp0pppp000ppfpppppppppp5       500pfpupppppppppppffpfffpppppfffffppp00pfcffppffffp050fp05*   .. *pfffpppfccpppfccfppffccccffffccccfffffggcffffcffffffccfccp*.  ..5fccccfffffffffcfcccfffffffffp00pfccccfccccccccbbcfffcccccbc5    ..5ffckccccccccffffffcccccffffffcbccccccccccccccccccffcbbcffp%.   .*0pccffccccccffffcbbcfffccccffffccccfffccp*5ccfppfcbcp0ppfff. ... .0cbpfccpffcccffcccccffccccccffffffffffffffffccffcccfpppfp5*     .5pcfffffffppfpffffpppffccfffppppppffffppppfppffffpppfffpfcp.   . *0ppffpppppppp000000pppppppppfffppppffpp0500ppp00000ppp050fp*       50p0550p00000000005555555055550555000055555555555555000505.       *555**********55115******1***..*****",
"551*********.       .*5****<*.15550555005555555****5555**50p00000000000000pp0p0.  ..  *000000000ppppppppppp00000000000ppppppppp0ppppppppppppp0pp5       500pfp0pppppppppppffpfppffffppfffffpp05pfffpppfppffpffbc0*       .0fccfppcMcppfcccffffccfffpppsfffccccffccccfffccfffpfccfccp<*  ..5fccccffccccccccccbcccfcfccfp5***0ppfffffccbbcfbMbccccbcccbb5    *.5pfcfffccccccccccccccbbbcfcccffffffffccbbccccccccccfcbbfff0%     *5pfcffcccccccffccbcffffcfcccffpfcccczfccp*5bcfffccbcfpbfppp555*  *0cbfcbcpfccffffccffffccffffcfffffffffffpppffcfppfcbfp0pfp55     .0fcccccffffffpfccffppffppffffffffffcfffpffcfcfpp00pfccfffcp    . .0ppfppfpfpppp0000pppppfffpppffffp0ppffp0000pppp0ppffp0050fp5       5ppp05pfp00000000555505500555505500005555555550005550p055*.       *55553*55555155555**********....****",
"**********.55*      .*55*********5555555115155*15550555555555555555050p00005505.      *0pp0000000055000000000p0ppp000000pppp000000000pppppp00fff5      .50pfffff00000p0ppffffppppffffpppp00055550ppffpppppppppp005*      *0fccffpfffffffffffffffffffffffffffffffcccfffffcfffpccffffs0. ...5fccffcfffffcccccccfffcbbcffp. pfp. 555pcffffccccfcccccccbbf5*.    0fffcccbbbcffcccccccccccfffcccffffffccccccccccfccbbccfccccc5.    .0ffccccccffffffpffccfcfffccfcfffffpfcfp0550fcffppfffcccffcf*    .*0fcfffccfffffffcccccffcccccfccfppfpp0000fffffffcpfffp050005  .%  5pfcccccffffpppfffffcccffffffffffppppppppffcfffppffffcfpppp5.    %5ppppp00pppppppppppppppppppppppppppppppppppppp00ppppp000000*       *0005500055000005050005555555500055055555555555555055590p*        *555555551****11******5*************",
"**********.55*      .*55551******555555511*<****5500555555550555550000p00005505* .    *0p0550000005500pp0000000ppppppp0ppppp00000000pppppppp0fff5.      *5000ppp00ppppppppppppppfffffpp00005550000pffffpffffp00005*      50ffpppfffffffffffffcccfffffccccfffffffffcfffffcccffccffppp0     *pcfppffffffcfcccfpffpfcbcfp055pfp5*00pfccfffcffffcccccccccp5*.   .0fffcccccccccccccccccffppppffffffccccccccffffffffcccfpfcfcf5.  . .0ccccfcccccccbcfccccccccccccccccfffccp5**0fcccffpfffccfffcf;   . .50p00ppfffffffffffccfffcccffcfpppppp05500pfffffffccff0000p5  ..  5pf00ppppfffppppfffffffppfffffffffpppppffffcfffffffffcfppfp0*    .5pppffpp00ppppppp000ppppppffffffppppp00ppppppp0ppppppppp000*      .0pp005000000000000000000055000000000055505555505550555500*        *55555555551*5555****55*********.***",
"**********.*5*      .*5555555511555555************55555555550055550000055000000* ..   *50055000000000pppp000000ppppppppp0pp000pppppppppppppp0pff0.     .*555500ppppfffppppppppppppfpp0000055550000pfffffffffp00555*     .5pp000pppfffppppppfffcfffffffcccffpffffffffffffccccfcfpfpffp.  . *fcfppfffffffffffppccp00pf055pfpu0pppppffffccfppfffffccccfffp*   ..0ffccccfcfffccccccfffppppppppdffffffcccccfffffffffccfpcffcf3.    .0ccccfccbcccbbcccccccccfcccccccccfcccf050pfcccccffffccfpfff*  .. .<50000pfccccffffffcfffffffppfpp00000050500pfcffpccccf0000p5   .  5pp0000pppppp00ppppppppppppfpfffpp0000pppppffffffffffffppff0*    .5ppppp0ppppppppppppppppppppppp00000000000ppppp0000pppppp00p5.     .0ffp00pp0000000000005555555555555000000055555000055555500*.       *55555555555555555***35*.*****<*****",
"**********%**.       .*5535555**;55*3***.........*53335555555555555500055505900*      .5055555000000pppp000550000ppppppp000000pppppppppppp0000pp0*   .**555550pp0ppfffppppfffspp0000555555555555500ppfffcffp0055555     .500555000p00000000ppfffppppfffffp00ppu0ppppppfffcccxzfppfccf%..*.0cccffffffffffppfpfbb0**55*.5fcp00pp000000ffcf00ppppppffppfcf5    .0fffcccffffffffffffppppppp0pppppppffffcccffppfccffcccfccfcc5.    .0ffcfccbbccccfcccfffffdpffffcccccffcccffffccffcccfffffpppfp*    .*59000pfcffffffffffffpppppp00p0000000050055rfccfpcccfp000005.     *0000000000005000000000pppppppffp5555555000pppffffffpppppfp5.    .5pp0p00ppppp0000ppppppp000955555551*500000pppp055550000000p9.     .0ppp00pp00p00000005****.....#*<555555055555555555**<55555*.       .*****555555995555******...**55***11",
"%%+%%++...***.         .*************+%.  .........*****555********5<55**55*555*      .*55**55500p0000p0055555550000ppp000000pppfp0ppp00005005505*   .......**55500pppp050ffpp005555;3****55555555500ppfffp00555555      *5***555055<585555550000000000000555595500000ppfffffp05ppfxp... .8xcbbbbbcccffffff00p05**555550pp055500p00pfccfp0500000000pfcf*     5pfffffffxfpfffpppp00000000000ppppfpffccffppppfffpcccfccffc5.     500p00pfcccccccffpp000000pppffffffpffcccccfpffccccfpp0pppf0.     ..%***50ppppffffffffpp0000055050550000555550pfffpffpp0555555.     *55...**555005555555**500000000005555555000000ppfffp0050ppp5.    .0pffccfffddpppppppp00055***9555555555*555500p00****5550000p0.      ***5*55555000055555***......#*.+*****555**.******%.*53;*5*..      .**.*****55505551*..........**5*****",
"..........**.            ......***%.%................+******%...*******..*5**55.        ..****55000000009533*<**55000000***555500000000005555*<55.           .***500p0055555555555*5555555509555555500pppp000000505       .  ..*55555000055555555555050000000000000000pppffff0**0000*     *0000p0ppppp00000005*55000055**00p00ppppffpp00009900000000p05. .*.   ...***550ppfffppp055555555555555000pppp055500005ppppfp0pp*.     .**5*15ppfffffffppp00000000ppffffpppp050upfppdfffffp00pppp0.           .*5pppppp0009pp000000550000000p00*500000ppp00055555555.      .....**355005555555555****33;55595555000005500ppppp0550000*      *5500000000855555555555=<55555555555*..***;555****5555005505.         ..*11*555555555************..*****55*%...****...*3*****#.       ... ..****555;5**.   ..   ..***..  ",
".............               ..  ............%%%%%.....+******.**.******..****5*.          ....**55555000553*=***55555555.****5555500000055555****.          ..****550095555555555555000000000050055500pp00550000005          ..*555550pp0000005585900000000000ruppp0500pppppp0550005.     .**.***5000055555pp5.5pp050000500ffp0000pp0555000000uuppp005.  .*.   ..*555000pppfffppp0550000055555595000000955000000ppup000p..      . .*550000000fffppp0p0p000ppffpppppp0500pp00ppfffp005pppu5.           .*50000000005p000900055000000000050ppp000pp0005000005*.        *5555555550000000005555555555555555500005550000005555005.      .......55********5555555555555**********;555555***5550005*5*.           .********555********..**********55***..*****..***.....              ...****35*+.. ...    ......  ",
"...........                      ..... ...+.%%%%%%....*******..%.******..*****.           .. ....****555*********5555*****5555555555555555555***.            .....**5555500000000055590000000559055559005555555555*          ...*...%500000000009990000000p000000pp0559000000000p005. ..   .  *5*5000000885p0*.5pp0500ppp55pfp555500055500000000uur005.   .    ...**;555500pppp00000u00u0000000000000pu0000000000p0p0550..        ...****35500p000000000000ppp00000ppp00p055000pp00550005*            ...**555000000555590555500000000050ppp0500p09550pp055.         ..********555050000050000000005555555500555555555555555*        .  ***555555555559955555355555555***5555500005***555555*.*.            .*....**********<*******************#..*****..**.. ..                  ...****.......     ..   ..",
"..  ..    .                         ..............................%****...*...                   ...*.***#..*********..*5555555555..**********..                   ...**5500555555555555*555;**5555****353*5555**..                  .**555555553;335555555555555555**5555***50505*** ..     .50959800000005. .55555050pp55505*55**500000555555555585*.               ....*55555555000005550up00000090095555550550005**5..  .     .      .*555555555555555550055*55000005*.**555555******.   .             .**555555****5555*5555553*55505555553353**5005*.                  ..****5555555555555555555555555055**********5**.   .    ...500**55555555*35*******5555555***555555555*...**.***..*    .        ..    ...#.*******************.**........*.....+.                        ......   ...          ..",
".. .....  .                            .          .....          ...... ...                          . ...............               .......**.                       ..*.    ...**......... ..*55*... .******..     .                  ..******......***............****...... .   .  ****    *..  .....%*..***.   ...*55*...*5*  .*5*.. .............     *.  .....      ..***......*... ......    .........*..**3.  .    .     .         .   ...***.*.*****.. .**.    .. ...****.......  ..                     .....****.******...**.   ...  %...***.                         ....**.   ....... ...  ....***..... .****.    .*.              ...     .............. ........              .   ..                 ....#.          .....     .     .  ....                                          .      ",
"                    .                  .          %   .                  ..                         .    ...   .   ..                              ..           .....          .  ..  .  . ..           ......                          ....   .. ..   ...     ...  ...      ...   ..            .... .... ....                .*.             ..                     .       .    .    ..    .        ...    . ....   .%.      ...             .      .        .       .               ......         .  ..  ..    ..       . .* 5...         .........                                   .*.....                     *.        ...    .    ....      ...   .......*.   ...               .                   .           ..                 ...                                                            ",
"**********1*******15555**5511*00005*..  .     .....  *555000000000000555555555505005550000p0000ppp0055**5555...**  .   *0000000000ppp0pppppp0000000000p0000000pp00000055555*****...*#.*.*0500000pp000000pppppp0000p00ppppp0000000pppppp0055=5555*.55* ...***5500000pppp000000pfppppffp0ppppppppppppppppsppp055****++%..   .*500pp0000pppp0ppppppppppppppppppp000pppppppfasppp05***55.****5.  .00ppfpcppppspppppppppppppfgp0000ppppppppppspppp0000005555****.. .*p000ppppppppspppppppp000pppppppppppppppsfpffp0ff055**55555**.  .*.f0pf0pffffpppppppppppppppppp00ppp00ppppp00pppp0005055*** .*.* ....*500ppppffspppppppfcfp00pppp0p0000000000000p00005******.... ....%**5000000555550000000000pp00000000555555555000005*......   .**.   .55550000555*55555*51***55555555500055111********.  ....          ****",
"000000pppp0000000ppppppppppppppffffp00555**%.... .. .5pffccffffffccfffpp00ppppffpfffffcccfcccccbbbccfpppppp05*.55*..  *0ccccccccccbbccccbbbbccccccccccbbcccccbbccccccccccfffppp5**55* ..5cccgcbbbbbbbcbbcbbbbbbbcbbbmMnnbbbbbbbbbbbbbbmcgfffzff0* 505...*50fcbbccbnnMMbbbbbmMMMbbbnMMMMMmnbbbbbMbbbbMMMMMMbcccffpp0005*.  .5fbMMbbbbMMMMMMMMMMMMMMMMMnnnMMMMNMmbbbnMMMbMMMMMMbcfffff505555...5cbbMMbNMmMMMMMMMnbbcccbbnMMMMnmMMMMMbbMMMMNNNNMMbccccccf05555**..0bbbnMMMMbbbMMMMMMMMMMnMMMMMMMMMMMMMMMMMMMbNMbcnncccffffpp05*.*.*05bcbMbNNNMMMbbbbbbbbbbbbbbMMbbbnnbbbbMNNMbcbmMbbccccffp00..**5 .*5*0fbMbcbMNnbbbbbbMMMMbbcbnMMmbbbccccccccccccbbbccccfppppp5*. .   .5pcbffcfcccccccccccccffcbccffccccffffffffffffffffp000005**..*.....5pfffccfffpffffffp0p0000ppppfffpppfpp0pppp0000pp0055555*.         *000",
"r00ppppppp00000ppfffffffffffffppppffffffpp05*.      .0ffcccfffffcccccff0550ppffcfccccccccccfffccbbbbcccccfp093.***.   5cbbcccbbbcccccccbbbMbMMMMbnbbbbbbbbbbbbbbbbbbbbMMMbcccff05595   .0bbMccMMMMbbbbbbbbbMMMMMMMMMNNNMMMMMMMMMMNMbbbMbbbmMmcf0. *55*..5pcbNNNnbMNNNNNNNNNVCNNMMMMNNVCNMMMMMMMMMMMMMNNVNNNNNNMbccfpp05+  *ucNNNMMMMNNNNNNNNNNNNNMMMMnbbbMMNVVNNMMNNNNMbbMNNCNNNMbbc0005*3 .*0bMMMMcbNNNNNNNNNNnbcccbbMMMNNVVVCCNNMMMMNNNVCCCNNMnmnbcf05595*. .0NNNNNNNNMMMMMMMMMNNNNVCCCCCCVNNNNMMMMMMMMMNNNMNMMbmMbcf0055*.5.5ppVmMNNNNNNNNNNNMMMMMMMNNNNNNNNNNNNMMbMNVNnbbMNMmbbbbbcfff5*350  *00fbNNbbbMNbbbbMMMMMMbbbbMMNMMMNMMMMMMMMMMMnMMMNMMMNMbccccp5*.   ..0fMMcccbbbbMMbcccbbbbcffcffffcccccbbbccbbccfffccbccffffp95*..   ..9fccfcfccccccccccf000000pfffccfpppfp0pppspsffffffppru005.         *0pp",
"0000000000555500ppffffpppppp00upppppppfp5***..      .5pfzffffffcccbbcc05**550ppfcbbbccccffppppffxccccbbcfp055***#... .0bMbcccbbccffffffcccccbbcccccfcccccccccccccccbbbMMMc0000555*%.  .*pmMNnnNMMMbbbbbbbbMMMMNNNMMMMNNNMMMMMmmMMNNnbMVNMMnbf05** .*3*. 3pcbMMMbbnMMMMbbmMMNNNNNNNNNNNNNNNMMMMMNMMMMMNNVCVNNMMbcfp00095+  *0fcbbcccbbbMnnMMMbnMMMbccbccccbMNNVNNMMNNNMbbbbMNNNMMbffp000055* .5cbMNNbMNNNNNNCNNNbczfgccbbMMMMMNNMbccccccbbMMMNMMnbczfp00505*.   0CNNNNNNNMMMccccbbbnnMMMMNNMMnbbMMMMMnbbbbbbMNNNNMMMczp05505**. .5pCMMCCNNNNNNNNMMMMMMMNNNNNMMMMMMMMbbcbMNMMnbnMMMMbbcfp0pcp0550  .0cbMNNbbcbbMMMMNNNNCNbbbnnMMnbMMMbbbbbbbbMbbbbMMMbbcfp00005***. .**0fcfpfffccbbbbccccbbbfp0p000pfbbbbbcfffcccfpffcbccffpp5*+.        *ufffcccffffcccccp55****5ppccccfppfp0000p00ppfpfppp05*+.          5000",
"0000p0ppp0*****5500ppp000555**0pffccfpp000555*.     .5pffccffpfffccccf0000000pfbbMbbcfffpppppppffffcbbbbcp0550p0*..*..0cbcfffccffppppffffcccffppppppppfffcccffffccccbbbbbcpffffccp0.  55pbcbbbMMMbbbccccccbbbbMMMMMbbnMMMMbcfffcMNNNMcffppfcbMMMc00053* *0fffcbbMMMbccccccbbbMNNNNNMMMMMMMMMMMMMMMMbbbnMNNNNNMMMbbbbMf5+  .50sffffffcbMMNNNMMMNNNbccccffccbMNNMbbbbmbbcbbMNNNNMMbbbcpfp0**.  5xbMNNMNMmbbbMMMMbcccccccbMNMMMnnnbcfffccccbbMMMMMNMcp000pffp5.. %pNMMMMMMbbccgcccccbbbbccccccgfffbbbbbcccccffcMNMMMMbffffcccp5.. .50NbbMMNNNNMMbbccbbbbbnMMMMbbbbMMMnbccfccMNNMbcccbbbbccccbbcp*5  .5ccccbbMMbbffffccccbbbMMMMMbbccbbbcccccccbccccbbbbccccccffcbc5. ...5pp000ppffccccbbbnMMMbfp0000pfcbbccfpppppp00pfcccccffccfpp093**.  *0pppffp0000ppppp05551150pfccccfppp00555555000pppffp5*......      0055",
"0000000000*****15500p005555**.*50pffffffczfpp5.      *00pffp55500pppp00000000pfcbbcfppp000000000pppfbbbcfp000pf0*..***5pfppppppp0000ppppppffppppppppppppfffffppfffcccbbbbcpsppfccp*   *50f0fffccccffffffffffccccccbcccbMMbcfpppfcMMMbcfffffffccMMfp53*% .0fpppfcbbccfffffzcccbMMNNMbccbccccccccccbbcgfcbbMMMbbbcccbbMf5.  .*0fczfffgcbMMNNNMbMNNNMcczffffccbMbccffcccfffgcbnMNNNNNNNbbf0..  .5fxcccfcczzffccccfffccccccbNMMMnbbbccffccccbbbMMMNNMbpp0fbcxp*...%0bcccccccffffffffzccccccccccgcfffgfffffffa00pcMbbbbcgcccbbbf3 5.*00MffcccccccgffppffgcccccbcbbbbbnbbccfppfcNNMcppfffccbbbMMNNf*5.  *fp000fbccfppfpfffczccbbMbbcgffccccfffffgcfapffccccccbccppcbb5.   .5pp000pppfffccbccbbbbcfpp0500pffffpp000pp00500pfccbbbbbfp00;.  ...*0p0000055000p000555555550ffffp000055*51**15550pfffp0*.*5**.      55<3",
"**55555555******55000055555*****5000pppffppp05    .  %555005555550005505000000pccccf0000055000000ppfcccfp0000pp5.  %**;0pp00ppp000p00ppppppppppppppppppppppppppffffffcffffpffppfcp%   *50p0fffffffffffffsffffffffgcccccbbccffffgccbbcfffccczffpcbcf5... .0ffppffffffffffffzzccbMNMbcccbcggzfffcczcbcfffccbMMbbccffccbp5.   *0fbccgfffccbbmbbcbbMnbccfgfgzcccbcccggzccczfffccbbMMNMbMbbf9**  .5fffcfpfffcffgzcffffccccccbNNNMbbbcccccccccccbbbMNNMcfpfcbcs5. . .3pffffgffffffccccccccccccccccccffffppfffffp0pfbccbbcgzfffccf5.*.*05bffcffffffffffffggggzccccccccccccffgfppcMMbcpffffffffgcbCNf.5.  .fp550fccfpfpppppfffffcbnbcgffffffffffassfppppfffccccccfpppff5     *pfp000ppppfffffffffffpppp00000pppp00000000000pppfffccf0005*   .. *0005005550000005555555550pfffp05555**55***15500ppp05*.*55*.      *5**",
"..***************55555**1555555555**55505*155*    .  .5**55*0500000055555500550pccfp000pp050ppp000ppffpp0000pp00%  ...*500pppppppppppppppppppppppppppffffffppfffppppfpppppfccppfcp*.. .*0ffzfpffffffffffpfffffffffcccccccczccccccfffffpffzcccfpfcbc5... .0fffffppppfccfffffzcccbMbbcfcbccggzffffccccgfcccbbbbbccffccc0*.   *0fcccfppfffccfffzccccfffccccccccccccccccccccczffffccbffcfcf5.**  *ffcccfbcccccccccccccccccbbMNMbccccccccccffggcccbbccfffcccf0*    .%0fcccccccccccccccccccffccccccccfffffffffccppfbfcccfffpppfcf0.. .5*cfcbcpfffffgccfccccccccccffffcczffpccffgcccffccffpp00ppcNNf.5.  .fppppffffpffpppppffppfcbccffffffpppppppppp000ppffcczffppppp0*  .. .pfp000p0ppppp00000ppppppppp0000000000000000ppp000500pp5555*  ..  .385000055000005****5555*50pffp055005555*****505055*+..*55*.      .***",
"....*********************55555**5555****05555*       *000pu000000000000555505550pp05**5000*50005550ppp00500ppp0p5#    .*500000000ppppp00p000000000ppppfppppppppppppppppppppff050p0.     5fffppfffffffffpppppppp000pppppp00ppppppp00ppcbcffffcfffbNNp*.. .5pkccfppfcccccccccccfpfffp0pfccfffffffffffffpffffffffffppfff5     .5pffpppppffccfpfccffffcffffffffppppffffffcccccfffffccfcccbf*     *pfcccfcfccbccfffccfffpfccbcnbcgffffffcccffffffcbfp00fccfpp0*  ...*0fffgcccccccccfcffffffffffccfcffffffffffccp00fppffpfcfccccu*   .*.ppfcpfffcfffffffflfffffffffffccgfppcccffppppppppfppffccfMbp.5.  *ffffffffffccffffffff50fffpppppfppppppppppp0p00pfcfp050pfcff0. .*.  5p0ppppp00000ppppppppfp50000500005500055000505555550pp0555.      .555*5555550055*.*550005*500p005**55**55*****150055***55005.       ..%",
"*****************<1****15555*******1555555555*       .500009000055000055555555555000000000500000000ppp000000p000.     .500000ppppp00ppppppppppppp00pffpppffpppppppppppppppfpppff0*      *pcfffffpppppppp00pfffpppfpffffp0pfffppppppffppfcccfppppfcb0. . .*0cbccp0pcccfffcfccfffffffffffffffffffffffpppffcffpppfffffff5...   *pfkfffffccccccfcfffffcfffffcccffpppffffffcffffffcccccccffp5  %. .0fccccccccccfffcfccffffffffgzzfffffffcccffffffccfffffffffcp*  ...3gffgccffffccffffffffffffffffffpfffcgffcccpfp5pcffccfffcccp5. ....*pffffccffffffcfccffppffffppffccgfppfffppfffffpppfffffffpfcf*.   .fffp0ppffffffffppfpppppppp000ppppppppppppppp000pfpp00pppfff0       5pp000pp0pppp0000000000000000pppp0000000000000005000050505*       5055055500555555555555****55555555555555******5555511*****.      ...%",
"****************11*****11*<***==***5550055555*       .*555555555555055000000555555000000000000000000pp000000pp05.     .5000000pp00ppp000pp0pppppp0ppff00ppppppppppppppppppp00pff0.   .  .5pfcccfp055550pfpppppppffffffffpsfcffffffffffpfcccfpppppfc5  .  5fccfffffgcccfffffffccfffffffffccccfcccccgfffffcfffffcfccxxf5....  *pfcccffccccfccccfffffcfffccccffffffffffffffffffccccccccffp5. .. .5fcfgcccfffffccccccccccffffffffffffffcccccccffcffcfcgffffcp*  .. *fffccckfffcfffffffffffcccfffffffffkffffccfcp50cfffcffffcf0*.  . .*pfffffffpppppffccffpffffcpppfffffpffffffffffcppfffffffp00fp.    .fffppppffpfffffpppppffffppppppfffppppffpppppppppffppppppppp0       5pp000pp0ppp0000000p00000000000p000000000000p0000000050505*       5055005555555555555555555555555555555555*<*****1**11*****..      ..**",
"...**************1*******<<***555555555555555*.      .*5555555555555550000000000500000000000000000000000000pppp5.      *0000000p000ppp000ppppppppppfff0ppppp000ppppppppppppp0pfp0.   .  %0ppfp00555550pppp0ppfffccffffcfffgccfffffffffpfcccffffffff5  .  5xccffkffzcccczcccffcffffffffffccccccccccccffffcffffcccccccx8....  3fccffffccccfcccfffffccccccccccfffffffffffffffffcccccccczfp5. .. .5fcffcccffcfffccccccccccffgffffffffffcccccfccccffffgzgfffcp*  .  +pfcccckffccfffffffffffccccccfcffffffffffcccp50cfffccfffff0*      *pffpfffffffffffcfffffffffpffcffffffcccfffffffpfffffffffp0f0     .ppfpppfffpfffffpppppffffpppppfffpppppffppppppppfffppppppppp5       5p0000p00ppp000000pppp000000000000000000000ppppp0000050005*       505500550555555550005555555555555555555511***************..       .**",
"...**************1************55555*555555555*.      .*55555005555555500000000005500000005500000000000000000ppp0.  .   *p0p00000pppp00pp0000pppppppfffpppppp000pppfffpppppfp0ppp0.      *pfp5* .*550pffp550pfccfffffffccffcccffffffpfpffffffffccfff5  .  *pccccffpcccckkcfcffffffpfffffffcfccccccccfffffffpfccccccfff5. .. .*pcccccfccfffcffffffgcccccccccffffcccfffffffffffffccccbccfs5.    .5fcffcccfffcffffccccccffcccfffffffffffcccfccccfffffffccffcp*  .  .0fcccccccccffffffffffffffccffffzcccffppffcc0*5fffffccfffp0*      *pffpfcccccfcfccfffppfffffffccfffffccffffffffffpffffffppfpf0     .0ppsfffffpfffffpppppfppppppppppppppppppp0pppppppffppppp00005.      5p0000000pppp000000pppp00000000000000000000pp0000000550555*   .  .50550055555555555555555555555555555555551=***************..      ..**",
"..#%************11******55551*55*1******55555*.      .*5555500555555555555550000550000000550000000000000000pppf0.  .   .pppp0000pppp0ppp0p00pppppppffffffppp0000ppffffppppfp00000*      *pf0*.*50ppffff0***50pfp00pppffcfffffffpppppppppppppfffcccf5  .  .5pccccfpfcccfcccffcffppppppfffffffffffffffffffffpffffcffffp5   . .<pffffcffcfcfffffffffffccccccccffcccccffffffffffffffcccccff5.    .5fcffcccccccfcffcfffffffffcfffffffffffcccfccccffppfffffffcp5. .  .5fcccccccffffffffffffffffffffffcccccffpffcf0*0fcffpccfffp0*      *pffffffffffffffpppppppppffffffppffcffffppppffppppppppppkpf0     .50pffffffpfffffpppppp0ppp0pppppp00000ppp000000pppfppppp00005.      500000000pppp000000pppppp00p000000000000000000000555550055*   .  .505500550055555555555*5****55555555555551=*****.*********..       .**",
"**********************15555555*<111*****55555*.      .*55555000550550555555550555500000005500000000000000000ppf0.  .   .pppp000ppp0000pppp00pppppppppffpp0000050pppfffpppppp00000*   ..  .50pfcffppppfffp0*..*5555500ffppppffpppppppppfppffffcccccc0. .  .5050fccfpffffffcccffffffffffccffffcfccffppffffffffffffffffd8.    .*pffcfccffffcffffffffffcccffcfccccccccfffffffffffffffccckkf0.     5fcffcccccccccffffffffffcccffffffffffcccffffcfcfpffffffffcf0. .  .*pfffccccffffffffffffffffccffffffcffppppfcp00pcbcfpccffpp0*      *pfffffffffffffpffffffffffffffppppffffpppppppffffffffpppfpp5      *0pffffffpffffpppppppp00pppppppppppppppp00pppppppppppppp0000*      500000000pppp0000000ppppp0p0000000000000000000000005550055*      .*5550089005555555555555****555555555555511*****#****55***%.       ...",
"**********..*********15555555511155555**55555*.      .*555550000050000005550000555000000055000000000000000000pp0.  .   .pp00000ppp0000pppp00pppppppppp00055**555pppppfpppppp055505   *. .*50pfpppppppffffp5***5555550pffppppppfffpfffffffffcccfccfc0...  .50550pppffffffffccfccccccccccccccccccccfffccfccccfffccccfcfu*  ...5pffccccffccccffffffffffffffffffcccccffffffffffffffcccccfff0.    .5fcffccccfccccfffcccccccccccfffffffffcccffffffcffffffffffff0* .. .*ppppffccffffffffffffcccccccfffppppp0550pf00fcbbbcffffpp003      *pffffffffcfffppfffcfccfffffffffpfpfffppppfffcccccccfffpfpp0      *0pffffpppffffppppppppppppppppfppppppppp0pffffppppppppppppp05    . 500000pp0pppp000000000000000000000000000000pp0000000050555*       *55500890055555555555555555555555555555511*********11****%.       ...",
"*****%%........%#*****35555555**;555555555555*.       *555550055000000000000555555000000055000000000000000005005.      .00555000pp0p0p00pppp000pppp00555*******5000ppppppppp05*505.  .  .50000000pppp000ppp000p0000590pffpppppppppfffffffffccfpffff0*..  .5p005550fcfzzcccffccccccffffffffffffffffzcccffffffffffcccccp5   ..*pffcczczzffkccccfffppppfpppppfcccfffffffffffffffffcfffffgf0.     5ffffccfffffggcxfccccccccccffffffffffcccffffcczcccfcfffppff0*     *pp000pccxffffffffffffcccffffpp0000055500050xbcccccffp00005.     *0ppppppppffpp00pfffffffffcffffcffppppppppffffcccccxfpppfpfp.    .50fffpppppfffffpppppfffpppppppppppppppppppffffpp00ppppppppp05    . 50000000upppp000000055500555555550000000000000000ppp050555*       *55500000055555559885555555555555555555555**************...         .",
"****%....    .......***3**1=**#**355555595*55*.       *55555900500000000005555515500000005500000000000ppp0055505.      .55555550pp0000p0pppp00000005**55******55500ppppapp0p05*109.     *pf055550ppp05**50pppppp000**50pfpp0000000pppffppffcfp00ppf0*.   .5ffp0555pfczzzffffccffffppp0pppppppppppfcccffpppppppffcccccf9    .*0sfczczfzffxcffffppp00000000ppfcffffffffffffffffffffffffzfp*     5ffffccfffgffffcfcccffffffpffffffffffzccffffccfcccccffppppp0*     .0p5*50fcccffffffffffffffpp005555000555005.5ffpfffcfpp05000*     .0p0005500000055000pppp000fffpfffp05000000pfffffffffpp0pppcf..   .5pfffpppppfffffpppppffpp00000000000550000ppffpp055000p0ppppp5    . 50000000ppppp0000005555555*55555500000000005555000pp050505*       *55500000055555555555533**1555555555555555*****1<****......          ",
"***%..           ...%%*******...%**3555555;353.       .51*5559555500005555******5550000000550000000000ppp005*555.      .*****5500000000000p00555555*.*0551*=5509*50pppfspp0p0**5u0.      *5509**5555005550055550500.  *0p055**155500ppppppfff0550pf0*    *0fffff055pffffffffffpp00055555050050555pfcffp05555000ppfffff0     .0pfffffffffffffsppp0555055550pfcfppffffffffpppafpffffdfffcp*     5ffffcccfffkcgxcfffffppp000pffffffffffffcfccccfcccffppp00pp0*     .005.*9pcccffffffffffpp00055***50000000pp* *pp50ppfffp05000*      *555555000r0555*55505555500500pp0*.**155000ppppppp005550pfp..    5pffppppppffpppppppppp00055************500ppp05***0000000pp00    . *55000000p0ppp000055*********15550000000005****55500550005*       *555555555555555*****+***.*5*5555*555*5555*****11***.......          ",
"..%%.    . ..... ..... ..**... ........*5*****.           .****555505505*****55***55055500.*35500p00p000555555p5.           ....**00555555005551555**10555005**500550pp005*00*.*05.            ..**50000550000350005*....****500555500pppspp055550p0.   .*0ppppdp5.*055500p0005550pp00555*5500p050pp00000000000000ppp03.      .****55000pffffpp005550p000550pp050pffpp00000pppppppppffp5.       ..*550pffcfcffzffppp0000050pfffpppp0pppsffcccccffpp00ppfp5.     . ....**50pffpp00000000005***50500p000ppp55555*50pffp055000*         ..  .**55005500005**155**<5000055555555550ppfpp055550pp5      390p0000pp0000000000p5*555**5055*15555555555551***5555055555*.          .*****5000005**.**.555**551*5***5555**515***<55555555*           ....#***555553.......***.*55* .5*...**5555551**.. ....           ",
"  ...   .. ..... ..... ..**.............*......           ....****55555***.****.**155*.*55#**55500000055*****5p5.          ..*****5555555555*****555**5***55535555**55053*105***05.          .*****5555505555**500555555****.50005*550000pp055*55005.     .355550*  ****55000u0000p055*500500pp05500000000005555550005*.  .   .*5500000000p0ppppp00000p00550p0550ppp00005500ppppppppp00*          **3550ppffpffffpppp00000pffffp00000000pppffffpp000000p5.        ..***550p0p000000pp00p005550p00p005500555051..*0pu0855505.         .*50000005550005***50p009500055555555555550ppp055555505*      .*555**5000055555550p5**55**505<**5905555555555555*;<5555***..         .*5***5005590555555*555**555*****553************55555**           ..*******53*35*.%++.**3*****.  %.  ...********...  . .           ",
".....    . .........%...**+....................               ....****......*******<**..**.**5555555555555****5*             ....*3355555555**1115<5551***55555555**5555<5505**55*.          ..****1555505555535000000055***.50005*5505000000555005*       .**.*55..*5555555000000p005500000ppp0550000000000000005055*.       ..****555550000000005000p0000000000ppp000050000000uppp005.          .****5000ppppp00000p0ppppfffpp055500000ppppppppp000005*.         ...***55000000005000ppp000pp000000900050pp0* .500000500*.         ..*5555005050055***50p00000005555555555555000005555555*.        .**..*555555*5555503**50550053**50005555505555553*5555***.           ..*+..**555555**1***55***55*****555**;5**************..            .......+.........%..*******.  .. ..............                 ",
".....      . ..   ..................%%%%.......                       ......****.**3**%***..***********<11****+.                  .+**11****5555****555***15555555**555555551****.             ...**55555555555559055555*****55055*555550000055005*.       .*..*55*500005***550000p0000005500005550000000000000505555*              ..***5000055***50000000055000p00550055555555500555*.   ..      .....**550005555000ppp0000000555000000000000000000583*.               ..5000055***5500000000055505555050pf0*..*00000055.               ..*35505500955555580000555555555555555555555=555**.  ..     ....***********1555*150500005***555**5555555*55*555<***.                    .5555**..******.*1**...******************.  .                      ...    ...  ..**%**...** ..         .                   ",
"       ...                       .......                              .**%.    ...#**.....  .....   ...***....                        ......****....**5**#***...***********...*.              ...       ....**...*3**....***..***..*******5****55*         .....*555*****...*5555555******..***..***********==*****...       ..          ..***5******5551******555****************.....    ..            . ..**50555555*5*...*****+*******************%..   .              .****55555..**1******...***.*5*1505.   .**55**.                    ...5550005*%..************..******......++....            ...****.******555****....51%.....  *****#....***....                       ......****..   ....   .... .#...........   ..                     ...    ....  ....  . .*.                                ",
"                                                                                            .         ......     ....   .       ..                 ......                .*. ...      ...               *.   ....    ... .        ....        ...       .....   .....               .......                ..              ..............     ..    ....     ..%**.. ............                                      ...                       ....  .   ...      .....         ...   ...    ....%.   .             ......+...      ...        ..     .......                        .               ..***+.    .              ..        .......   .....            ....  ...                          ..   ...             ...                             .              ...                             ",
"+%..                .*******............**********.......************.  ..   ...     .****35555555**55555*553****55555*555*+***5555**********..    ..  .+****11*=5555***550**505*+*55505555555***<555555**.  ...       ..*5555<**555055555***1555555=5500000555;55500055***. .+... ..... ...++**5555555555555555*******55*15555****5550005551***.  ..**.   ..*50005555555050550055==500555005555555550555555=**........**.    .*55555555*****505555555500550005505555505555555****++++.......  .*5005**5555***505***55555550005555555505=*=*555505*....... ...    .*555555555555=**=55555=5005555555***500005*+..**.... ..   .#.      ..*555555555***5555555***555555555555**5555****...     .       ..*55****555************1555***<1***********...***..    .           %*..*******...****#...*..........***",
"5***.**...          *5000900005500000000ppppp000pp000ppppppp000000000000053*..       *0pffppfffffpppffpppp0ppprppppppppffpp000ppfffsppp000ppp0**..... .30ppppfffffccffpffcfppfcfppffcffffffzccfffccccccfppp0ppp5*.*.   .*0fccffsffccccccczffffffffccccccbbcczfffccfcccfffffpppfp05***.   *500pfgcccccccccccccccccgzgzffccffcbcffffffcccccccfffffp005555*.  .5pccccfccczzccccccccccccccccccbbbbccccccccccccccffpfffp00555<..  .5pgccccccccfgccccccffffkcbcccbbccccbccccccbccccffffffff055*****..*0fcbcffcccgfpfccczfccccccfffcfffffggcccccccccccbbffpppfp0*....  .=0fgffffffffffgffffzgffffccccgffcffpppfcccgfzfpfff00000005..**.   .*50ufccffffffddsfffffffffppfffpfdpfsffpppdfffppffpp000055*.....  *5ppppppffffppppppppppfffffpppffpppp00pppp00000pppp05*****.    .   ;pp0000000000500055***555555555555500",
"555555555*.         50pppppfppppfffffffffffffpppffffccccccccffffffffpfcfdp55*.      .5fbbbccccccccccbccfppppffccbccfcccbbccfffcbbbbbbcccfffffp5****...*pcbbbbbbbbnMMMbcbMMbcbbMbcbbbbbbbnnMMMMMMMMMMbbbbMbbbbbbf055*.  .5zmNMMbbbMMNMNNNNMMbbnMMbMMMMMMMMNMMmbMMNMnnnMMMMMMMbbbbf05=**. .5pfcbbMNNNNNNNNNNNNMMMNMNNMNMNVCMMNCNbMNNNNMMMMnMMMMMMbbccp0003.  *0cMMMMMNNNMMMMMMNNNNNNMMMMMbbMNNNNNNNMMMMMMMMMNNMbbNCNbcfp055*.  .0cMNNNMMMNMNNNNNNMbccccbbNNNNNNMMMNNNNMMNNNNNMMMMMMMMMnfp05*553*.*pbNNMMMNNNNMMnMMMMMNNNNNNMMMMbbbbbmMMMMNNNNMMMNNMMbbbbbcp5**..  *0gnNMMMMMMMMMMNMnnnMMMnbMMMMMMMMbbbbccbMMMbbNMbMMMcffcccf0*.**.  .5pffcbMMbbbbbbbbbbbbbbbbbbbbbbbcccccccbccccbMbbbMbccccckfp5..... .*pcccffcbbcccccccccccbMbcccffcbcffffffxfcfzfffccccccpp005*...  .  .5fcfpffffffppfpp055***500000ruuu000pp",
"ffp055**. .         *50000ppppppfffffffffppp00000ppaffffffffcccccccccfp00555**.      *pfccfccccccccccfp00500pfbbMMbbbbbbccffffccbbbbbbbccffp05...**...;fMNMbbbbbccbbbcccbbbbbbMbbMMbfcbMMMMmbcccccbbMMMMbcfp00p0***.   *0cmMMmbbnMMMMMNNNMmbbbMMMMMMNNNMbmMbbbMNNMMMMMNMMbbccfpp0058005%.9fbMMnMMMNMMMMMMMMMMMMMMMMMNMMNNMMMNMbbMMMMMNNNNNMMMbccfp00000*   *0cMMMMMNVVNMMMMNNNNNNNMbbccffcbMMMMNNNNVNMbbmMNNNMmbbcfsp005**.  .0cMNNMMMMMMMNMNMbcfpppsffNNNNNMMMMNMMMbbMMNNMMMMMMbbcfpfp0555**..*pMVNMbbbMMMMMbbcbbMbbMMNNNNNNbbbMMMMMMNMmbbbbnnmbMcfpppp0555*.  *0fbNMMMMMMMMMMNMMbMMMMMnMMMnMMMMbbMbbbbMNMnbMbbbbcpppp0p05*.**.  *0gcccbMMMMMMbbbbbbccbbbbbbbbMMMMMbbbbbbcffcbbbccMbcffp055**..     *0ccffffbbccccccccccccbfdp000pfcccccfccccccfffffffppp055*.         5pfppfffffffffp005....*50ppppppppp055",
"pppp000555005.      *55555000pffffffpfffbzp5**500ppcMbd0pffffppppfccccfccffp0*.  .   .0ffzccfppppfccfpp050000pccccbMbbcffpppppfccbMbccbMMcp000pp0*%*..5kMbbbbcbMccfffffppfcccccccccfffffffzcccffffcbMMMMMbcccccccxp.  .00bMmMmbMMMMMMbbbbbmMNNNNMNNNNNNNNNMbccbnNNNCNNMbbcccbbbcbMMbp*. .5fbbcccMNCNMbccbbMMMMMMbbbbbMNCCNMMNNMMMNNNMbbmMMMMMMNVNbfcMbp*   50fccccccnNNNMMMMMMMMMNNMbcffccbNCCNMMbMMNMbbbMMMNNNMMMbbcfp0 5*   0cMMNMnbbbbbMNNMbcffpfsppMMMMMMMNNCbcccccbbMMNMMMNNNbfpfppcf05*..%cMcznMMMbbbccfffffcbbbbbbcbbbfffcccccccbcfxcMNNNMNMbkfcbbbcp<  *50fbbnMMMNNMMnbbbccbnMNNNNNMMMMNNNNMbfffbMNNNNbbccppfccccffcf05.  .0fgppcbMMMbccfffcxfcbMbbccbnbMMMbcfccbMbcfffffccbbbbbcffppfcp5    .5000000pfcbbbbccccffcbp0000*5pcbcffppppfffpppffffxffbfp05**      .5pp0ppp0000000pp05555***50ppu0800p0**",
"0000009555005.      ******5500pppppppppfcf0****5550pfp5*000055550pfcffccccffp5.      .5pppfpp0000ppffp0055000pfccbbbccfp000500ppffccccbbbfpp00pp0*... .0ffpff0fcgffppppppppfppppfffpppppaaffffpppfcbnMMmbcfffffccf0   .15zccccccbcccccffffccbbbbbbbbbbbbnbbcffgcbMMMMbbcffffccbcbNNbp5.  *fbbzfcbMMbccffgcccbbMMNNNNNbcMNnczgccccbMbcczcbMMNNNNMbcfcbb0*   50pffffffcbMNCNNNNNNNNNNMbgffffcbMmbcffccbcffccbMMMNNNNMMnccf.5*  .5fbcMbbbccccbmMbbcfffffppbMMMMMMMMMgffffgccccbMMNNNMbcffppcf93....fbfpcbbbbbcccfffffgcccccffccffffccccffcccffcMNNMbMbcfffccbc0*  **5pcccccbbbcccffpppafzcccbbbbbbbnMMbcpppcbMMMbffgf00pfcfccbbc03*. .0pf00fccbbcfppppfp0pfcbbbbbcfccccfppfcccffp00pffcccbbcfpppfcp*    .<000000ppfcccccffffpfcp0000**0fccfp0550005550pspfffcbfpp055       *00000055155550u55*55*..*0ppp055505**",
"55505055**505.      .*******55000p000000005****5**505***005*5***50ppppfcccffp0*       *000000555500ppp05550000pfbbbcfppp0555550ppppfcccgppppp0pp9. .   ;pp0pp5pfffppppppppppppppppppppppppspffppppfgcbbbcffpppfffp5   .**pffpfffffffffpppffffzzfffffczcccczfffffcccccccffpfffccccMMbp;+  *pccfpfccccffspsffffcbbMMMMbcfcbccfppppfzccfaafccbMNMbccccccc5*   550ffffspfcbMMMmbbbbMMMbbcffffffcbcfffffccfffffccbbbMMNbMbccf*5*  .5fgfccccffffccbcccfffffffbmMMMMbcccfssfffffggcbMNNbcccccppfp5*. . pca0gccccccccfffccczccfffffffffffffffffcffffbmnbcccfpdfffcf5.  *.*0fgpffffffpppp0000ppppfcggffgzcccffpppfcccccp0ff055pfpccbMc5**.  5pf00pfffffpp000pp00pfcbbcfp0pffp000pppppp00000pfffccffp00pf0.     *0000000ppfffffpppp0pf05000**0ppp05551555***50000ppfcpp0055.      .*55555*******555**15**.*00pp05******",
"***55551**15*.      .*******155555555555**.**5055555*#.1005*055**55500pfpfppp9*.      *5055555555550p0005550000fcbbfp00p0000000ppp5pcccp0ppfp0005      *000pf0pppppppppppppppppppppppppppfffffffppppffcccfppppffpp5 . .%.ufdpppppppppppffffpffffpppfppfffffffffffffffffffpfffccfcbMbp**  *pfcfppffffffffffpppfffccfffzcffcccf000pfffffffcfcbMbcffcbccf3.   5*0fffffffcccccffffffcfcffffffcccccffffccccfffffffffcbbcccffp.5*   *pfpfccffffffffccffffffffcbMNNnccffffffffffffpfbMMcffgbcppf0*.. . 0fppfccfffcccfffccccccffffffffffffffpppfffffcbccfpppfffffff*.  %..5ffpppppppp0pppppppppfffppppffffffppfffffffc00ff0*5pcpffcbc5*.   5pfp0ppppppppp00ppp00pfcfp0500pp0050000000000000pppffpp0000p5      .00055550ppp000005550p55000555055****15555**5555550pf000555        *5************5******#**50pp05*...**",
".****5*****1*       **55****15*1<55***55..**5p005<5****50059000555555500005005#       *5055500005550p000000000pfccfp0000pppppppppp50fffp00pfp0p05     .*0ppfcpppppppppppppppppppppppfffffffffccffpppppffccfpfffffp5 .....0psppppppppppfcccffffffppfffffffffffccccfffffffffffcccfcbbc0**..5pccfppfffffccccffffffccccffccfsfccfp0ppffcffcccffcccffcbbcdp*.   *.0ccccfffcccfffffffffppffffffccbccffccbbccccccccffffffpffppp *. ..*0dppccffffffffffffffffffcbMMMbcfffcccccfffffppcbcfppfbcfff0..  . 5ffpfcxffffffffccccccccccccfcffffffppppffffffcfffppffccffff.. .*. 5fksppffpppppfffffpppfcfpppppffffffffcfffffcppff050pfpp0dbb0*.   5pfppp000ppppppppppp0pppp05500ppp000p0500pp0000000pppp005505.      .000055500000555555555550005555*****5500055555555550p5555**       .*5**************.*******590005*. .**",
".**********1*       **551**************55555000*...**15***5055555550005555555**       *55500000000000000000000fppp0p00550005500000000pppppppfpp0*      .5000p000pppppfffffppppppppppppffffffffpppppppfffcffffffff0* .    50pffffffffffffccfpppfffffffffffffccccccffffffffffcccfffccf0**..5pccffsffffccccccfffffccccbbfpfcfp550pffffccccccbbcffffcfffpu..   *.0ccbccfffccbccccccccffffccffppfcfppfccccffccccccccffffcfffp..  ..5pfpfccccffffffffffffcffcffcbczffffcccccfffffffffcfffgccfff8..  ..5pffcccffcffffxccccccbcccccccfffffffpppffffffffffppfcccfffp*. .*. 5fccffffffffffffffppppfffpfffffffpffccffppfcffp0*50pppp0pbbp5.   5pffppp00ppffppppp00ppp000pp0ppppppppp00ppppppp0000000005555.   .  .00000555000055555555555000055000055555555555000pp0505555**       .*5555555551*****.********15555**..**",
"#**********<*       ..***********5****15*55555*.. ..*55*.*505551**555550555595*.      *55555000005050000000000fp0500p0000000000000p000pffpp0fpp0*       5000p000ppppfffpppppppppppppppppppppppppppppppfffpppppppp0*      30pfffffffffffffffppppfpfpffffffffccffffffffffffffffffppccf5*...*0fccfpffffccccccfppp0p0pppfppfcf055pffffffcccccbbfppfcccffdp*.   . 0fcccfffffcccffffffffffccccffffcffffcccfffffccccfffccfcccff#   ..5pffcccffffffffffffffcfcffffcffffcccccfffffffcffffccccfbkff9..  ..*0xxcccffgcglffcccccccccfffffffffffffppffffffffffppffffffpp.   .  *pfffffffffffffffppppffpfpfffffffppffffppppfpp0*.505*500fcf*..   *pfpppp000pffppppp0pppp050pfppppppppp000pppppppp000000000085.   .  .0000005550005000050555000000050000555555555550000550555515.      .*3555555551********1**1**..***1*****",
"***********<*       ...***.*****555**155**55*....****555**5055555**5*5000555055.      *55505005500550000000050p000000000000000000pfp00ppfpp0p0p05       0pp0ppppffffpppppp0ppp00pppp0pppppppppppfffpppppfppppppp00*      50pffffffffffffffffffpppppffffffffffffpppffpffffffffffppffp5.   *0fccffffffcccffffffppp00000pfcfp0pfcffffpffffffccfppfcccfffp*.   . 0ffccffffffccfffffffffffccccccccccccccccfffffffffffccfccfff.   ..*uffcffffffffffffffffccffffffffffcbccffffffffcffffccccfcfff0..   ..0ccfcfffccccfffffcfccfffffffffffffffffffcccffffffffsfffpp0.   .  *pffffppppfffffffppffffpppfffffffpppsppppppp0055*505*500pf0      *0ppppp000pppppppppppp0000pppp000ppp00pp00000000000000000000.      .500000055000000005005005550005555555550550055*5555505555*5.      .*5555555<**********=*****....*53***#",
"*****...*****        ..*****11<5555*1555**53*. .*50*.*005555555555555500055555*.      .55500005550000000000055000p00000pppppp0ppppppppppppp000p05       pfp0ppppffffppp000ppppppppppppppppppfp0pffffpp0pfppppppp00*    . 5ppffppppppffffppfffffppppfffffffffffpppfffffffffffpfcppffp5.   .5pcccffffcccffffffccffpp000pfcf00pcbffffpfffffpfffcfffffcfcf*.   ..0ffcccffffccccfccfccffffffccccfcccccccffffffffffffffcfcfffp.   . *0ffcfpffffffffffffffffffccffffgccccffffffffffffccfffffcfff0..   ..5ccfcfpfccccfffffffcffffffffpfffffffffffcfffpfffccfpaffpp5%.     .pffffpppppfffffppffccfpppppfffffpppppfpfpp0**5000p055550p0      .500pffp0pppppp00ppp000p0pppppp00pp000ppp0055000000000000u00*       590000000055500500000005<50055*15555555550055*155**05*55*5.       *555553*************.#***....*5**%#*",
"****#.....*1*       ..**555555<55555*5555905*  .*0p*.*5p055*555550000000555555*.      .550pp005000005500000055*0ppp050pp0000000000ppfpp000pp0500*       0fp50pppffpppp0000pppppppppppppppsfffp50pffffpppffppppppp0*    . 8pppppppppppffpppffffppppfffffffffcffpppfccfccccccffffppff0*    .5pccccfccccffffffccccccffdp00ff050fcpfcffffffppfcbbcfp0pffcf5.   ..0fxcccccccccccccccccccccffffffffffcfppppfpffffcccccccfccfff.   . .0pffpppffcccffffffffcfffccffffffffcccffffcfcpfcccfppffcfff0.    ..5cbfcfpfbcccffffffccccccffffppffffffffpfffffpffcbcfffffpp0*.     *pffffpppppffppp0ppffffppppfffffffpfpfffffp0**0ffffppp0350p..    .50pdffppppppppppp05550pffppfpp0ppp000ppp0555000000000000000*       550000000555555555000005**005555000555***555555005*0*****5       .*555553*************.**3*...****..**",
"***.......**.   ..  ..%*****..**<5555555355*..*;559555555555555555555555000055*. ...  *555000000555500000ppppp000pp00050ppp0p000p000000ppppp000p5.      5pp00ppppp0000uppp00ppppppppffpppp0000000ppffpp00pfffpp05*.  ..  .0fppppfffffffffffffcffppfffpppppffffffffffffffcfffpffffcf0*    .5pfccfppffffffcccffcccfppppffp5500pp0pffffffffffffcffffffccp5..   .5ppfffffffcbbcffffcccffffffffffccfffffffffffffffffffpppcbbp.    .*0fcbcfcccccfccppffcccccccfffffffffcbbbbcccccffffffffccffcfp*     *0fcfffcbcffffffcccffffffffffffffffppppppppfffffp0pfffp00p0.  ..  *pbfppppffpppffppppffffpppppppppfffffffpp00.0fccp00pp0pp005.   . .5pspfffpppppppppp000000ppp00000000000pp00000000pp0005555505.      .*000058555055**55000005555505550005555555555550555555**50*       .*555555*************1153******......",
"33**++%%*****        ..*****##***1555555*5<...*3**5555555555555555555500000005*.  .   *5555000000555000000pppp000000000000000000000000pppppp000p5.      *0000pp0000000ppffpppppppppppp00005555000pppppp0ppffpp0055.  ... .0ffppppffpppffpppfffffffffffffffpfpfffffffffffffffffzffccp5.   .3pfccffffffffffffcccccccffp0053550055pfffccfcfffffcccccccccf5.     0ffcffcccffcfffffccbcffffffffffffffffffffffffffffffffppcbbp*    .*0pfffcccccgffcffffffffffffffccccfffffffffffffffffffffffcccp5.    *5ppp0udccffffffcccfffffffffffffppp000000ppfffffpppfzf09550.  ..  *pcffppppppppffpfpffffffpppppffddpppfff0055*0fcfppppppfpp00.      5ffppff000ppppppp000pppp0000pppp0000ppppppp000pppp000000000*      .50p00000550555555000505555555500000555555555555555505**50*        *553**************************.**...",
"****+%*******.       ..*1********155555*#**.  .**.*<555555555555555555000000055*      *500550000000000000000000000p0p00000050000000000pp000000005.      .50550000pppppppppffppppppp00555555**15500ppppppppppp00555*   .. *0fppp0pppp00ppppppppffppffffffffpppppfppppffffccffffcffccf0.   .5pfcffcffffffffffcccfcbbbfp55550ppp00ppffccccfffffccccccccff0.     0fcccccccffffffffcccfffpfpppfffffffffccfcccffcccffffcfffccp5.    *0pcffxcccccfffccccccfffpfffffcccffpffffffffffffcffffffffccp5.    .5pp050dccccccfffcccfffffffffp000000555000ppffffpffcfp55**5*   .  *0ffpppppp000ppppppppfffppppppppppp00p055555pfffpppffpfpppp*     .0ffppppp0p0p0000pppppppp0000000000000tpppppppppppp00000000p5      .50p00pp0000005500505555******5555505000008555555555553550*.       ****.*******************%%*%%.****..",
"*......******.       ..**1515*****5*5***...   .%..***355555055555555550055555595      .5005559000000pp00000000550000pp005500000ppp000ppp000000005.      .55*5500pppppp000ppppp000005555**15**555500ppppppppp0555555    . .0u0080000000000000p0ppppppppfffp000ppppppppffffccffffppfff0*   .5pfkfffcccccfffffccfffbbbf05*50ppfppp0ppffccfffffffffffccffc0.     5ffcffcccfffffffffffpppp0ppppppfffffffcfccfffcccffffccffffp0.    %0fccffffcffffffffffccfffpppfffccfffffffccccccczccffffppfffp5.    .50000pxbcccccffffcffffpfpppp05555555555550pfffpffffp05***55      *500000000005000000ppppppppppppppp05*****500pfppppffp0ppppp5.    *0fppp00pppppp000ppppp00000050550555550000ppp00000000000000p5       500000pp005500005551*****.****35555050000053**3*55555*<505.       ****...******3*1<******....%..****..",
".    .....***.        ..***1***********% ...  ....%%***5555555***555**5555*5550*      .*00***5590000pp00000555555000pp00000000ppfp0ppppp00555005*       .**.*3550pppp00000p000555555*****5555555500pppppffp05555505.     .55**35555599555550000055500000p05050000000pppfffffffp00ppp5.  .*0pffsffcccccffffffffppdpp05..*5000550550pffffppppppppppffpfcp.     *00pppdffffffffffpp005500500000ppppfffffffpppfffpppfccppppp0.    .5fffpuppfffffffffffffffppppppffffffffcccccbbcccccffffppppp0*.     *5055ufbfffcffpppfppppppppp0555555555555500pfpppfffp5****50.     ********555555555550050000000000005*....*500ppppppfp0500000*   . *0fppp0pffpppppppp00000555511555*<*<***55500055555555555550p5       *55555000555500555*****%...*******555500093*%.****15****5*.       .**....*****55551****.........****..",
"      .....**.          ..****.*******.. ..   .......****355***.*************55*       .5*.***555500000055555**5500000005550000ppp00pppp00555005.        ....***000p000505005555***1555550005555500pppppppp05555505.      ....**5550005555555555***5555000555555000000ppffffsp0050005.   .5ppffkccfffffpppp00p00*...*..*55555555550pppp000500000ppp0pf0.      .*500upppppppppp00005555555550000pppppppp0550pp050pffp00000*..   *505550pdffccccfffpp00550000ppffffpppppfffffffffffffppp0p05*.     .**..*5000ppp000000000000555885000000055550ppppppp005555555.     ..  ..**<555055555555555555555555...*5555550000pppp05555500*      50u0pp0ppp00000005555****#*************15555555*******<***05        ..*%******550055*.%***....**...%****55505*.....%*****.***.        ... ....***333*****..........%**%..",
"..    ........           ..... ...**%..........+**.....******....***..***.*****.        ......**55500055551*****15555555**15*550000000000555555*.        ..  ..*550000055500095555555555500000555550pp000000555555*.         ..***50005555005005555555000050555000000000pppp00055005*.    .*5550pppppp00000050p5%  .55000p0000p055500p00000000000pp00p5        .*55900000pppp0055000050000050000000pp000550pp0550pp055583.      **.*550ppffcbcfppp000550000ppffpp000000p0ppppppsppppp00005*.      .....*5500pp0000p000005055500000000005555000p0000555550051           .***590055000005505555555555..**505000555000005*505555.      .***5<*55555555155555*****************1555555555******3<**5*             ....*550055**.**%....**....*****555*..........*.....               ....*******...  ........#%...",
"...   ......                    ......... .....+**.........**.........*...**...           ......**555555*********1***************55555005555*5**.            ....*55555555559555555555555500555**5550005555555555*.           ...***55*55555555555555555555555550000505000008505555*.       ...*5500500555555005*..*000000000000555500000000000000p005*        ..***55*000pp0055550000500005550055000000000p000550p05555.       ...***5550ppfppp000000000000pppp0000000000000000p00000005*.   .    ...*****500000000000555555000000055555*5550005555*550005.           ..***35555000005005555555555****555500555555505*505***.  .    .  ...**********55555555*;**1**1111*5555555555551*******.*.                 .**555**#.**......%....*.******...........**..                    ..........   ...........  ",
"...      ..                       ......   ...+***..........%............***..                   ..***<******..******.******..********155555***.              .  ..*****55555555555555555555555****5555***555555*.                 ...**5555555555555555555555555555555555553555555.           ..*555555500555553550p05555555555555555550555500000005*          .  .....*55555555500555555555555555555555050000*5005505*            ......*500000555500055555505550000000005555555555005*.          ..**...**555555555555555509055555*555*55555555**555555*.            .. ...**55555555555555555555**555*555555***555*505***   .       ...*.********55555***************55********51=******...                  ...%**%.............*****..#............ .**.                         ......   .........    ",
".                                  .....   ....*%%........................**.       .              .*****.......**......;***.*..*%.....********.                   .....**********************=********..********.                    .****1*********************==***11<*****5555*          ..****55555555**..#*50005****5555*555*****=55**===1*5555+                     .*55555*1*******55555555***********5**555555%  .*.               .555*****+****<******555*55********15555555*.                    ..***.*555******555****..**=***5551*****;55*..                    *.*********5<135*<<<***555*..+55**..*=5555**..   .      .*5*..*****155%....****...........****......****........                     ....  ..... ................. ....... .**.                                  .......      ",
".                     ...   ..              ..              . .                   ..         ...                       .*   ..                                   ..     ... ...      ..   .  ...                                                   ..      .  .. .           ..                           ...      ........... ..                  ......      .....        .  ....   ..    .....     .........          .     ...  .        +.    ..   .**     ..      ...       ....                                ..     .....               ...                           ..     ...* ...*  ...     .         ......                    ...    ..    ....                                   ..  .   ..                 .....         ..***.                                                       .    .",
"                                 .                                                                                    ..                             ..........         .    ....... %+     ..          .....            ..     ..     ......             .*     .  ..      ....    ..             ..    ...*.    ....          ..       .................       .                        %.          . ............. ...... ..... ...  .......   ...     .  ..          .        ...          .                          .....      .*.        ...                    ...               .    .  ..* ..  .         .....                        ..                  .....          ..                                 .             ..                                      .                                ",
"..%%.******...********..*555*.*********.*.. ..          .***55535555555555555***5555555555***55555*************.      .. .*555555500055555550000000009555550000550000050u0.**5553**. .%.  .*505055555550p0000055500000000005550000005555000051****........#* *555pppppp000000000000000000000000050p0000000500553555**%...     .30000000000pppfspppp005000000p000pp00000000500055555555*. .0*.. .*50000000000000ppppp0000pppppp00000p00000000055555505555% ...*. ..*=5000000000000000000000005550000005000000000000055***555<*.     .<0p000000000000959000000000000000550pp055005555555==*5*1*.*.**.  ...*0550550080000000000005555555555555p05550005*55******.. ..  .. .*000555555000555555555*;55553;******5555555555055**%***......    .**5555****55**555**********55****55******555****..... .            ",
"55500000pp090000000pfp00pfffp000000pfppp055555*.       .500pffffffffcczfdpppppppfffccccffffppfffffccffffpppp0005*...  ...0pffffcccbcccffffccccccccccccffffccccccfcbbbbbbbbfffppp05*.......*pcbcbccccbbbbbbbcbbcccbbbbbccbcccfccbbbbbccccccccffppff05555*. .*5pcbbNNMMMMnbbbbbbbbmbbbbbbbbbbbbbbbbMMmbbbbbbcccccfcffpu5**%.  .*5fcbbmMMMMbbbbMMMMMbMbbbcbbbbnMMMMMMMMMMbbbbcbbnbbccfffcf5*30*.. *0gbMMMbbbbbbbbbbMbbbccccbMMMMbbbbbMbbbbcbbbMMcgcbbccccfc0*****. *5pcbbbbbbbMMMnbbbbbbnMMMbbbbbbccbbbbbbbbcccccbcbbbcfffffd05*5.   .5pcbbbbbbbbbbbbccccbbbbbbbbbbbbbbcfcbMbbcccbcbcccccfffppp0*5***.  *50pcccbbbbbbcccbbccbbcccccbbbbcccccccMbcfcbbcffccfffppp05***. .  .5ccfffffcccccffffffckffffccffffffppfcccccfffffffpp0000005*.      *0fcccfffffffffppp00000550ppppp0pfffp000pppppp000055***..           ",
"550000ppppppp00000pfffpppfffppppppfccccfpppp005*. .    *0pffppppppffcfffpp00pp0pxccbbbbbcccfffffccbbbbbbbbcffpp05**+.   .pcbcfcbbbMbbccccccbbbbbbbbbbbccbbbMbMMbffcbbbbbbMNNMcfpp9..*....*5cMNMMMMMMMMMMMbbbMMMMMMMMMMMMMMMbbbbMMMMNNNNNNNNMbbbcccp0555*  .5pcMMMMMNCNNMMMMMnnMMNNMMMMNNNMMMMNNMMNCVNNNNNMMNNNVNNNMbc055*. ..5pbMMMNNNNVNNMMMMNMMMMNNMMMMMMNCNNNNNMMMMMNNMMMNNNNMbcfcbf0****.  .0cNCCNNNNNNNNNNMMbbccccccNNNNNMMNNNMMMbbMMNNNMMNNCNMMbbbf0005*. 50gMNNNNNNCNNNNNMMMMMNNNNNNNNNNMMMMMMMNNNMnbMMMMMMMMnbcccf0*.05.  *pcMCMMMMMMMMMMMMMMMNNNNNnbbbbMMMMMbMMMMMMMMNNNMMMMbbbcpsf0**..  **pfxcnbbMNNNNMMbmMMcbMMMbbbbMMMMbbbbbbnNMMbbbbbccnbbbccfpp0*5*.     5cccfffcbbbbbccccccccbccccccccbbbccccbbbbcccccccfpppppp05.   .   *0fffccccccccccfpp055005*0fffffffccf0000pppffppppp005****..       ..",
"5555900000p051*..*5000pp005500p0000pfpp0pr055***+.     *0ffffffffffcccp055**5550pffccccfffppp00ppffcccccccfp005***;*.   .pcbffcccccffpp00ppfccccccccccffgccbcbbcfccbMMNMMbbMcp00p0550.....5fbbbbbbbbbbbbccccbMMNMMMnbbbbbMmmbbbcbbMMNNNNMMbbbbbfppp0550*  .5cbbccfcmNMMbbbbbcccbMMbbbMMMnbbbbbbbbMNNNNMMbbMbccbbcfp0900r5.   *pcbccbcbMMMMMMbMMMbbMNNMbccccbMNCNNNNNNNNNMbbbnMMbbMc00pp000*5*  .5fbMnMMMbbbbMMMbccffpppppbMnbbMMNNMbccccbbMMMMMMMMMbcfpp50ff0*  5*fMMbMMMMNbbbbbcccccbMMMMbbbbbbcbbbbbbbncccbbMMMNNNMcp000pppp5. .5pcNCMnnMMbmbbbbbbbmMMMMMbbbcbbbbbbMbbcbbbMMMMMbbccccccppp0*9**. *5pcbbbbbMMMMbbcccccfccbbcccbbbbbcccccccbMMbcfffcbcccccfp00559*.    *5pppppppcbbbbbccccccccfpppppffcccccfpppfffffffffffppp055*****.   .50pppfpppupppfp0551*55*.5fpp0pffff05555500000ppp0055**.*..       **",
"0000ppppppp05*.  .*550pp05*500055500pp00ppp0555*..     .5pfpp00000ppppfp00550000ffccbccffppp00000pffpfzccfp055555553.   .pcbcpffffffp0000pppfffffffffpppppffffffppffcbbbccccfp00pppp0   ..*pccccccccccccczzcbmMMMMbbbbbbMMMMbbccccbbMMMbccfffccccccccff0* .=ccccbcMMMmbbbbbccccbMMMMMMMMbbbbbbbbbMMMNMbbbbMMMMNMMbcfpfccp*.. .0fccfxccbbMMNNMMMNNMNNNbccfffcbMMMbbbbbbbbbcccbMMMMNMczcccbf<5*. .5fbMMMnbbbbbbnMbbcxfffcffnMMMMNNNNMbcczgccbbbMMMMMbbzfpp0fcf0*  5*fMMcbMbbMccccczccgcbbbbcccccccffcccccccfgccbMMNNNNMcfppffkkr5. .*0fbMbbbbbbbbbbbbccbbbbbbMMMbbMMMMNnbzffcbbMMMbccfffzccccbcfc05*  .0fxfcccbbcccfffffggcbbbbbbbbcbcccccccccbMbcp0fcbbbbbbcfppppp5*....*5ppp000pcbMbbbbbccbbbcf00000pffccczp000pp000pfcccccccfpp005*+    .5pffffp00000ppp00555555*0pp0pppfp00551*55000000p0005*.%**.       ..",
"0000000000p05*....*550005****55555500000ppfpp005.       50000005050000pp05559000ffcccffppp00555550pppffccfp05500000*     5fff00ppppp0055000pp0000000pppppppppppffpppffccccbcffppffcf5   ..%pffffffffffffppppfccccccccccccbbbccfppsfcccccfppppffcbbMMbcp5%...pfdfcfcbcccffffffcccbbbbbbbbcccccccccccbcccffccbMMNNMbcgfbMMp**.  5fffffffcccbMMbmmbnMMMbcffffffcbbcccccccbfffffcbMMMCNnMMbbbf...  .5scbbbbcccfccbbbcczgccccfbbMMMMMMbbcfffpfffccbMMNNbbcffcccbp5.  *.pMbpcbccbffffffffffkccffffffffpfffffpffppffccbbnMbbcffffffp5.  .*5pfbcffffcfcfgggffffccffbbbbcbbbMMcfpppfccccccffpppfffccMMcb0*.  .0ffppppffffppp00ppffccbcccccfffffffffppfcfp00pfccbbbbcffppcf0*..  .*00p0000pfccccccffcccfp055550pppffp0055005550ppffffccffp05*.      *50pp00555550005555***5*5000pp0005**********55000005*..***.       .",
"555555555505********55<****.#***55555000ppppp005.       *55500555555500055=55500ffccffp0000055555500pffcccp05500000*     .0p00500000005500000000000000pp0000ppppfppppfccffffffffpfcc0  .. .0ppppppppppppp000ppfpppppppffcccccffpppppffffpppppfpfgcbMMc0*..  uppsf0pfffppfpppfffffccbbcccffffffffffgffffffcccbbMbbcfffcbb0...  5pfffffffffccccccccbbccfffffffcbbccfffcccfffffccbbbMMmMMccbf      =pfcccccfffffccccfffcccffcbMMMnccfffffppfffffcbMNMbcccbbccc0**. . 0bc0ccfpfffffffffffffffffffppffffppppppppsfffccccgcfffffffp*.  .*50fcffffffffffffppppppppffffffgcccppp0ppfffcffppppppppcfcMbb0.   .0fpp000pppppp0000ppppffcccfppppppppp00p0005550ppffcccffpppcf5.     .00ppp0000pffppppppppp0555550000000555555555500pp0pffppp05.        .*5555****5555*********<50ppp05*****...*.*.*5500005*...**.        ",
".*******..*#..#**%.*55*..***..<555*****15005**5*.   ..  *555555******5055*555580fffcfp0000p0055555000pffcfp05555505.   . .500050000000000000ppppppppppp000000000fp000pfffpp00ppp0pff0 .**  *0uppppppp00pfp0ppffp0000ppffccccccfffffffffppppppffp0pcMMc0*.   0pfccp0pfffffffffffppfzcccfffffffffffgcgfffcccccccccfffpfppp*     *pzgcccccffcccccczgcccfffccccccbccffffffcccccccfffccbbMcppcc*... .*0fffcccffffccbcffffccccfcbMNMbxpppccccccccccpfbbbcfpfbfffp5***   0bcpccfpffffffgcccccccccccfffcccgfgffffccffffffffcffpppfccc.  ..*50fcfffffcfccfffffffppppppppppppfffpfppfffccpffffffpffppfcbM0*.   5ppppppfpfffffppfpppppffcfppppppppp00pp005550ppp0pfffpp000pr*      %upffpp0000pppp00000pp0000000000055500050p000000550pp0555<*..      .*555555555555**5*****155pfcf05*1<********#***5555**...**%.       ",
"....*****.***%##*%..*.*.************15<1*555*.55.       55555555555555555555555550ppp05500000555555500000000000000*       0p005000pp0pppppp0p0000p00000000rpppp000000ppfffppppppppp0*   ...*5pfspffpp000000pppfffppppppffccfffpppppfafffpppppppp00fbbcp*   .0ffdpffffffffffffffffsffffppfffpfffffffffffffccfffffffcgccfp5     .0fccccfffffccccfffffffffffffffffffffccccfffffffffffcbcfpfcf     *.0cpccfffffcccccffffccccgfgcbbcccffffffffffffffcfffffffpff00**#.*.5pffcccffffffffffffcccccffffffppffffccccfffffcffpcfpffffcf0*.  ...0ffpppppffffffpppppppppfffppppp0pffffffffffppppppppffappszM5..  .*0pfppppppppppppppfppppp0000pppp0p00000000000ppp000pp00000p0*   .  .u00000p0050000000000000ppp00000005555000000055555500550555.       *5555555555555555555555*.50p05**********************.%*%*%        ",
"..**%.**#.************.*************5****155*.55.       55**55555555555555555555500p005000000000055500050000000000*       0p505000pppppp00p0pp00ppppp000000pppp000000pppfpppppppppp0*    . .*50pffpppppppppppfffffpppppffffffffffffffffffppppppp0pfccf5.   .5ffppfffffffffffffcfffffffffccfffffcffffffffffcffffffffcccfp5     .0ccccccffffccccffffffffffffffffffffffcccfffffffffffccffpfcf     *.0cpccffffccccfffkgfffcczffcccbcccffffffffffffccfffffffpff00.*. *.*0fcccccfffffffffffcccccffffffpppffccffffffffffffcfpffffff0..  .  5ffffffffffcfffffffppfffpppfppppfpppppppfffppppppppppppppfb*..   *0ppppppppppppppppffpfpppp0pppppppppp00000000pppppppp00000p0*      .000000p005000000000000pppp00055555555550000555555500*55550.       *5555555555555555555555**50005*..****************#**.**%*.        ",
"%.**..%.****************************1****555*.55.       *5*5555555555555555555555500005550000000550000550000000000*       0p500000pp0p0p00p0pp0ppppppp00000pppp00000ppppppppppppppp0.      .*550ppppppffffpfpffffppppppppfffffffccffffppffppppppppfffp5    .5pfppfffffffffffffcfccccccccccfffccccfffffffffcffffffffffffp5     .0fcccccffffcfccffffffffffffffffffffffffffffffffffffccffpfff     *.0cpccffffccfcffkxgcffccgffkcccccfffffffffffffzcffffffffxfp0... . *0fccccfffffffffffffcffffffffffffffffffffffffffffcffffffff0.   .  *pffffffffffffcfffffpffppppppfffffffffffffffppppppppppdppfc*     *0ppppppppppppppppppfppfppppppppppppppp000000ppppppp000000p0*      .000000p000000000000000000000555555555555000555555500*55550.       *5555555555555555555555***555***.******************..*%.*.        ",
"%***....@.*******************.************55***5.       *55555555555555555555555=500005555000000550005550000000500*       5000000000pp0000pp0000pppppp00000pp000p0ppppppppppppppppp5       .505*50ppppffffffppppppppppppppppffffccffppppffffppppfpppp0*    .5ffppffffffffffffffffffffcccfffffffffffffffffffcfffffffffffp3      0fcccffffffccccffffffffffffffffffffffffffffffffffffccffffff.    *.0cpcffffcccffffkcccfffkgffkcccfffffffffffffffcccfffffffcxp0..    *0fcfcfffffffffffffffffffffffffffffffppffffffffffcffffpffp0    .  *pffffffffffffffffppppppppppfffffffffffffffffffpppppppffpfg.     *5pfppppppppppppppppppppppppppppppppppppppp000ppppppp0000000*      .0000500000000000000550000005555555555555500555555500555550.       *55555555555555555555555*************************.......*.        ",
"****....**.........********...******<******55*35.       *555555555555555555555555550555555555550500055550000000500*       50000pp0000000p0p00000ppppfppp000pp000ppppppppppppppppppp5       *0pp. *0fppppppppppp00pfpppppppppppfffffpppppfffffppfffppp5.     5pfppffffffffffffffffppfffffffffffffffffffffffccccffffffppfp5      0fffcffffffcccfffffffffffffffffffffffffcfffffffffffccfgffff.    *.0cpccfffcccffffccccffffgffffzffffffffffffffffcccfffffffcfpp.     *0fffffcffffffffffffffffffcffcffffffppppfffcffffccffffppfp0    .  *pcffffffppppffffpppp0pppppppffffffpppppfffffffpppp00pffapf      .0pfpppppppppppppp000ppppppp000p000000fppppp000ppppppp0ppp005.     .5000000p00000000005555000055555555555555500555555500555550.       *555555555555555555555555**.*********************.......*.        ",
"****..++%%.........********...******11113**55*51.       *555555555555555555555553555555555095955000055500000000500*       50000pp000tpp000p00000ppfffppp000p000000ppppppppppppppr005*.     .5pf5..50ppppppppppp00pppfffpppppppfffffpppppfffppfffffffp0*     *pfppfffffffffffffffffppfffffffffffffffffffffffccffffffppffp*      9ffffccffffccffffffffffffffffffffffccccccffffffffffccfcffff*.   *.0cpfffkffffccccffffcccccfffffffffcffffffffffcccffffffffcfpf      *0pffffczfffffffffffffffffxccccfffpppppppffcffffcfffffp0pp0.   .  *fcfffffpppppffppppppppfffffpppppfppppppppfffffdpprrrpffppf.     .5pdpppppppppppppp0ppppppppppp00000000pppppp0000ppppppu0r0005.      50000500pp000000000000095555550005550005550555555550555555.      .<5555555555555555555555555*.**<<*****************.......*%        ",
"****...+#%*****************##*******11113%**551*.       *555555555555555555555555555005555800050000055500000005000*       505000p0p0pppp00p000000pppppp0000000555000ppppppppppr0085;.      .0p0fp5.*ufppppfffpppppppffffpfppffffffffffppppppfffffpfff0*     5ppppffffffffffffffffffffffffffffffffffffffffffffffffffffffp5      0ffffzfffffcfffffffffffcccccccffffcccccccfffffffffffffcffff5.   *.0cpfffxffffcccccfffcccccfffffffffcffffffffffcccfffffffcffff. .   .5rpdffccfffffffffffffffffccgcffppppp000ppffffffffffff00000.   .  *fcffffffppfpffffffffffcccffffpppffffppfffcfffppppppppffppf. .   .5pdppppppppppppppppfpppppppppppppp0rppppppp000rpppppu0000005.      *000050ppp0000000000000555500000000000055505555555505505*0.      .*5555555555555555555555555****11*****************.......*%        ",
"*%%%.+++%%****************************115..555**.       **55555555555555555555555555000555505550000055000000009000*       50555000pppp000000000000pp0000050055555500rppppppppr0853;.       .pp5ff0..5pppppppppppfppppppspppfffpppppfffppppfffffffppff05     5ppppppfffffffffffffcccffffffffffffffffffffffffffffffffffffp5      5ffffffffffffffffffffffffffffffffffffcfffffffffffffffpccfff5.   *.0cpffcxfcffccfcccffcccfccffffdffcccfffffffffcccffffffffffff. ..  .500ppfzcfffffffffffcfffffffffpppp0p00000ppfffffffpfff05505*.  *  *pffppppppffpppsffffffcffffffffffcfffpffffffsppppppppudfdpx*..   .50ppprppppppppppppffffpppppppppppp00r0rruuuurrrpppurrr0000p5.      *50p050ppp0000000050005555555555555050055955555555595555*0*       *5555555555555555555555551*************************.....*%        ",
".*+...%%%%............%***************<15..505**.       **55555555555555555555555555000555505550000055000000005500*       50***550ppp0p0000000000000000555555****3800uppppsppr98;*+.       *pp50p05**50p000ppppppp00ppppppfffp00500pfppppppfffffpppfp03.    5ppp0psfffffffffffffccfffppppppppppppppfffffffffpffffffffffp5. ..  5pffffffffffffffffffppppppppppfffffffffffffffffffffffpccfff0.   *.0cpffccccffccffccffffcfccfffffffcccfffffffffccccffffffffffc. ..  .*5500ffcffffffffffcccfffffffp000000055000pfffffpppfff055555.  .. *0p000000pppp0p0ppppfffpppppppffffppppppppfsspppssspprpsppc3..   .50pppp0pppppppppppppppp0000000000000089rruuurrruuur0r00000p0*      *5pp055ppp000000005555*******555555550550055555555555505*0*       *55555555555555555555555****************************....**        ",
"....%+%%..     ..  ....%****************5..*95***.      .**5*55555555555555555555555000555555555555500000000005500*       55***555pppp00u000p000000005555*******%;380ruuupsspr83*%...      .0p5+*0p0..5055509000000000ppfpppr055*550pppppppfpffppppppp5.   .5pfppppfffffffffffppfffp00050000000000ppfffffffppppppfffffff0.     5pffffffffffffffffpp0000000000ppfpfffffffffffffffffffpccfff0.   ..0cpccccccccffcfccccffffffccfffffcccfffffffffffkffffffffppff....  .*5550pffffffffffffcffffppppp00500000550000pffffppppfp055555.  .  .50555559000050000ppppp000000pppp0055555500uuppsssppp0uuupc3..   .5uppppppppppppppp0000005555005555555588990rurr000000000000p0.      *0pp0550pp000000055555*....#**55555555500055555555;5555550*       *5555555555555555555535*****************************.. .*.        ",
"*****%..  ..........   ...**..5*.....******5****55       ...*5555****555005**..*p5**50550p05555555555000000000*.*5*  .    *******500000000000055***505.****551**555588899rpsp03+.%;3.       *5p0p005*..*550555550000550ppp05555555555550pffffffpp550fcp.    *pffp0pffffdffpffffp0p05**555000000555550ppppp00555500pfffccf5.    *0pppfffcccccffcfp0;0ppu0000pp000ppffcccfpp000pppppfcbfp0pf0.    *0fcfffcccffffcccccfffppp00fccfppfbfppfffffccccfffcccfp00000*.... .**5*550pffffcfp00ppp0000005505*5ppp050p0550pfcfpppp00095550*     .*5155505555055500005**00555500pp5555555555590psdsprrs5;9df8.     *rfppfcffpppp000000pp051*555555555*3353333555553355589009500.   .  5900000pp055590005**05***********5550000553***555*.90*..55*      .****550055551***5**...**.*****5553************55***..  ...        ",
".......   .. ......  ...*****.+.    ..............            .*****505555**....5...*5**55..#***55550000055***5*55*  .         .**.*5555500055*******555555555**55555889999985*.+*33.       ..  ..*****..*5005555555**50055555555555555500ppppp005*0pp5     *0pp00pp00000000ppp05055**555500000555550pppp0055555500ppppp8*      ...**55550pppffffp009555555055550ppffffpp0000pppp00ppp00pf53**.  .**...*0pffccbcfffpp000000pffpppffpppppffffffffppfffp05808;.         ..+**0pppfp000pp00550005505*500055505555pfpp0ppp00005555.     ..***55555590005555555505555500pp5555555555590uspur090;;8u0+   . .*0p050p0000000000550005***55*********333;;;;;;**;;3335333;55.           ....*55500005**5***..***....**55555***..****..505..55*       ....  ..**5*55555*.   ....******************.****...              ",
".......   .    ....   ........      ... .   .                  ....*55**5**.....*..**5**55...#******555555*...5*55*               ..***<*555551************551**3333338883;;%%+.+*3*.            .*3555***555***5505**550555555555555**550000085555500.      *555*555555555000055555555555555555555500000555555555500005.         ..%*355000pppfpp005555000055555000p00p005500000955055900.....       .*50pppfsffpp00000000000pppp000000pppppppu0pppp055555*.        ..****5500pp05000000000055005500555505**50pp05000055555*.         .*******550005**55005*1***55005555555555338999833;8359r3   .   .**..*5***5555555555555**35***..***353333;;;;;;%%%;;;;;;;;*.             .  .**55555************.....******.........  ***..**                 .****55**..  ...**#...................%#...              ",
"          ... ......    ...        ...  .......                    ..******.....***555**55*****%**.#**3351**+*****.          ..   ..****.***533******.#...*5555*;;;;;;3333%%OO%%;33;.         ...*******555*. ..*500555500055555555555555000555500555*        .....*;;*55555555555555000555555550555000055*555555500005*.   .     ...****550000000009550upp005550000000005555000000555500*   ..     ..**5555500ppp0000000005550pp0550005555500000ppp0555555*.    ... ..***.***5000000005500005500550055900555500055855555855;.          ......**559055550uu********555555555553;333333;%%53999%   .    .. ..***********5**555**<55***##**553333333333333;;;3;;;*.              .... ..****.********<***....%%****.....***.. .....*.                  ..**............*..               .........             ",
"          ............+.......   ..%..  ***%***.                     ....%%...*****15*****...........***5555******.   .     ...   ..........%*************55055*%%OOOO%%%%3;%%;3898;          ......   .555*. .*50055555555555555555550000055555505***   .    .....***<5555555*5***55000000555550000000055*500000000985*.  ...         ...*5555555595550upp000000000009005555000000500900*  .**.   .*......*;50000555500000555555**50055555555000ppp0550005*.....           ..*=55555555550055*005555555000585000055553555553.                ...*5505555905550555555555555555533393833;;3333;O   .    ...**55555555***5***555*3555*******;;;;%%%%;;33333333333;.   .                .*%....********5*******%...******55**.......**    .              ...     .......*.      ..........   .............      ",
"          .   ..... .....    .   ....   ..    .                              ...  ..            ....   ....                               ..  ..*%**.*1****%..  XXXXXX....O.XX.OO..                      .***5155*............................ .**.       .     ......%****.*..*....****%...... ..****...............           .........   ....**5*....***....*%%.....+*.....*...  ......                  .****....**55*****.....*****........***....**..        .          ...**...++*****......   .***++...*....    ....                      .***....*5*555***............%%%%O+....;+.             ..#.....******....****.*5**.................OOO.......%    .              ...%....**.....%#*%....... ..     ...        ..     .                            ..        ..  .. .        ..             ",
"                                  ...                                                     . ......*.                       .    ..               ....   ..      ........O..X  XX.   .......       .....      .. .        ...                   .*5.....  .       ..  ......    ..   ..            .            ..       ..    ..                 ..........     ..     .     ..     ..               .**+...         ....  .... ........       ...    ....         ..     . . .....      ..      ..   .......    ...    ....                   .....                           ..XX   XX.;+.  .O.                       ..   ..  .   ......OOO....... XX      .%   ...   ......... .  .              .......                          ..                                ...                    .             ",
"...                  .%**..........**...**********...*.*****5**..**..  . .            *5**555555555555****5500505**05....*55055***55**.........        .*55***55333333333398939983;;555555555555====555**.   ..    ......*55555555555555555555550p055055555555555005*55555**..*5<.  ..   ..*58000555555555585000000050pppp005500000000505005*****..***%..   .*55000855555555500050000055555000500055500000p005*******..      ..*5000005500055000055*5000000055555000000550055555*55*.     ..    .555*5000550000000000000000050000555005555555555555**....  .     .*5555555555559343333399383333r95*5005**553*55551*...  ...         ..****<333333333333333333355**55555555555555555**........         .**********5***555;*3555555**55***.  .***55****....  .            .5*...........%...   ...***..****.   ",
"555**.....          *58000550005555900550000000ppp5500000p0ppp000pp0955555*.         *pfppppppppppppcfppp0ppfpfcffpcp5*500ppfffp0ppdpp00000055*.       *0ffapfccddddssddddxxxxxxxxddppfffffffffffaspppfffp00000*..***%..*0pfccccccccccccffccfccffcccccffccfccccccccgffcccfdp000pp<..**. .%5pfcbbccccccccccbbcbbbbbbbcbbbbmbbccbcccccccbcbbbcfpppp005555*.  .*pfcccccccccbcccccbccbbcbbcgcccbbccbbbczccccccbbbcgfpffsp5*.     .5fcckcccccbbbbbccccfppfcbbcbbbcbcccccccbbbccccbccfppp05.....*..  .0fcffxcccccbbbcccbnbbcccccccccbbbcccccccccccfffffspfpsp05*.*.   .5pfcccccccccccxxkkkkxxxxudxxxkxckfpcccffccxfccczfpp005 *5*  ..    .*0ppppdkkkkkdddkddddkxxxxxfpppfffffffffffppppppfp0555555**..     .500p0puupppffpppfppddfppppp0pfp005**50000pp00009555555*.          5u055500890000005***%**350555000055**",
"000955****          *50ppppppffpppppdddppppp000ppfpppffffffcffppfcbccffspp0<.        *pccfppffccccccbbfp00000pfmbcccp55pccfffcbcccbccccxcccfp055. .  ..0fcbccbMMnbbbccbbbbcbbbnbbbbbccbbbMMMMMMbbbbbMMMMMbbbMMcp555**%.+5pcbbbbbbbbbbbbbbbbbbbbbcMMnmMmbMnbnMMMbnMNNNNNNNMMbccccc05555*  .5pcbMMMMNMMMMMMNNNMMMNNNNMMMbbnMMMMMMMMMMMMMMMMNVMbbbbbcf0505*.  .5fbbbbbMMMMMNMMMMNNMMNMbbbbbMNNMMnMNNMmmMMMMnMMNNNMMMbbbcf05*+   *fMNNMMNMMNNNNNNMMnbcfffcbMMMMMNNMMMMnbbbMMMMbNCNNbbbcf05***55**..5fMNMMMNNNbbMMMmnMNNMMMMMbbbbcbbMMbbnbbbMNNNNMMMbbcbbbmbcp0**.   *0xMMbbbbbbbbbbnbbbnbMMNMdbNNMnMMMncbmbcbMNNMMMMmbbbccp 505. #*.   *0fcbbbbnnnbbbbnnbxxxbbbbbbbccbbbbbbbbbbbbbccbbbMMbcfffdp05**.   .*0ccffzccccccfffffcfffffpffp0pffffp000fcfp0ppdfffffpppp0*.    .   .9pdp0ppp00pppppfp05555990055500005500",
"55995*.    ..       5555550pffpppppppppsfp0055550pccffppppppfffffffpupf5...     .     *pcb0fcbbbczccfpp0005555pcccfp**fMbcfppcbbbbMbxffffp05**.** .   .fcffbMbbbbcxfppdffcbbbbbbbbbbcccbbMbbMMbcccbMMMbbNMcp05**.50.  .+0cMMbbbbbbbbbMMbbbMNNNNMMbccbmMbcbMbbbbbMNCNMMbbcccbbf0*0*55 .. .5cbbMMbMNCCCNMbbMNNMMNNNMMbbbMNVNMbbMNNNNNMMMMMMMMMbbcfp5**50*.   0pcbbbcbbMNCNNNMNNNNNMMMbcccccbbMNMMnbbbMMMbbcbMNNMbbcp509355..   .0cMNVVNNMMMMNNCCMbffcccfpcbbMMMNNMMMMMnnMMMMMNNMbbMbf* .*#*0**..*.cVMcbMMMNMMbcccbbMMNNMMMMMMMMbccbNNMbbbbbbMNCCMcfffp00555550*   .5cmbbbbbbbbbbbMbbnMMMNNMbbbbbbnmnbMbbccbbMMmbbbbbmbf0#.*55***.   .pccxbbbMMMbbbbbbbbxccbbcccbbbbMMbcccbbbnMnbcfcbbffffp093*.*5*   ..5pccfppffcccfffffffffccp000550ff0ff055fccp0ppppfffp055.           .*80ppfpp0000pppp0*...***500000p000555",
"5590085*%.*3*.      *******50ppppppppffff00555550pfffp0000pp000ppffpppfppfcp05*.      .5pfbf0550pcbbbzp055500pffccp*5ffffp000pfcfcbbccccfp0000500.5*. .pfffcbcccxfpp00uppffffffffffpp0ppffppffcfffcbMbbccccfffcbbc0   .+5kbbbbbbMbbbbbcfffcbMMbbnbbbbbMMMMbcccccbMNMbbccccfccbbcNccf*5*  *ccccccbMNNMbcfffcbbMMMMMMMbbbMNMbcbbMMMMMMbbbbbbbMMMMMbbcccc05.  50fccfccccbMMMMMNNNNNNMnbcgffccbMMMbbcccbMMbbcbMNNMbNMbfccfff5*.  .0fbMMMbbccccbbMNMcfffccfpbbMMMNMMmbcccccccbbbMNNNMcp5*.ppp0d5*..**cNMgbMMbMbccffffccbcbccccccccfppfbbcfffcccbMNNMbcMMbccccccc0*   .5fbcnMMMMMMMMbfffkcbbbbbbbbbbbbbbbbcccccbbbbNNmcp05555pfccfp5*.   0ffpccbbbbccfffffffccbbbbbbbcbbbcfffccccbccfpfcbbbbbbcfpp00p5. ..*500055500pfccccccffzcccp0555*5pppccp5.*50550ppppffpppp051*<.       *50000055555900u5....****5500000055**",
"5558885****5*.      ......#*50upppppppppp0555***50ppp0055000055500ppppcffccf05.       .*50f0555000555555550000pffp05pffp005*50ppppfccccccp00pppp0.**.. 0pp0fffffsp0095500000000000000000pp00ppfp0pfcbbcccfffpffcbf0   ..5dccfcccccccfffpppffccfzcbbbcccbMMcfffffcbbbccgffffffccbCbbc55*  *ffffffccccccfpppfccbbMMMMbbccbnbcgccbbbbbccccccbMNNNMmbcccbbp5.  **0fffffffccbMMMMMMMMMnbccffffccbbbccffccbbccfcbMNMnNNMbMMcgf**.  *0pgcbccffffffgcbbfppffcfpbMMNNMnbccffpppfffffcbbcp*.*5fcbcdx55*.*%fMbfcbccbcffppppffffffffffppppp0pfcp00pffffcMMMbcMbbccccccg5*   .1pcfccccccccccppppfffffccccccbbbbccfffffccccbcf05**5pffcbbbcp5*.  5p05ffcffpppppppppfffcbbbbccfffffp0ppppfffp00ppfcccbccfppppf0*..+.*555555*550pccccfffffff05555*5000fz0* .****5000ppp0pfffp000*.      .*55555******355*...***.*500p085*5*..",
"*55553**..*5*.      ***....**599550000000511*****500055**5500555555500bffff05*       ...**555555*.   .**5555550fp55ppppp055*5000000pfcccfp000ppp0 ..   5p00ppppppp00055000000000000ppppppppppp000ppfccccffpp000ppp5   ..*uffppffffffpppp0ppfffffsgccfppcbcfpppppffcccffspppffp00Mcbb50*  .pfppfpffpfffpppfcfffcccbbcbgfcccffffccccgffffffcMMNMbcfffccg5.   *.0dffffffffcbbbbbbbbbbccfffpfffccccfffffccfppfcbbbbnbbbMbcfp.*...*5pffcfffpppppffccfppffffpcbMNNMbcffpppppffffffff05**5pbcccdf5**.5.0ccpfcfpfffppppppfffpffppppppppppffpp0pfppffcbbbcccffffffff*.   .*0fppppppppppppdppppppppfffffcccccfffpppfffff0**5550fcffcbbcp5.   50050ppp000000pppp00ppfcccfp0ppp000000000005500ppffffpp000ff0. ....*00055**550fffppp0000055555*1555005*.***.**55000000pfpp005*       .*11*****..*%***...***#..*50p05*#*...",
".****+....*5*       *****..**********<*55*********0555****5555****5550cfppp55*       .**..*55*.    ..****.*50p00550f050f005550ppp050pfffp000000p5      *00000000ppp000000000ppp000ppffffffpppp0000ppfffffffp00ppp05  ...*0ppppffffffppfppppffffpppppppppfffppppppffffffppppffp5*pfMM00;  *ppppfpfpppffffffcfppffffcccffffffapffcccfffpfffpffccfppffffp.    *.0fxcccfffffffffzgzzfccgffppfffffffffpffffppppffczzcccfbcfp0 ..  .5ufffffffpfffffccfppffcfffcMMMbcfpfffffffcfffpp00pfccfffff0u....*.0ffpffpppfffppppfffffffffffffffffggffppfppppfccccfffppffffp*.  ...0ppffpppfffffffdpppppp0ppppppfffffppppppfppf5**0fpp0pffxccf5.    *00500pp000000ppfp5550ppfpp000000555500000555500000pp00050pp*      .pp00555550p000555555555555**55***.*505*...*5555555000555*.        *********..%*....****%...5005*......",
"  ...**355***       *****..%**....****************5551****55******5000**50ppp5.      .*5*****.   *0p005*. ..*50.*pf05000p0000pppp050ppp00000000p5      *50050000pppppppppppppppppppppppp000pppppppppppppfffffffffp*  ....50pppdfffppppffffffffffffpppffp0pfpppppfffffffpppfffcp.5pMN05*  .ppfffpffffgzfffffp00psffffffppffpppppfccfffffffp0pfffpfccccp*    . 0fcccccffffffffffffffcffffffffffffffpppffffffpffffzccfccfp0     .50pfgfffffffffffffffffccfpfcbbcffpfffcccccccfp055pbMbp5pff00     .5fffffffpffffffffffccccffffffccccccfffffffpppfffffffffffffp*.  ...5ppffffffffffppppppfffp00pp0pppppppppppppppf550zbf055fppffp*.    *0p0p00pffpppp0000555550pp000000000050p000555000000000055555.       555550000005555****5555900555005**<55*. ..*****155555****.       .*5********.......*****#..3993.  ....",
"......%******       .**.......%*******************1555****55*****15555***55500.       *55*..***5555**5555*.   .*0p0500550000000000500000500000005      .*0p5500000000ppppppp0000ppp00p00000000pppppt000pfpfpp00000*   . .50000uppp000pffffpppffffpppfccp0pffppffpfffpppppppffcf.*5cb**   .0ppffpffpffffffffppppsffffffffffpffppfcccffffcccfccffpppfxcp*.   + 5ffccfffppffffffffffffffffffffffffffpppfcccccfffffffffcffpp.    .*0fccfffffffffffffffffcccppfccffffffffccccfppp5*.*0ffpppff00    .%50pfccffpffffffffffffffffpfffffcffpffffffffppppfppppppffpp0*.  .. 5ppppppppppppp000ppppppppppppppppfpppppppp05*5pzcppppp50pfp*%**  *0p0p000pppp000000000000pppppp000pp000pp00000000555550555555.      .555550555500005555555559000550000555**..*..******5555****.       .*<********.......*****%..*53*. .....",
"...........**       ..........*****11155*5*********155****555555151***0555**005       *15555**50005500555*3*5*.0p050p0550580000000000000000000005       *0p550p0000000u0p000000000000p0000ppppppfpp00pppppppppppp0*     .50pppppppppppppppp00pfp000pfccfppppffffpffppppppppppff*01pf%*.  .0pppfpffppfffcffffffffffffffffppffffpfgcffffffccccfffffffffp..   . 5ffffpppppffffffffffffffffffffffffffpppfccbbcffffffffpffffp.     *0pccfffffffffffffccfffccfpfffssffffffccffp005***5pffffpffp0....*.*5pfffffpfffffffffffffppppppppfffpppffpfffffpppfffpppfffpp0*   .. *ppppppppppppppp0pppp00ppppppppppppppppppp050pdfpp0ppp05pfp* ..  *0p0p000p0000000pp000000000ppp000ppp00pp05000000000000000555*      .550550555500005000005555555000055555***55#..*************.       .***%******#....********%.%*%........",
"...........*.       ....*%....******1115*11****5***1555**5557555555***0005**0p5   .   **5<055*15555000555500005p000p0555550000555500000000005050*       *0p05pp000000pp0pp0000000000000000ffpp0ppppp0ppppppppffpp0*      50pppppppppppppfpp00pp0*50pfffffpfffffffpppppppppppppp0f=55.5.   50ppfpffppffccffffffffffppffffppffffpffffffffffccffffffzxfp0.    . 5ffffpppffffffffffffffffffffffffffffpppfffcccffffcppfpffffp.     .5pffffffffffffffcccffffccffspppffffffccfp05555550ffcfppffp0... ...*pgccxfpffffffffffffffppfppp0fffp0sfffppffffpffcfffffffpp0*   .. *ppffffffpfffppppppppppppppppppppppppppppppppppppp000f00pfp.  .  *000ppppp00000000000pp005550p05500p000p055500050000000000050*       *555585555055500000055555550005***55**550*..*****..****11.       .*3..******%...*#**+..**%*...  ..*...",
".......%**.*.        .********..*********5**..******5555**5551555555*****5*5p0*  ...  .****5555**50055500p05**p550p05055000000055500000000000050*       *0p55ppp00ppppppppppppppppp0500000ppp000ppppppffffpppppp05*      5pp000ppppp0pppfppp0pf5.5pfffpfffppfpppppppffffppfffp0pc5** *.   50ppfffcfffcccffpfffffpfpffffppfffffpffffppppffcccfffffffffp*      0fffffffffffffffffffffffffffppffffffpfffppffcffffcffffccccf....  .5pffffffffffffffcfffffffccfpppffffffccfp0055pp05550pfffccdu     ..5pccfccfffffffffffffffffffffpfcfppfccf0pffffffccffffffpp05.   .  *0ppppppppppp000ppfffffpppppppppppppppppp0pffp00pfp00p550fp*  .. .000ppfffpp000555550pp0055550055000050p055500055000055555550*       .**5555555555555550555555550000*.**55**50*..*5*******1555.       .*1*.*******%..%**.....***..   ..*%..",
"..........***        .*5*..*11...***111***%#******555555**5555555555550***5005.       .*5555555500005555505000000005**550000000000000055000000p0*      .50p0500ppppp000ppp00ppppppppfpppppp00000ppfpppppffpppppp05#      *0p0ppppppfpp00ppfffpp**cf00ff0ffpppppppppcbcccfffffffccfp5. ....5pppdfffpppfffffcfffffffffcfpppppppppfccffffffffccffffpppffp5.    .0pffffcccfppfffffffcffffffffffcccccfccccfffffffffffccfcccfp .    *pcfpfffffcccccfffpfffcccffffffffffpfbb5.*50Mfpff0. .0fpkcfd.   . .0ffpppfcfppppcccfpfffppffffffffffppppp00pffffffpppffffp005.   .  *0pp0000pppp0ppppp00000pppppppppppppp000000ffpp0pppppf055pp5.    .5000pp000000ppppp000000p000000000000000000000000000000000501.      .*90955500**5555550055555555559055551***#.**55115500****.*        ***%#.******3*.....#****............",
"..........%*.         .*#...**...****************<**11*****555555555555***500*.       .*555555555005555000000000000555555555550000005555500000p0*      .5000500p000000000000pp0pppppppp00000555500ppppppppp0000055.      .0ppp0ppppppp0ppffffpp**cf0pffppfffffppffffffffpppppppffp05    ..5ppssffpppppppffffpffffppffffffffffpfffffffpppppppppfffffffp5.    .0ffffcccccfffffffffffffffffffffffffffcccfffpffffffffffccffp .    *pcfffffffffffffffffffcccfffffccffffpff**500bpppp005555pfp00..    .0fcfppfcfppppfffp0pppppppapppdppppp000500pffffppppppp00005.      .5pfffpffzffpppppppppppppppppppppffpppppppppp0000000pp00pp0*     .50pppp00000000pp000000000000ppp0000000000000005555005555000*       .500050005**555555555555555555***********.**55**5555****.*        .*..#..********#**.****%............",
"...........**         .*%...**.*****************1********155*******11*****5593.       .*555355555055550000000550000555055555550000000000000000005      .*505500p000000000pppp0000000000555055515550pppppppp005555*.      .0ppppppfffppppppffppp**cf00ffppfffppppppppfpppppppppppppp0*     5pfffffpppppppppppffffpppppfffffffffffffppfffffpppppffffffcf5. ..  5ppfffffffffffffffffffffpfpffffffffffffffffpffffffffffcfffp..    .0ffffppppfppppffcfffffccfffffccfffcfp0.5pfpfppppppp05*0pp0p..    .5ppp00pffppppfffp0ffppppppppppppp000005500pfffpppppp005555.      .50ppppppffppppppppppppppppppppppppppppppppp00000000000pff0.     .5ppppp00000000000000000000000000000000000000005555555500000*       .*55555555*5555555555555555555***51***..*#%*55**5555***##5        .*..**.**..#.*****.****.............",
"...........**.       .**%..*************....%%***********555***15555*<****555<*.      .*55*555555555000000000055000000055550000000000000000005005.      *55550up00pppp0ppppp0000000005555555**5**50ppppppppp05*555.      .0pp000ppppppp00000005**fp0pffppppppppp0pppppppppppfppppfff5..   *pffffffffffpppppffffffppppppppffffpppppffffffffppppfffffccf5  ..  5ppfffffffcccffffffpppppp00pppfffcfffpppfffffffffppffffffff*.    .0ffcfffffffffpcccfffffffffffffffffcf05*pccppfppppffp0*50ppf*.  .  *000000pffffffffppfffpppppp000000005555500pfffppffpp055555*      *500000000000000000pppppppppppppp000000pppppppp000p0000fff0.     .5pppfp000000000000000000055550555505555000000005555500000p0*       *55555553*155555**************555551**.+***;55***515*****5.       .*******.....******%#...............",
"...........**.       .**************....   .......*****55555555555555****5555*5*      .*55***55555550000005555*55500000000000000p000000000000*500.      .****50000ppppppppppp000005555555555**5**50pfppppffp055555*      .0p055500000000555555***p000pp0p00000005000ppffffffffpdpfcf0...  *pfffffffffffffffffffffppppp0000ppp00uppppffffffppppffffffff0. ..  5fffcccccccccffccfpp0p05555000pfffcffffffffffffffffffffppfc5.    .0ffccfccccccffcccfffffffffffffffffcf0**fbcffcffppffs00*00pp..  ...500000ppffcccffffpccffppppp055900055550000pfffppffpp0555505      *5555550000005*55550000000ppppppp5555555000pppppppppp500pp0*.    .5pppfppppppp000000000000555555555555555500000055555500ppp00*       5000000055555555****..........15555551******55***1*5**5**0*       .*******.....*5***%.................",
".......... **.       .**.%***#.***%#....      . ......***1*5************155***5*      .*******5550505555555555***5500000000000000050000000500**55.      ....%550500pppp0pp000505555555*55555*55**50ppp00ppfp05*5555      .555****55555555********0055000005555555550ppffffcffp000ufp5.    5pffffpfffffffpppffffppp0000550005555000ppppppp0500pppffcfff0.     5pppffffffffffffffp00055**1550500pffccccfpppppfppppffppppfc9.     5pppppppffffppfcfffpppppppppfffffpff055pfffffffffppppp55*%5...   .*5555500pfffffffpfffppppp000555555555500550pffppffp00555505.     .*5***55**555****5550005500000pp0******55500pppppppp05*35005.    .5ppppp0pp0p0000000000555<<1************55000005**<555000050*.     .550555095*555555**.. .... . .   #*550005**.***#.*********0*       .******#......***%%.................",
".......... ..             ... ..........  ...............#.********....****...*.       ......**55555555555551*****500055*55555555555000005550****.       ....%****500055555555*****55***5555555**5500005500055**55*       .********555555****<**15555555005555555555500pppppp0505500*     *0p00p00ppp00000000000055555555555555555000000055550000ppppp5.     .***555555ppppfffp00005555555055500ppfffp0000p00000pp0000pd*.     *555555000ppppfffpppppp0000ppppppp0p050p00pf0pfccfp00p555*5..      ....***500ppp00ppp00055555555555555555555500000p000555555*       .. .***..**51*55555500555550000511*****55555500005555*%*505*     *555005005555555555555******************1555*5*...****551*5*.      ......+...**155***............  ..****5**..........#.....5.         ............*.%*..................",
"........   ..                    .......................................%.......             ...**55555<1*******.%*5053********11115555555*55***.             ...#*5555;****************55555555**555555555555*55*.        ...*****55555****55555*55555500555555555**550000055555555.  .  .*5*55555555555505550555*55555555555555550555555555555555000*       ...**5***5000pp0000050555550005590000000055900005000505000.      ....*5500ppppsppp0000000000000ppp0500*50550p50pfffp000*5055    .      ..****5000550p0055535555*5555555555555555555550555<11**          .***..*55555555500555555555555551***555***555555555*****.     .*******55553*555*****************************%....+++**%+;%            .*.  .******%...****%%%%.................  .......  *                   .........................",
"........                          ......   . ............   ..........%....   .                ..*********##.+3%...*55*%..***********555;***5++.                 .**55*********31555*****555555555**<55553*555555*    .      .**...*555*****55555**555*500555**=555**55000055500555*.  .   ....***3*555555555505555555555555555555000555*5005555555555.         ..******500000055555900005500000055555555555555000355500    .      ...*550pppp0000000005555000000500*505*905500ppp055500*1    .      ..**..*005590p0555555555*3555555559555555555555005555*.          .***..*5555555555555555555**55555****<1***55555*50005*.           ...*******51*********************5<******++++%%+++**+.*.            .*.. ...****....................  .*.....  .......  .                   ... .................... ",
"........   .    .                 ......        ..........  ..........%....                     ....****.....%5....*<5*.**********#***5**+%+*...                  .**********5*55551*****555555555*****55***55005*    ..           .*********5555**555*505<1******5**150005515005***. ..       ..****5555555500055500551555*55555000055=**55555555555.            ......*5550555555555555550000055555555155555=505*55555    .           ..**=50050555555555500055505.105*55555*50055*55*..             .. .*555550p0555599885;3355555559555555555**5555555*.            ..   .***<*555555555555****5555********=55555**5005.     .      .....****************************5<1***.*.+*%%%%****+..    .         ..     ..%*.......................*.....  .......  .                   ...  .........  .........",
"............   ...               ......%....   ....... ..   ......    ......                         ..*....*55..*.  **.*******...******. .. .   .   .                .*******..55***55***..*551****...***...***.    ..                .*55*.....**<**..***55****<5*.***********..            ..****.*555*.*5555**%*5***55*..**555555**. .**51**%.*.                      .***=**5**5..*5*55*********55*.*500*.******....                   .*=555**..*55*.+0p0* ..  .***#.************..                     .**55*..*99;%%3;;;;%%%%;3***********.********              .       ..**5**505**.*5***0555*1**..****151*.....      .*.     .**  .......**....**...***....    .........XXX..........                      .***.   ..%..  ......    ..        ....*#.                        ..........           ",
"                                                       ..     .       .    .                                  *  ..  *.           .             ..  ..  ..   ...            ..   .  ...         .  ......                            .....       . ...  ..   ..               ...    ..     ....      ..            ..  ..   ..     ...    ....               .     ...          .  *..** .              ....                               .  ...          %*.   ..........       ..**...                         .   +%OXXOO................      . ..                         ....    .     ....                                          .......           ..       ..........         ..                                  ....      ..    ..                                                            ",
"            ...   ..  ....                            .+..............*....**..*..**+***....*********.  .**.  .   .  .. ******5******...**.. ..+%*..**.+%%%+++%***..........**.         .*************************51****.*5555*******555*......... ...  .. .**55****.***55************5*****55551155555*****.....%*. .      .**...**=555***155************555555***5555***..++.***..*.**.    .*;****1**5555***5*1=35***5555=****11=********55**........ ..  ....**5505****5*********1555=55555555511==55555****....*%.+%%X  X   .O%%%%O%******+.****************...*1+*15*%..*****3**..  .          ..****15******55**.**********.....****%**********..  ...          .****=*5***..%O.....%%%%+..+%%;*%****.............. ..            .**...%%+.......... ...*........................                     ",
"**...***.. .555*.*503*555*****..****....+...          *85550*<5555553505**55500p000000pp0050000000pp05555003. .      ..*pppppfffpp0ppp00p05..589ru090urruurr0rup000000055551505....     *pfpppppppppp00ppppppfpppsffppppppfffffpppr00pfp00000005**.***  .**30pffffffpppfffffpppppppppppfkfppppffffcccfffpffff055000*...   ..5pppppfffgffffffffffpppfppppffccccgfppffffffffppppppp0055***.   .*0ffffccfpfccffpfffpffffffcccffffffffzffpppfffffpp000pp005.***....*ppfcccpp0pfppppppfffcffppsfffcfffffffffffffffpppp00urrr9;. XO   O3uusurppppppp00pppapffpfffffppppppffpffffpuppfpppfpp00555.       .*50ppppffffffppfffpp0ppppppppppp000000ppp00000000000055;*.  .     *50p000ppp0099rr993399ruurr99ruuuupp00000055555558555*%..         .*50080055555555*55****50055555**5555********1*55*%.....          .+**",
"5555550855*5500000pp00000000005000000555**+.      .  .0spppf0pppppppppp055500pfccffpppfccfppfffpffccffffspp05*.      .*0ccccccbccffbbbcbbf0*;pdfkcckkcnbcccbbbnbccccccccffp0ppp55<*.  .*pcMbbbbbbbbcbcccccccbbbccbbbbccccbbbbbbbbbcccccccccccffp05**5*. *50pfcbbbmmbcbbbbbbbbbcbbbbbcccbMMbbbbbbmMMMbbbbbbbMNbfsfff5.**. .*0fMbMMMMMMMMMMMMMMMMMMMbbbbbbbMMNNNNMMbMMMMMMMMMMbbbbccfp05**..  .5fbbbbMMMbMMMMMnnMcccccccbMNMMMMMMMMMMMmbcbbMMMMMMbbbbbcfp*355%. .5cMNNNNMbbbbbbbbMMMMNNMbbbnMMMMMbbbbbnnnnbbbbbbbbnbbffkku3%O%;  .;uxMMMbbbbbbbbbbbbbbbMmmnbbMbbbcbbbnMMMMMbbcbbMbbbbbcffpp05*.*.   *0pfcbccbbbbbccccbbcccbbbbbbbbbbbcccccccbbccccfxccccccfp05*..*   ..5dxcffzccccxfxxxxxkxxxxxxxkddkxxxxcccffcfffpfffffpppp03**.        *0pfffffpppppppp0r085*50pppp0000000000500000000000055***%         *555",
"55555990555****90000ppppppp000ppppapp000...       .  *pffpfcppfffffffp05***500fffffpppfffpffffffccbcpfccf05*55***.   .0fccccccccfpfcccccbf5*3dxxcbbcccnckdkcbnbbbbbMMMbbccf00pp055.  ..*pcmbccbbbbMMMNNMbbbMMMMMMbbbbbbbbbbbbMMMMMMbbbbbbbbbcp00003**.  .pbbMMMbbbbbMbbbbbbMMbcbMMNNMNNMnnMMMMbbcbNMbbbbMmbMMbcffp05*5*. .*0cNMMMMnnbbbMMMMMMMMMMbbbcccbbMMMMNCNNNNNNNMMMMNNMMbbcccf055*.*. .0cbbbbbMNNMMMNVVNnfpfffffcbMMMMNNNMMMbMMbbbMMNNMNMMMMbcfp05500*. .0bNNNMMNNMMccbbbbbMMMMMMNMMMMMMMMMMMMMMMMMccbMMNNNNMpuuur99993  .3unNBNNMMMMMMMMMMMMMMMMMMMMMMbbbbMMnbbMMMMbbbbMMMMbbcfppp05***...*5pfcbbbcbbbcccccccccbbMMMMMbbbMbbMMMNMbccMbbbbbbbbbccffp0**..*  ...5fccpfccbbbbbbxbbbbbcxxdsuuuudkxxcbbbcccccffcccffpp000055.       .*0fccfczpffffffpp05**#*150ppppppppppp000000pp000ppp05*.....      .5000",
"5555559955*.  .*555*5555555555500up0000055*..        #0ppppp00pppdfppp55**5550pfpffffffp00pppppppfcfpcccp5.*5050*..   0cfffccccffp0pp00ppp0*+usssfkdspr83;50ppupffcbbbbbccf0pp00p5.    .0cbcccccbcccbbbccbbMMMMMMbcbbbMMMbcgfccbbbbccccccccffffppfp5*.  .pbMbbbbbbbbbbccfccbMbbMMNNNMMMMMbbbbMbbcMNMbcbMNNMbcbMbfp0pcp*. ..5fbbzfffgccbMMMMMMMMMMbbczffccbbbbMMMbbbbbbbbbbMNNMMbbcccfp05*.  *0kbnMmMMNMbcbNNNMcfffffffcbNMMMMMMMbbccccgccbbbbMMbbccfp05pfp05*.*pMMMbcbbMbcffffffffcccbbbbccccffcccccccccccbbnMMMMMbksurrdxd9+X.+3uxnMbcbbbbbbbbbbbbbbbbbbbbbbbcbMMbbccccccbbbbcccccffzfcffpp0*.  .5xcbbbbcbbbccffffccccbbbbbbcccbccccbbccccccfffxccbbccffp00000*     *pff00ppffccbckxxxxxkdsu33339ukxcxfffpffppppffffffppppp00*.       .5uppppp000ppp0055******100p0pp000055555555555950005*.  ...      .553;",
"5555555555*.. ..**<15**.********55555550pp05*.       .5000055550000000*5555550pfpfccffpp050000550ppffcccp5**5000*.    5ppppppppp000005500pp5 0pr9rsr95333580rrr00pfccbcccfppppp0fp*    .5fcccccccgffppppppzccccccccbbbbMMbcf0pffcccfffffppfffccccMbp3%..+8ffffffccccffpp0psfcbbMMNMMbbcbnbcccbbbbbbcffccbMmbbMNncffbNf*. ..*0ffffssfcbbMNMMMnMMMMbbcffffccccccbccffffffccbbMNNMMMbMbfff5..  .,pfcccccclfsgccclsppfffffcbMMMMMMmbcccffffffcccbMMMbcffpppfp05....5bbcccccccfsppppppfffffcffffppppffffffffffccbbnMMbbcbcfppxcf5 ..%3rdxxxkxccccccccfcccccccccbbcccbMMbcffffzcbnbcfffsfffccbbcbcp5.   +fffffffffffp0000pppfccbbbccccccffpppsfccffppppffcccccffpffcf*     .0p0555500pfckddfffdsuu933339usfxdu00000000500ppffffffpp05.        *50050555500051***555***0pp000055************555005*.  ...       +%..",
"***********.%....*555*....****.#*3555550pp05*.       .*5555****5555555**5005*5pfffcfp0005559855500pfcccf05550000*  .  *050000p005555550000p5 9u950u05*+*80rr0rr050pffgffpp0pfp00dp*    .5pfppffffpp0000550pfffpppffccccbbcap0ppfcczffpppppppffccbCNp*....50uppppffffppp000ppfccbbmbbcffcccffccccccfffppfcbmmbbbcffcbMp*   .*0fpppspffcbbMMbccbbbbccfffpffffffccffpsapppfffcbbMMMMMMMffp5.*  o*5psgggfspsssssssp0ppfffffbMMMMmbccfffppfffffzcbNNMbcfdfcbcp5.    *fffgcffffffffppppppppfffffpppp0ppfffffapppfgccbcccxfkkdsfxp*  .%39uddfkssffffffppffffffffffffffcbbcp0pppfcbnbffffppppfffcbMbf5    .pp0000pppp00555500ppffcbbbcffppp00000pffpp0000pfccfffppppfcf*     .0050555550pffssspppuur098335800r00055500053*550pffffffpp5*        *55555<**55551*..*5055**5pp00055*....##...****50055*.. ..         ...",
"...........**%.  .*55**.#*****..**555550955*.         .*55**..**55555*.*505***0pffp05**55555555500ppcfpp05555505.     .555000000555500008593.8r950u05% *0ppr00r000pppsp0005ppp05p0+  ...*005500000008005550pfpppppppffpffpp00ppfzzfffp0ppppppppfcNMp*.. .5ppppsfppfffffpppffffpfgccffpppppffffffffffpppffcbbbzpppfccf5.    .5pppfppppffccfffffffffppppppppffffcffppppppppppfccbbbbbb0p0*.* o+*5pssspttsfllfsfsfppffffffcbMMbbgfspppppffffffccMMbcffffcbcp*.    .ppffccfppfgfffpppppppfffffffffppffffffffp00ppffffff0pffssu9%   .%8rsdffppppppppp000000pppppppppfcfp050000fcbcfpcfpp0000ppcbbf*  ...00000000ppp0005000pppfccccfpp0550000p0pp0p0000pfffppp05550p0*  .. .0050055*500ppupuur09999095;;;;*;30055000055**5500pppppp05*       .*551;5***5555<*..*5555*.30pp055*.....*%%..**;55855**....           ..",
"....................**********.....*****%.***.        ****55*******1555555555555pp00555555555555555555555555555*       *555550000050p00505*.+%;890000;.3pdsppspp00000000000p0550p5   ...*pp055000000000000000pppppfpp0000pfp00pp0pppppppppppppp00cb0;*  .5pp00ffp0ffpppppppppppppppppppfspppppp00pfffffffffffffsppppp*      *pfffffffffffp00ppppffffppppppppffffppfpffpfffffffffffffpfp*   ..@5lfptttpsssssssssffffppffffbmbcfspffcffffffffffffffppppppf5**  .. ppppppffpffffffffffffffffffffpppppffpppffpfpfppppfcffxccfr5%.   .3dkfsppsspppppppppppppppppffppppp00p00000ppppppppppppppfbfcf**   .pp0ppf050f0pppp0000ppppp000000pppppp000000000000000000000005      .*550000000009888885533335588853;355555555555555550000055*5*   .   *5***5***********.*****.*5pf0*..*<5*****.**...++........ .          .",
"....................**********....******..%**.        *****5*******555555555555500055*****555555555555555555550*       *5090000005*555****. ..*;59999;.;rur00rrr00000000000p005005    ..*0p000000000pp00000pppppppfpp000ppapppppppspfppppppppppppcc5**  .5pp00ffp0ffpppppppppppppppppppffffffppppffffffffffffffpfpppp*      5pfffffffffffpffpfppfppfffffffffffpppfppffpfffffffffffffpfp*   oo.5ffptttpsssssssssffffpppfffcbcffpppffffffffffffffffppppppf5**  .. pppfffpfppfffpppfpssfpppppffppppppppppfpffffpppppffpffkkdr3+.   .*pkfpspppppppppppppppppppppppppppppp00ppppppppppppppppppcpfp..   .pp0upf000f00p0p00000pppp000000pppppp000000000000000000000005       *550000000009888888555558888855355555555555555555500555555*   .   *5***5***********.****..**0p5.  .**..******............. .         ..",
"....................**********..***.****...**.        *****5*******555555555555555555*1**55555555555555555555505       .0000000000550*..*5***;;3333;;%+30r98890000000000000000005*      *0p000ppppppppppppppppppppppp0pppppppffppppppppppppppppppff*..  .5pfppffppffpppppppppppppppppppffffffffffffffffffffppaasdpppp5      *pffffffffffffffffpppppffffffffffffpffpppffpffffffffffffpfp*     o,ssptttssssssssssfffppaffffccffpppppfffffffffffffffppppppf5*.  .  0pffffpppppppppppppppppppppppffppppppppfffffppppppfpsfffs0;.     .rffdfppppppppppppppppppppppppppppppppppppppppppppppppppf0p5 .    pp0ppp000fppp0pp00pp0000000000ppppp0000000000000000000000005       *550000000000955885555599088555355555555555555555555555555*   .   *5*****************1**...*55*.  .....******............. .         ..",
".....................***********........*.%**.        *5**<5*********5555555555555555155555555555555555555555505       .00005555000p0*..0u0599853;*++%59rr9889r00000000050000p005.      .5pppp0000ppppppppppppp00pppp000pppppppppppppppppppppppppfp*     *pfpppfpppppppppppppppppppppppffffffffffffffffffffpppppppfff5      *pfffffffffffffffpfpppppffffppppppppfffffffppfffffffffffpfp*      ,tstttsssssssssssfffffffffffffffffpfffffffffffffffffpppppf5*.  .  0pffffppppfppppppppppppppppffffpppppppppffpffppppppppppfp0*      .0fffffppppppppppppppppppppppppppfffppppppppppppppppppppp805 .    0p0ppf000pppp0ppp00p000000ppp0ppppp0000000000000000000000005       *5500000000000550055550005555551555555555555555555555555*1*   .   *5*****************1**...***....**...***%....+............          .",
".....................+....*%******......*.***.        *5**<5*********55555555555***55555555555555555555555555505.      .50005555550p0*..0ppu009983;*%3uuur0890rr00p0p000500000p0*        5pppp0000000000pppppp0000pp00000pppppppp0000ppppppppppfffp*   . *0ffppfpppppppppppppppppppppppppppppppffffffffffffpppppppfff5      *ppffffffffffffpppppppppfffpppppppppffppfffpppffffffffffpfp*      ;tsttssssssssssssfffffffffffpfffffffffffffffffffffffpppppf0*.     5ppfffp00pppppppppppppppfpfffffpppppppppppppffpppppppppfp0*      .0pffcfpppppppp0pppppppppp0ppppppfffppppppppppppppppppppp505 ..   0pp0pp000pppppppp0pp00000pppppppppp0000000000000000000000005       *550000000000000550555000555***5555555555555555555555555*1*   .   *5****************35***..***.#*****..***#.................         ..",
"....................++%%.%*#..******......***.        *5**15**********5555555555****5555555555555555555555555505.      .550055555555*.  =009555889000uspr09889r000pppp0000p00pp0*        50ppp000000000pppppppp0ppppppppp00ppppppppppppppppppppffpp*   * .0ffpppfppppppppppppppppppppppppppppppffffffffffffpppppfffff5.     *ppffffffffffppppffffffffffppppppffpppfpffffpppffffffppfpfp*      @tttskssssssssssssppffffppfpppffffffffffffffffffffffpppppf0*      5pffffppppffffppffffppfffffffffpppppppppppppfffppppfppppp0*      .0pffffppppppppppppppppppp00ppppffffppppppppppppppppppppp505 ..   5ppp0pp00p00pp0ppppp000ppppppp00pp00000000000000000000000005       *550000000000005555555500555*555555555555550555555**5555***   .   *55**************1*******....**55<**.***%...+.+..+........         ..",
"....................%%%*.%**....%%**%***..****.       *5**15****55****555555555*****511***5555555555555555555505.  .   .550000000555*#..550088890rr00rr953333358000pppp000000005*.       5000ppppppppppppppppppppp0pppppp00ppffpppppffpppppppppffpf1.  * .0ffpppfpppppppppppppppppppppppffppffffffffffffffffppppfffff5.     *0pffffffffffpppffffcczfffffffffffffppppfffpppppfffffppppff5      @tsststsssttttsssspppfpfppppppppfffppfffffffffffffffpppppp0*      5ppfffpppffffffffffffffffcffpppppppppppp00ppfffppppfp00p00*      .0pfpfpffpppppppppppppppppppppppppppppppppppppppppppppppp905      *pp00pp0000pp0000ppp000ppppppp000000000000000000000000000005.      *550000000000055555555500555550005555555555555555555555**5*   .   *55***********************....****...****...+++...........          .",
"......................++.........%**%***..****        *5***5.***555155555555555***1155****5555555555555555555555.  .   .55550000005**5555500000r0095559;***;****55500000000005555.      .50000pppppppppppppppppppp00ppppp00pppppppfffppppppppppfp0f5.  * .5ffpppfp0ppppppppppppppppppppfffffffffpfffffffffffppppadppf9.     *0pfffffffffffffffffffffppppffffffffppffffpppffffffffppppcp5      @ttttstttttttttstsppffffpppppppppppppfffffffffffffffpppppp0*      *0pppppffffffffpffppppffffffp00000000000550pffffpfffp000005.     .0pp0pppppppp000pppppppppppppppppppp00pppppppfppppppppppp0p5      *ppp0pppp000000pppp0p00pp00000pp0000000000000000000000000005.      *55000000000055555555*5555**550005555555555555555555555555*   .   *551**************%..*33**...%+....#******.............. .         ..",
"......................++..........******..****        *5**=5.***55111555555555555555555***555555555555555555555*   .    ****5500005**5005*5099000953*;5*+%;3*%%%**50000000005**55*      .500000000000000000000ppp000ppppp00000000pppppppppppppppp0f0.  *  5ccpppfp0pppppppppppppppppppppfpppppppppfffffffffffffpfpppp5*     .0ppfffffffffpfppppppppp000ppppffffffpffpppppppffffffppppcp5   o  @0tttsttttttttttspppffffpppfffffffpppfffffffffffffffpppppp0*      *00550pfffppffppffppfpfffzfp05*0000555555550pffffpffp05500*.     +0p0550ppp000000ppppppppppfppppppppp0000pppppfppppppppppfpp5      *0pp0ppp0000000pppp0p0p0000050p00000000000000000000000000005.      *550000000005555555555*5**..*5900555555555**3=555555555555*   ..  *55*<*************%..*;53*..***%...*******.............. .          .",
".......................+............****...***.       *5***1.**35511**5****55555550555551*555555555555555555555*        .****555005.*500**;555858533;;<%+*;3****.*50000000505***05      .50555555555555555555000000000pp000555550000ppppffppppp000f0*  *  5fcpppfp0ppfppppppppppppppppp00p0000000pfffffpfppppfppfpppp0*.    .0ppfffffffffffpppp000055550000pppppfffffpppppppffffffpp0ff0.  .  *rtssstttsasttstsfpppppffppfffffffppppffffffffffffffpppppp01  .   555555pfffppffpppppppppffffp05*5555555555550pfffffffp5**55*.     .000550000055555pppppppppppppppp0000555000pppfpppppppp0pfpp5      *0pp00ppp0pp00p0p000p000055555000005505000000000000000000005.      .555500000009555555******....*555*55555555**335555555555*5*   .   *51***************...*35****35*....********............  .           ",
"%%OOO.............O. ..+******.......+%%....%*.      .*1...****55551**5*..*5053*500555**1*****55555000950005**5.    .   *****350pp5555500008585;*..*5* .******5***50pppp00505***05. .    .*55*.**55555*5555****155555550005***1555500ppffffp05550pp0*.   .5ppppfffpffffpppppppp0555555**5505555550pfffpp005500ppffffff0*.....5pffffffffccffccf05**5555555500p00ppffffff00pffppffbcfp50ff5 5. .50sffptpffclfpppfccp00ppfppppffffffpppppppfffffccccccfp00fp5. .   005555pfccffcfpp000pp00p00055500000500555550ppfffffpu555005. .    *50555555555555ppppp0000000000555**5555500pppppfffp005*5pp5. ..  *50p050pppfpp000000pp05555555555005***5550pp055555555000p000*       *5*5500000000555***...*.......%****5005*.*555555955555**5*   .   .***.************.....*5<*****.     .%%%****........     .         ..",
"...XXXXXXXXXXXXX....   .........  ......     .        ..   ...*555****55*+*33*..#************5555555555555****5*    .   .    ..*595555590555*<<*....**.*15***355.*50000005*51*.*5*        .......*******55555555555595955551*****55550pppffpu95**50*.    *0pfppppp0pppppp0000pp000500005*555<**555550005****55900pppp0*      .555555900000ppp05*****555555500090ppppppp550000000ppp039p0. .    *,555*500pfsppffccp0500005500pppppppp0000ppppppppppp055*05.      5*...*500pppppp0000005500555555**555555505*500uppp000055053. ..   .....*******11155555555*50000005555*..***1558000pp055**5005   .  *0pp00ppdp955****555555*********55**.#*1*50055**51..****<***.       .*..********00555****%..........***50055*..........%**..**         .    ...********......    .*******.................                ",
"..XXXXXXXX XXX  XXX.. ...+....     .....  ....              ..%********....**%.  ..***....*%******5*.****....%.                .%*<**************..***53********.**55555***5**.*5.          .. ..*******5*55***5555555<***5=********5555000055**555*     .500555555500005555800005500005*;55****5555000553***;55000505.       *****555550500005****55555555000000ppp000550005550up0050p5        .@***500pppppfffp05*555555500p000000800000000upppppp00505.  .   *  ..***50p0005555555355555555055555***5555555000050555555*            *****3<5551****55**555555555555*15*5555555505055***05*      .*5555590055*****555**********.*********.*****..***********..        .  ..****%*35*******%.........+...*****............*%...*   .         . ......***...  ..    .*****%.....................             ",
"......OO..X XXXX........**...... ..........%..                 ...****    ..**.. ..****........%***+ ..*.......                 .**......*....********551*******.**155*****51**55.           .....#**555*******55***5**.**5555**1551****555555**55*.      ..**..*55555555555590005555005555555*5555500005555555555555*.        ....**;5555500055555555555550005500005555500000500000500*          ...*5000000pp055**55500000pp055555500000000000ppp00000*.  ..  .  .....*5055555555553555555550000055***555555005555555555.           ..*****55555555555555***1*5533*5555555555555555555*555.        .....**********555****5551*****1******..****..***********.             ..............%%%%.......*......%#...............  ..   ..           ..........  .....  .......  .......... .........            ",
".....OOOO+...........%..**...................                     ....   ...%.*. .****.................*#..***          .       .......%****..********55*******<**555*****5555555*            .....**555**55**555*********55555555555***;555555555.          ..+*<5555555555550005555500000555555***55555555555555555.             ....**555505080000005555005555555553550005555555555*.             .*****3550005555800p000p005555555000000055500050505.   ..      ..  .*5**550055515555550550000005555555555055555555055.           .....+***1<5555000000**55555***55555****5555555555555*.          .....%*******55****55555****************3*************..                    ........**%.......*+....................     .   .              ......  .....**....    . ...........  ........            ",
"X   XX....    XXXXXX  ...              .....      .                  ..%....      ....         .....*#..%****..                   .....*****....****......*55505**************51*.                   ..*11555555555***55555************5355555555*.   ..    .****555*****555*5008553555500555****...******5***55*****.  ...           ...*****555555555*****55555555555555555555*55553.              o.   .*5500000055555**55555359******5555********55*     ..         ..+***55555*********5**5***50005**55555******5555*.  ..**.           ....*5555555555555055***55***..%%%**********5**.   ...  ......%******113**...*****..*****%%...****35553*<55553*...                   .........#...    ....%.+....%%%............. ..  ...                   .... .   ..*.. ..*..                                ",
"                                          .                                                               .                             .....    ..    . ....             .   .                         ......   ...  ....                 ........          ...             ....  .......          ......*.  .                                     ...     ..%+......%+*....**...*.*.                .    ...+.....     ..........         ....    ....     ...                     ...   ..      .***.    .         .                           .        .......   *...                .             .      ........      ..   .    ..       ....  ........                                                   .          .#.  .  ...                                   .                                   ",
"                                      ..        .            ........                   .........   .          ...          ....    ...    .*.    .    .***.    ..       .*.  ..  ...........................     .           .....................         .**.. ....        .              .....  ...........%......        .     .... ..    ..   .              ......   ..*. ...**   .  .        **.  ...     ..     .     .............*...    ...*......*+ ..         ..       ...          ..***. ...............    .     ...................             ...%*...   .......   ....  ...  ...........   ...    ..             .**...   ....    .....   .........                                 .     ..          .*.      .           ...                                                          ",
"+.....              ...***************3;;*+..************5555555955***.....           .*5055555555555555*****5550055**55555500000550005*****5*   ..   .*00005555000055000pf0500055pp0050000000pppp0r00005555;*......    .*505500upp00000000000p00pp0000000000ppp00pppp005555555*......     .*5ppp0000000000000pppppp000005590ppppppp00000pp0555005**%%...  ..5000000uppp0950pppp0050pp00pf50p00000000pp00upp05***355*...%.    *50pp0ruppppppppp0055900upu0p050pp5pp0000000000055555555**....   .*5ppp000000000000pp000p0550pp00550pffp0pppp0000008555**+.....    .*90pp00000000pp00050000p050ppp080p000pp00005590555***5*.           .5000008555005<*5558000555000555000005555559005****....          .555553;555555**3***3505******1***555**5555555***...*%.            ****************..............*.....",
"33***%....          *5559000005000000000fp00000pppp0p0ppppffppppppp0555555*.         .50ffffffdppppfzffpp00tppsfccfffffffffffzcccccccffpp0000*......  .0fccbccbbccbccccbbMMbcccbccbbbcccbMMbbbbbbbbcccccfffpp0005**+....5pccfccbbbbbbMMMbbbbMMnbbMMMmbMbbbbccbbbbMMMbbbbbccgcffp055555....30pfbbbbbbbbbbbbmbcbbbbbbbbMMMnbbbMMNNMMMMMMMMMMbccccccfp05***...*3fbbbbMMMMNMmbbbMNNMMnbbMNbbMNbMNMMnMbMMNMMbbMNNMcfffffgp0555*.  .0cbbMbbbbbMMnMMMMbccccccbMbbMMcbMMbMNMMMbMMMMMMbbcccccf005****.. *pcbMMbbbbbbbbbbbbbbbMMbbccbMNMbbcbMNNMbbbbbbcccccffppp005555*....5pcbMMbbbbbbMMMbbbccccbcbcccMMbccbbbcbbbbcccccbccccffp055*...%... .*5pfffcbccfccccffccbbbccbccccfffffcccbbbccfcbbbfpppp0055*.        *ffffppppfffffffffffffcffpppppfpppffffpfp0p00000555555*.          *9ppp0000000000555******=555550055553",
";**%++.... .        *3555590pp5555500000p0050050pp0000000pfffppppfpp0555555.   ..    .0pkcxffppppffccf0**<5555pffcfccccfccffffcbbbbcffccfp055****...   fcccbcccbccbbcffcbbbbccbbMbbcbgfcbbbbbbbbcbbbMbbbcbfp0pfp;+..    0cccccbbbbbbbbMbbbbMMMbnMnmbbbbbbnMMbcccbbnMMMbbbbbcbcfpf*55.5   .0ccccMMMbbbbbbbbbccbbMnbbbMnbbbbmmbmbMMbbbbMNNNMbbbbbbzp005...   5pcbbbccbmNVMbbbbbbbbbMMbcfffcbMMMNNMbcbMNNMbbbbMnbcbcppbg055*5.  *pcbcMMnbbbbbbMnNMcpppfffpcbMMMMMMMMNMbcbbbMMNNMbbbbbgp0pp550**. . cbfbNbbMbMMbbbbbbbMMMMnnbnnnMMbbbMMMMMMbbbbbbbbccbcfp00p0050%   .0fbccbbbnMbbbbbbbbbbMmbbcccccbbbbbbccccbbbccbbccfccccf0pp05**.... 30ppccfcbccccccccbcbbbbcccccfffcxccccccbbcfppfcbfppfcf0****.      .0fffpp0ppffpfffpppppppfffp000ppppppp00000000000p005**....         %5up0555555588005*......*555550055555",
"333383;*...+.  .    .%....*550000000uuur05**5***50ppp00550ppp0000ppp0000000*.  .     .5pfffffppppffffp05*55550fcffffffffpp0000pfffcccccccp0555505*%.   pcffccfccfpppppppppffffffcffffspfcccccgfppffcbcccbbfp0pff055....*0ccbcbbbbbbbbbbbccbbbbbbMMMMbmMbmnmbcccccbMbbbbccccccfppc00p*8. .*fbbcbMMbbbccbbccbccbbMMMnnMMMMMMMMMMMMbMMbcccnMMnMMMnbcfppp05*. .5pfffffffcbMMMMMMMMMMMMbcfffffcbMMMMmcccbMMbccbMMMMnMbf0p05=0*5.  *0fccMMbMbbbbbMnncfp0pfpppcbnMMMnMMMbcffffccccnnbbbbbcp0ppp0p51*...cMcbNbbMbcccffffffcbbbbbbbbbccffccccccccccccbbbbbbcfppppppp0.  ..0fbccbbbbbbbccbccccbbbbbbbbbbbbbbbbbcfcbbbbbbcccfccccf500005*...**pzcxbbbbccfffpfffcfcbbbbbbbcccccccccccccccfppfcbcffcbcp05555*     .*000000pfccfffffffffp005**#**50fffpp00000000000pp0000555*.        %500000555500009**......*555555555*..",
"*;58095*...%.  ..   ..... .+*5000000uuu05*****..*5pp005<*55555*550ppp0ppup05*...     .500pppp00000ppp055555555ffcffppffp055**5000pffcccccp0555009*..   0fppffpffp0555000*5p0000pppppp00ppfppppp00pfbbbcbbcp00pffpr5  ..*5pfcccccccccccffffcccccbbbbbbbbbbbccffffcbbbcccgfffffffcNcbc50*  %pccffcbcffffccffgfccbbMMMbbbbbbbbbbbccbbMbcsscbbMMMMnccffccf0*. .50pfpfpppfccbnnnnbmMMnbcffspppfcbbMbbfffcbcffccbMMMMMMbfcfp00.*.  .5pffbbbbccbbbbbcgspppfpppcbnmMbbbbbcfppppffffccbbMMbcp0pfppf51+ ..fbfcbccccfsppp0ppppffffffffffppppffpppppfffgcbbnbbcfpp0pfff5.  ..5fccfcccccccggfffffccccccccccccbbcccfffccbcbccffffffffppfffp5...  5pp0pppffppp000ppppffcbMMbcccfffffffffffffp00pfccfccbcp000pp5.     .5555550ppfffffffpffp05**..*150ppp0005000555500000upp005*.        .;5555555*55555**. . ...*555555***. .",
".+*5955%. .*.  ..   .... ....*55555599955*****...*0055*...*******50000pppp00*%.      .*5550055*5550055555555550fccffppp055***555000pfcccfp0555005.     5000000ppp0**5005+*0050000p000000p00000p00pfcbbbbbfp00ppffp5  ..+*0ppfffffffpppppppfffffffffgcccccfpppppfffccffffppppfffcCMMb55.  .0ff00ffffffffffffffffcbbbbccffffffffffcbbcf00fccbbMMbcfffcbc0.  ..*pffffppfcbbcccbcccbbcfffffpppfcbccfpppfcfpppfcbbbbbMMbMbcfp .    *0fpccgcfffffzggfpppffffpcbbbbcccccfsp00pppppfgcbMbcfpppffpf*.  . pfppcppfppppp000ppppppppppppp000pppppppppppfccbbbcffp0pppff*   ..5pffppffffffpppp0pppfffffffffffffffpp00pfcccfpppppppppcffcbf5..   *00*5500p000555500500pcbbcfpppppp00000pppp0550ppfffcff0000pf0.     .555***500ppppppp0000005**555550005***555****550050pp005*.        .*******..*****#..   ...%*5955*%**...",
" ..****.  ...       %**......++%.*******5******.%*****......*%..%*55550000005*.      .**1*55*...******5555555*5pfccfp05555**55550550ffffp00555005      *55555500p0055005**55000000000000000000000ppfccccfp00000psp5   ...500pppppp00000000pppppp00pppppffp00000ppfffffppppppp00pMbbc5*   .0fp00ppppppppppppppppfgcczffffppp0000pffffp00pffccbbcfppffcf5      0fffffffcccfffffffffffpfffppppcccffppppfp00ppffggfcbMMbcccp      *0ppffpppppppfffffffcccffcccbccfffffpp00pfffppfccbcffffppppp.   . 5p00p00p0pppppppppppppppppppp00pppppppppp0ppfccccpppp00pppp*     *9pp000pppp00000000pppppppppp000000095500pffp000000000fpfcbc5. .  3005000000055555055550pffp0000005555555000555500ppppp055550p5.      5555***5500000505555055550055*55*...**55....**555500095*.        .%......   ......  ......*555*%......",
" .......  ...       .%*...  ..    ......5***1**.%*..........**%..*****1555555*        .******...****.*5555555*50fcfp0555551*555505500pp055500505*      .555*50000ppp05555555000000p00pp000000055000000pp00500000pp5   ...*0p00pppp005555000pppp0500000ppp000000pppfpfpppppppp05*fpbb55...*pcfp0fffpppppppppppp0ppfffffzffffpppppp0000pppppffcgfp0ppppp5      5pffppppfffffffpppfpffffffppppffffppppppppppppppppfccfp00pp    . .0ppffppppppppppppffcfffffccccfffffffppppfffpppfggfppffppp00      5pp000pp0pfffpppppppppffspppapppppffffpppp0ppffff00ppppp0p0.     .50p000000000000000pppp0000000000005555500pp00000000055*5pff5...*.5pp0pp00050055550005555000550050555***55555*1555500005555550*       *55551<555555555*1*11*******..***....***.....****555533**        ...  .        ... .......**53*.. ..**",
".............       .....      .........*...**...*....**555*;******...*5**.*5*        .*==55*****551**55555*55500p005555***515555555005555000055.      .5005500050pp055505*55005550pppppp0ppp050pp0550p050000000005  ....*0ppppppppp000000ppppp000000pppppppppppppffppppppppppp5ffbb90*. .0ffp0pfpppppppppppppppppsppfffffppppppp050pfffpppfffppppf0pp* ...  5ppppppppppfffffffffffffffppppfffffafffpfffffppppppfcpp0pfp    . .0ppfffffffffffppppppppppffggfffppfppp00ppfp0pppffpppffpff00    . *0ppppppppppppppppppppppppppppppppppsspfppppppppp00pppfpp00*   .  *0pupp00ppp00pppppppppp000ppppppp00000000ppp000ppppp0550ppp*...  .555r0555000055500p0055590550000055555555555555500p055505555.      .5555*****555555555555**...************55**..*************.        .. ......................***%.. ....",
"%.......%%...         ...   .................*..**...%*5551********....**..*55.       .*551555555551*55555*5555508951550****55555550005555500055.       500550050000055005.*000555000ppp0000000pffp00ppp50pp000005#      *500ppppppppppp0ppppppppppppppppppppppppppppppppppppfp0fpgf..    5pp00pppppppppppppffpppppppppppppppp0pp000pfffpfffpppppppppp* **. .5ppfppppppfffffffffffffpfffppffffffffffpfffffffppppfcffffcp    . .0fffffffffffffppppp000pfpfffffpfffppp0pppfp0ppppp00ppppffp0 .  . .0pp0ppp0ppppp00000pppppppppp00pp0ppfppfppppppppppppppfpp05*   .  *0pppppppppppfpppppppp0000000pppp0pppp000ppppppppppp0ppppp0*..   .55500095000555500pp0055550000000000005555500055900555005555.      .50555*****555555555555***.*555*1*****************....%***.           .**.....%%.......................",
"...    ..%..         ...............%%%%....%***<5....*3************#..**. .00*       .*55**555551***5555***5551550055555*1555555500000555550555.       *0p50005005550p005.50p0050pp0ppp0500550pppp00pp050pp00pp0*.      *00000ppppp0ppppppppp0ppppppppppppppppppp0ppppppppppfp0fpf0      *0ppppppppppppppppffffpp0ppppppppppppppppppppppffpppppppppsp. **. .0ppfffpppppppppfffffffpppppppffpppffcffppffffppppppffpppffp    + .0ffffpfpppppppppppp00ppfppfffpppffpppppfffp0pppppppppp0pp00 .. . .5pp0pffpppppppp0p0pppppppppp0ppppppffppppppppp00fpp0pppp05*      .0pppppppppppffppppp0005555000ppp50ppp055000000ppp000ppp05*..    *50500000500555550p000555500555000000055550000558005*5005505.      .555555<1<55555<1111**555****5**<31**. ..5******........*.          ....+................  ........ ...",
"..     ... .         ...%...+%..............%***55.....***..**********.**...00*       .500.***5551**55555***55**15555555555500055500000500555555.       *0p0505505*550pp05.5ppp050p000p055505500000000005pp000005*.      *0055000p00pppp00000000pppp000000ppppppp00pppppppppppp0fpf0      *pppffppppppppppppppffppppppffffffffffffffp00pppfpppppspdfp0. ..  .0ppffppppppppppppppppppppppppfppppffffpppffppppppfffp050pfp.   . .5pppppppppppppffffppppffpppfppppfffppppfffpppfpppppppp0pp09      .5pp0pffppppppppppppppppppfpppppppppffppppppffpppfpp00pp005.      .5p000000ppppffppp000055****5000050pp0055500000000000585;+.      %80500rr05000555500000055000555555555505555000555055*5005505.      .**555550051*********.*555**********..   *****.....%%.....          .....................  ............",
"............          ..**..............     ..%**.*******************..***.*3.       *585.***155505******555515555*50pp555555555550055555005505.      .50005550p5<550p00*.*00p000pp00000000000000pp00000pppp00055.      .500000000ppp0p00000000ppppppppppp0ppppppppppppppppppfffpp5.     *0pppffpppppppppppppppppffffppppppffffffppppppppffffffpppddu5.    .500pppppppppppppffppppppppppppfffffffffpffffffffffcffpppfc0 ..   .5pppfffpppppppppppfffpp0pffpp00ppffpppppppppppppppppppp0pp0.  .  *0p00ppp0fpp00ppfpppp000pppp0ppppppp00000pppffpp0pppfpp0005.      *500500000ppppp00000000f5.  *50pppp0000000000000000ppp9;+....  . .;9890r0000000000050000000005555555550p055**5500000000555555.       **555555555*****1555****##...********.  ...****..*;5*. .*.        .. .................................",
"...........          ..........................***.*********************505*55*       *55555555555********555555551**500*15555555500005550005505.      .*555*550055550005*.500005000p0p000000555000000000000555***.      *0pffpppp0000ppppp00000000000000pppppppppppppppppppppppp0p0.     5ppppdpppppppppppffpfppp0000pp0000000pppppppp00ppppppppppfp05.     50pppppp00pppppppppppfffffffffpppppppppppfffffffffppppppff0      .5pff05000ppffcpppffffpppfffppppppfpppppppppppffffppfpfpppp0.     *0pppfccffpp0pppfppfpp0ppfpppfpppppp0000000pfppppppppp00095.      *50ppppppp000p0pp0p00005005*..*0p00000000p05555590000s3..%3%.    .;988009555555555555500000555555555555005****555555555555555.       ****1555515*******55*1*<********1*****..*........+**%. .*.        ....................................",
"...........           .........................***.*********************555*55*       .555***3*1****11*****5<55555***155155555555500005550005005*       *555*55005550005***50000000000000055555550000000000055***%.      *0pppp00000pppppppppppp00000000pppppp000pp00ppppppppppp00p0*    .5pfppppppppppppppfpppppp000pppppppppp0pppppppp0ppppppppfffp05.     5pppppppp0ffffffppppffffffffffp0ppppppppppppppppppppppppff0       5pffffpfpfffffpppffffpppffffpppppfpppppppppppffffppfffpppp0+     .5pp0ppfffpppppppppffppppppppfpppp0000555500pppppppppp00555*      *50ppp0ppp000000p0ppp0050pp0*.*550000000pp05555000858u+ .59+      ;9990985555555555005005555555555555555551555555*55555555555*       **********55*******1555**3******=********...............*.        ......%.............................",
"...........          ..........................%**..*******************.***.**.       .*5***********555***<5*555551*******5555555500005550055005*       .*55550005550005**500p0000000005555*****5500000p000005***..      *00000000ppp00000ppppp00000000ppppp000000p0000ppppppppp0pfp5    .5pppppppppppppppppppppppppppppppppppp00ppffffpppppppffffffp05.     5pppfffpppffffffppp0ppppppppppp0pppppfffpppppppppppppfpppp0.      *pfpffffpppppppppfffppppppfppppppppppppppppppppfpppppppppp0.     .500050ppppppppppppfffpppppp0pp0000055555500ppppppppp005555*      *5000000pppp000000000p050ppp05***505505000p0000000855;..;09.     .;0000985555555555000055555555555555555555555005**5555500550*       **********555****************..*1****3***...    .. .....*.        .......+............................",
"...........          ...%............................******************#***.**.       .*1******55<*5555515***555**<5555***5555555555505555555505*       .*1555005500005*.*0000005555555*****...**550000ppp00055***.      *505559000000555500000000000ppppp00555550000000ppppppppppff5     5ppppfpppppppppppppppppp000ppppppppp000ppffffpppppppffffffp05.     5pfffffffpfffffffpp00000000000ppppppffffpppppppppppppppuppp5      5pfppppppppppppppppppppppppppppfpppppppppppppppppppp0rpppp0.     .*00550pfpppppppppfffpppppp0000055555***5550ppppppppp005555*      *505550000000550000000000pppp05**555555550000prr0055;.+3005. ..  .3rr00090005500005000055555************555000005**5555500050*       5555555**5555551***#...........*1******3*+.         ...%*.        .%.....+...  .......................",
"............           ...  ..............    ......++********..#.****5*;55*555.      ..**0055551***55555;********550555335555555555595055555555*        .***1555500005*.*05555555*555****.....%*5550000pp00555***.      .550555555*5****115555555000000000055555005500ppppppppp0ppp5     *ppppffppppppppppfffpp005555555555555550ppffpp0000pppppffpp05.     *0ppppppppfffppfpp0005555555550ppppppfffppppppppppppppp00pp0      5ffppppffffffffppppppppp000ppffpppppppppppppuppppppp000p0p5.      *50000pcppfffppppppp000000550555555***1*5500pppp0pp00551*5*      .*550005555<155555555055500005555*******355000000955* %9r0;+...  .3099r090000000000005555*****************555555****355550550*       5555******555555**....... .   .***%.**;3**.     .   ...%*..       ....  .....  .......................",
"............                    .........       .....+++**%%.........*3****.***.       ...****5555<555553*******.*15095*****;355555559000555**5*.           ..***59005**.*5**+****.*555*******.%**5555500555******.      ......%.**.**%*******1****55515555511*1*55555000ppp00005505*     *00upffp0p00ppp000p000005555555555555*5550000555555500000pp05.     .*55000000pppppppp05000000000000000000pp0050009555pp00p050p0.    .*005pffffffffppppp0000005500ppppp0000pp00p0ppppppfppp000005        .****5000ppp000pp00055555558555555555555550pppp0000555555*      .**..*************155555**.*555*****...%%*****553***..;883;3*. . .*53388555598555555553****.****%*%%%.....*****....%********5.       ...**....#***553**........... ..*%..%***3*... .... ........        ..    .............................",
"........ ..                     ..........       .....................*.... ...              ..***1555****%%.#*...*555*.%%.**********55555*****+.            ...**555*****5*. ..**.**1**<*****.+***5555555*********             ....#*********************5<***=<<55555000055555****.     .555500000000000055555555000505555589555555555*5*55555555005*.      ..**555000000ppp0050000000000555555555555555555550055055555.     .....+*500pppppp0000050055500ppp000000000000000pppp00055555         ..   **50pp9550005555555**555555555555555000005555555555*.      .    ..**************<5*. .*55*****..........****..+*333;**+  .  .%.+*;;5555555555*******.................#*...............*.          ...   ...*****....................*..**.............. ..              ..................  ........ ",
"........  .                      .........      ..............       .*. ..  ..               ...***5***%.....*...*55*  ........***..**5**..%%..               ..****#..**1.  ..**..******535*.+********1**********            ..*****55<11*****1**5*************<****55555***551***       ....***555555555555555550055555555550005555555555555555555*.          .**555550000005555555900055555555555555555555505*5055**.            .*550000p000555555**550p0055555555009055500000551*55*          .   ..*5005**5555**5555******55555555555550055555**55555           ..****************55**@..*5551**............****;;;;;+.  ..   .  .++*****************............**..*#*......+........*.                   ..**..  ....... . ..   ...  .............                     ................   ......   ",
"    ....                             ......    ... ........ .        .*.... ..*.                ....**.....  .*....**.  ..............***...*...                 .......***.. .%****.*****5***%.******************.         .....**..*5555****5515555*******55555******5555**<5551**           ..*5555**5555555555555555555***1000005555055555555555*.            ..*****55000555555*55000555555533555555555555055505***           ..**5555550055<<5555**;50005555<5555555555555555*55*5**          .  ....*11***355555555555*****55555*555555555;*<******5*          ...****.************555*...*555***.....***%+*****;;;;*.   .       ...*+.........***+.%....*#......*******.*.%.......... .                     .....            ...   ..           ...                      ..................     ..   ",
"       .                             ...  ... ..**  ...%..  ..       ..    ..                     .........   **.  .......**5*.............***.                    .......*.. ..*****5*..*51..**********....*5555.                  .%*****.**5*.****55555**55555*.*55***555**5555**         .*35**555***50555****555550005***5555555895555555555555*                   ..*****55**.%*5up05555053**55555555555550p03***.  .                .*1*+.*5555****5005**55*5p0****5005555555005*.                     .*33*55055*.*50**3***55****<5555=*********..                    .****...**1**..*35*..55155**...*****3**..%%%+.           .+**5**..+*+.. ........*.*..........******...  ..    .                       .    .     ....   .+..    ..              ..   .           ..    ...............         ",
"                                          .         ..                                                 .......#.            .               ..                                 ....      .*............       ..      .                ......*5.     ...  .......   .    ...  ....            .**. ..    .*. ....**50%   .......  ...... ..........**. ...                      ...    ..   ....   ..............**   .              ...   .*******15**05*  ...  . .*. .. ....                ..   ...         ... ..**.    ..%*%..#*......**.*.........                         ......*********.. *..       ....%*%.......   ....     ..+%*.........   .                   ..     .............                          .****....            .              ..                                             ",
"                                                                                                                                            ..                                                                                                        ..        .         .                    ..          ...       ..                                .                         ..   .           ...         .   .   ..                    .          ..      ...  . .*.  ..                ..                       .       ...  ....          .......                          .                .                   .         ..                  .                                                                     .                                                                                 ",
"                            ..    ...                     . ...............   .. ................+.%**...             .   .%*...**#*.......*****+.**15**..***********...*.          .       ..+%%......***..********15********************...  ...    ..      .******+..*******5**..**5******..*555******55**...     ..        .***************************#*******+***=1==***...**. ..   ..    .*555*=*******=****..*555553555=***..**+...+**++*.... .   ..    ....**505+.555****************5*..*****+.**=*******   ..       .   ..**=***.****;******=**+*************155**..*****+.   ...      ..    .**3*.......***53*****%.+3;%%.....+**...%******.....             ******.... ......  ...   ...**........*...%*...                       ......     ..      ....   .  ..   ..  ..                      ",
"   ...............**..***..***...***1**.....            .*55**55555*****55*****55500000009555000005000055******.         .;00005000000000000p000000pppp00000pppppppppp00005555**....% ..   50pppppppppppfppppfdpppffffpppffpppppppp000ppppp00550p0*. .*+    .*5pppppppppppfpappffp000fffffffpppfffcffffffffp0000555555*....   *0fffppppppffffffffffpppfffpppffffffspffffffffppp00u05***.  ...  .5pfffffspppppsfpp0000ppfdpppfffffppppfsspppppppppppp0005****.    .50ppfffppfccfffffffpppppppppppppffffppppffffppupp555555***...    .50ffffppppfffppppppppp0fffffppppppppppppp00pppppp055505*.   .......*9updppppp000ppsfdpppddsuudspur000rrpp00rppddp0055555*.          .0pp00050005090000550005555500p00000000005555553*****...          *****5555533****1<****************5*. .55*.******....              ",
"..*****************555555**550535550005595*..           *00p0000u00000000055*550ppppppfffppppppppppppppppupp005*.        *0pfpppppfffffffffffffffcccccfffffxccccccccbcccccbcccfpp055.  ...*fbbbbbbbbbbbcccffccccffbcbccccccbcbbcccccccbbbbbbbbbMMbp5****.  .5pfcbbbbbbbbbbbbmnMMbcfxcbmMMMbbbbbbbbbbccccbccMMMMMMbbbc5 .**.  *pcbbbbbcbbMMMMMMMMMMMMbmbbbccbNNMMMMMMnMMMMMMMbbbccMbcffp5**5*.  .0fbMbMMbbbbbbbMbbcfffffcccbbbmMmbbcnMMMbMMMMMMMbbbbbbcfcp<  .**..*pbbbMbbbMMMMbbbbbbMccbbbbbbbbbbMMMMMMMMMMMMMbcccbMMbbcffp05*..  .<pcMMmbbbbbbMMbccbbbbbbbMMMMbbbcccccccccccccbbbbmbbbcccp0*....  ..*5pfcbbbcbccccxcbckkkxcbbbbcccxxxxxccccccccccbbcffpppp05**...     .5cccfffffcffkfzccxxfccfpppppfccfffppppfffppppppr0000051*         .50p0000000000005055533*5555000000000*.*005*5098555**..             ",
"*******<553***%****5900051*50053;550000555*..           *0ppp0000000p05555***1550ppppp0ppppupppppppppppppp055**.   ..   .5pfcfffffppppppppffffffffcccfffffffczgffffccccccffp0055**.**   . *fbbcccccccccccffffcccffcccffffccbbbbbbbbbbbmbbbbbbbbfp5*...     *0fcbbMMbbbMbbbcbbnMMbcccbMbbMbccbbbbbbbbcccccccbbbbcfp005**55*   *pcbbccccbbMbbbbbbbbbbbcccffpfcnMMnbbcccbbbnbbMMMMbbccfp05**. *.  .0cbMMMMMbbbbbMMMbcfffpppfcbbMMMMMbbbcccccccccbbcccbccf0p03**555***fMbbMbcnNbbbccccccbbbbbbbbbbcccccbbbccccbbbbbbbbbccfp0005*%5*   .5fbMbccccccccbbbbbMMMMMbbbbbccccfcbbcccbbbbbbbbccccccff05*..*..  .50fcccbbccccffffccddddfxcxkkkkkffkxcccxccfffffxcccffffp0555*..    .5ffffpppfcfpppfpdddsffp000050pfppp00000pppppppdssp0555*.         .50ppp055555555555**.%%..500000000005*.*5555505555**..              ",
"******<<55***....%**50005%.*555****5000553**.*.         *500p05555550055*.*****5ppfffpppp0005555900pfzcfff055* .......  .5pffffffp000000000ppppppppppppppppfppp000ppfcccccccpp0000000  .. .ufcfxcccccccccffccbbcccbbcccccbbbbcccfccbbbbcfffffffffuuffp5*5. *0fccfcccccbczfsfcccbcffcbmbbbbbbbbMbbbmmbbccccbbcbbcccgfffff0*   *5pfffpffcbbbbbbbbbbbbbcfffpppfbbmbbcccfcccgfccbbMbbbccffpp05***. .5fcbbbbbczzcccbbcppfp000pcbbMMMmbcccffppfcccfbbbccccfp000pff0*  ..dbccbcccMcffffppfffcbccccfffpfffccczfffppffccbbbmbcffpfffpp5*   .5pcMccccbbcccccccccbbbbcbbbbbbbbbbbcfffccbbbczfpppppp0pp000p05*. .5pffpffcbcccfpppfcfkxcccxkkkkkkkkxcccxfcccfpppfczccccfp00005*.    .*0000000pfffppppasppfcp0555550sffpp0050000000pppfpp55555**.      .*5000000555500085*******5000000555**...*****55553**..              ",
"*******<55***... ..*5555*.  .*3*...*5000555555*.        .*5505*....*505*%..%****upfffp008555*****500pfffff05*..*55*.     *0p000ppp5055555500000050005555000000050000pfcccccfp000pppp0  .. .0pppfffffffpppppppffffccccccccbbbcffpppfcbbcfp0pppfffcffMMc5**. *pffp0pffffcfp000pffffpfcMMccccccccccbcccbcffffgcbbbbcccckcbc0.  %*.0pp000pfcbbbbbbbbbbbbcfpppuppzbbbcffppffppppfcbbbbbbnbcfcf0***.  *0fzfgcffppffzccfpppp000pcbbbnbbccffp000pffffcbbbbbcffp00fff5.  ..dcppbccccffppppppppfffffppppppppfffpppp000pfcbbnMMcfppfzcff0*   *5pfcfffccccffffppffccfffggccccbbbbcfp0ppccbbcfp0000ppppffgff05%  .5ppp00ppccffp550ppsdxcccxxxxdddddssssspfccd050pffccccpp000fp5.    .*5555555ppfffffffffffcp5555**5pspp055*55551550pppppppppu5*..      .*555555****5555<....%..*5505555**...   ..*.*55553**......         ",
"...#********....  ..****.   ..*.. ..3550000055*.         ..*5**....**55*#..*****00pppp05**5**...*55550pffp05**50005.     *005550005555555555555555555*55555555550000pffccffp005900pp5  ....0pp0000pppp00555500000pffffffffzffpp00ppfccfpp00psffffpcMMl, .  *0pp050pppffp000000pp00pcbccfppffffffffppfp0000pfcbbbcffpdccf5  .**.5pp000pfccccccccccccccfppp0ppffggfppp0ppp00ppgcbbbbMMbcccf0 *.   *5ppppfdpppppffffppppp0pfcbbbbbcfpppp050ppffpcbbMMbcffppp000*. .*.pf00czffsfppppppppp000pppppppppppppp000p000pfbbbccfp000pppp5.  .*50pp0ppfffpp00000pppppppppppffzcccfp000ppfffpp0000pppppfzccf0*   .50p05500ppp05**5500rpdffkfkd000r0000990psp05*50pffcxfp0000fp5.     .*1***;500pppppppppppp0555*.*500005**.******5500000ppppu51.        .******....*****.  ... .*55555*...       . .**555<**.....         ",
"..............................   ...*****005*.**.        ...**%.**%%......#**5*550ppp05**************50pp0555555**.      .005505555555555555555555555*****5555585550000000000055*555*   . .50055550000p000000000000000000000000000000p00000000055plccs5@,. o5pst00tt0p090pcp5500*=pfp5ff0pppppppppppppppppp0pcbbcp0pfff0*..   .0pppppppffppppppppppppppppppppppppppppppsfsppffaspbMMcccfpp .    *pf00ppppppppppppppppppppfbMNMbfp00pppppppppppfcbbbcfp0ppp0=.   ..*0p0000pppppppppppppppppppppppppppp0000pp000pfpp0pppp000p00.   .*.5p0pppppppppp0p0pppp000000000p00r0pppppp0000000000000000fzg0**.  .5p0000500000000000000pssr8555599855885555555550ppppp0000000*   .  .5555555555555551******55555***555****************500005***        .*.......................*005*.  ...       ..**53*%.....          ",
"..............................   ....%+%.%*.  ..         ...***+...%*.....******150005**************.*50051***55*.       .5055055555555555555555555555555550555500009505000000555555.      *505000000000000000000000000000000000000ppppppp0000000tpsfs5..  o,tpt55tt050ppp00pff0 .5fp0pp00u0ppppppppppppppp0ppfffp000pf0.     .0pppppppffpppppppppppppppppppppppppppppppppppppppppffppp000      *pfp0pppppppppppppppppppppfcbbfp00upppppppppprpsfffpp00ppp0;.   ..50ppppppppppppppppppppppppppppppppppppppp000pspp00ppp000p00.   .*.*p0ppppppppppppp00000000pppp0000p00000000000000000pp0000fgf5*..  .50000050000000000555500055*55500050005555555555000005555555+       55555555555555555*****555551*********************55555*.*%        .*.........+++...........*55;%.  .%..     ....***... ....         ",
".............................. ......... ...  ..         ...***....%**....******#*555***************.**551****55*.        *555055055555555555555555550000000555500555555550005500005.      *5050000000000000000000000000000000000000ppppppp00000t00tss5o    ,0tt55t0650pf050ffp5  *005000000pppfppppppppppppp000ppp05pp0.      5pppppppdfppp0p0000ppppppppppppppppppppppppppppppp0pp0pppp0      *pfpppppppppppppppppppppp0ppffpp0pppppppppppp00pppppp00ppp03.   ..*0ffpppppppppppppppppppppppppppppppppppppp0ppppp000pp000r09.    . *p0ppppppppppppp00000000pppp000pp000000000000000000p0000pf0=...  .50000050000000005555555555555500050005555555555555555*5**55.       5555555555***555555***555551**<<*****************55***..#.        .*...++....++.............+**%.  .*%..   ......%...  ....         ",
"............................................ .**         ...**+...%%*%....******#***1*************************55**.       *55505505555555555555555555500005555*500555555550055000005.      *500000000050000000000000000000000000000000pppp00000t0055tt,     *5tt55000000pp00005****5**50000rpppffpppppppppppp000ppp00pp0.      5pppppppppp00p00000pppppppppppppppppppppppppppp0p000p0ffffp.     .0fpppppppppppppppppppppp0ppfpppppfpppppppppp0rppppppppppp05.   . *0pfpppppppppppppppppppppppppu0000ppppppdppppppp00000000005.    . *p0ppppppppppppp00p0pp00pp0p00p0p00000000000pp00000000000p5+     .50000050000000059550000555550000550005555555555**5555555555.       555555555******55555**155551**155******************.**..**        .*%..++.....+........... ...+... .*%... ......**%........         ",
"....................................    +%....*%         .....**..***%....**************15*********<551***555555**.       *555055055555555555555555555555555****5555555555055500p00*       .50000000555000000000000000000000000000000000000000000t0005@     *5tt0500tpt00pfp*..5005*.**590000pppfppppppppppppppppfppppp0.      *00pppfppppppppppppppppppppppppppppppppppppppppppp0pppffffp.     .0ffpppppppppppppppppppppppppppppfxdppppppppppppffdppffdpp05.   . .5pfppp00pppppppppppppppppppp000000pppppdppppp0p00000000005     . *p0ppp0000pp00pp00pppp00p00000ppp00000000000ppp000000000005.     .50000000000005559000000000050000550005555555555155500055555.       555555555******55555**1=*****5555******************.******.       .**..++.....+...........  .............  .....%***%......         ",
"...................................     *%......         ......+.***...#.#*************155*********155*****55555**.       .55555505555555555555555555555533355555555555555055000055*.      .50000000555000000000000000000000000000000000000000005ppt0,     o@5ttt00tpfp000p0..*8pp055555555000rrpppppppppppppfffppppfpp0*      *00ppfffpppppppppppppppppppppppppppppppppppppppppp0pp0ppp00      .0fppppppppppppppppppppppfffpp0ppffpppppppppppppffppfffspp05.     .5pfpppp0ppppppppppppppppppppppp00rppppppppppr00p00p0000005.      *p0p000000pp0000pppppppp00000pppp00000000000000000000p00005.      *0550050000005055000000000000055555555555555555555500000555.       55<************5555511*****;;3351*****************...**%**.       .**...........+..........   ..........     .....%%+......         ",
"....................................    *%.....          ....%..+***..******************55**************.#***555**.       .5555*50555555555555555555555555555555555555500555000055**.      .500000000000000000000000000000000050000000000000pp005psp0*   ooo@5tpt0ttpppfp5..50pppp00ff055555558800ppppppppp0ppfp000pfppp*   .  *0pppfffppppppppppppppppppppppppppppppppspppfffffppppppp000       0fpppppppppppppppppppppppfpp0000pppppppppppppppppppppppppp5.     .5ppppppppppppppppppppppppppppppppp00000ppppr0ppp00pp000055.      *p0p000000pp0000pppppppp0000ppppp0000000000000000000pp00001.      *0550050000055555000555500000050555555555555555*55555555555.   .   551********<1115555551******35315*****************...*%.**.       .**..........++................... ..           ....  ..          ",
".........................................+......         ...%%..%***..******%%%**************************..**555<*.       .3535**5555555555555555555555555555*11**555550055500005*...      *55555000000000000000000000000000000000000000000ppp000ptt05o  o.o.50pp00pp0pp05.*0spupp00fcp85858555550uuuuuuuuuppppp000ppppp5   .  *00ppffppppppppppppppppppppppppssssspspspppppppppppffpffppp    .  5pppppppppppppppppppppppppppppp0ppppppppppppppppppu0uppfpp5.     .50ppppfppppppppppppppppppppppsppp0000080rpur0upd0ppp00005*.      *p00000000000p00pp0000p0000uppppp00000000000000000000050005.     .*9890090099988555055555555500000000055555555555*5555551*555.   .   551**5=*115555511**55*******5531<*****************...*%.**        .*.....++.+..+................ .......           ...  .           ",
"................................................         ...%%%%#***..******%%%*5*******************.*11*****5551*.       .*3**.*5555555555555555555555555***...****555005550005**..*      *55555500000000000000000000000000000000000000000ppp000t5505*   . .,0pp0pppp055*50pp00p055pcp00998885539uuuuuupuuppp00ppfpp00p5   .  *0pppffpp0ppppppppppppppppppppsssssspssspppppppppppffpffffp.   .  5ppppppppppppppppppppppppppppppppfppppppppppsdddspprpppfpp5.     .*0000ppppppppppppppppppppppppppu08553;350urr0usfpppp0055*..    . *p00000000000ppp00000000uppp0pppp000000000000000000000550u0.      *9890090999885589005**555550500000055555555555555555551*155.       55***531155555551***51******55511******************..*%.*.        .*.....++++..++..............   ........  .     .....             ",
"........................................  .......        ....%*************%%%.*55<***553***********.*5555**155***.       .****.*55***55555500555555555***%......***555000500093*..##      .*555555500005500000000000000000055500000000000000000p055005   . .5000p00005***0pp050pp550fp0u0009988890rrupuppusfp00ppfpp0pp5      *0ppppdp000ppppppppprrrrruurrrppssssssssppppppppppppp0pppff*.     5dp0ppppppppppppppppppppppppffffffpppspssuuusdfddspppppppp0.      *55550pdpppppppppppppppppppuur0853;;*%%389900upd0ppp05***..      *000000000000000p00pppp0000000ppp0555555550000ppp0000555000%  .   *888000r099888888p05550005555555555555555005555555995555555.       ***5555555555551*******+.++***********5************+*****.        .....+......................    ....%................  ..         ",
"%%%.......          .........................**%.        ...+*********.***%*************3*%%**..****..*55555<**#**.        ...***55*****5555p0055******+....%*******55000000005*****.  ..  .**..****5555555555555000000000p05555555505550pppp0000050pp5 ..  *0000fp0500005000pppppp0000000r0990005;50pssspurrrr00000p0pp5.     *pp0pppu00000ppppppr98558888850uusssdfkkfffppppffpfp00uppff5.    .0ff0ppppp0000ppppppppppppppppffsppsssspsspppupppsdfdspp00fp   .   *55**5pfpppfpffpfffffppp0005985;***3583;33500rr000p08*.**5*   .  .*55555555500505000pppp00000000pp555****550000ppppp0055;5rp.  *.  %9990r0rr099855580up000055*55555****55550000555555555555005*.      5555555555355555<*............%#***55555******%#%***..%55*         .****+.......%%........     ..%*...........****...    ...        ",
"........            .....................  .....          . ...*.****.#***............*****;5***111*...****..**..*.          ...**555555555555**%.....%..  ...**...**<555555553*..#*        ..  ....****************1**1555*********<**55000005505*500%     *up0005**50ppp0550p0000551**+%%%%%%;;**;50rr0098558850550pff5.     *pppffffffp0000pp0055335555555890rrrupss0005555000pppppppfp=.    .5pp50ppddfffpap0000000pp05000pppp0000000rrr0uuuupppsuru50fp.  .  .*55**50f000pppp00pp000555555553;*;*;;3388590ruur00p001**555   .  .**..*****;55**.****111=**15555550555*55500550000005805;50p*  .%  %89899988895555555555551***5555535<<****5555***.....*****53.       *..%*.******5555**..*.............*****11**********.. .*5.         .+.......................   ...%.          ......                ",
"   .....                   ...............  ...              ..........#*......   ...***...+#...********3;*****...             ...**55**.******... . .%..   ...%****555555*55***..**.            .....*******5555*1*****115***********550000005505<555.     #50555**5000pp0005555555555*%%*;;33333;389r999555555555500pp*       ..**55550000000005**%%%%%%%%%;3333399999055555555pp0000p00.      *55*55500ppppppppp0000000000pffppu0999rrrruuuuuuuuuur9055pp.      ..#..*505500000055555***<***33;;;;%%%%;;;;35999955855***55*      ........***35*******1***.********5*******55550000009885**50%  .*  +533383333333333;********....%**#...#.*******......*****=5*.             ....#******.......  ....  .....%***...........  ..*.          ..................   ...........           ....                 ",
"     ...........  ...      . ...............                   ........%......    .%***.............******....*...               . .***...%*..........*%.......*********************.            ...************<*******************.***5555555550<<55#     .**#**#*5555555005***5555505;;;;333333;;333333*;555<*=555555.           ..***555000005*%%%%%%%%%%;;33333989555555555505500005*        .....**500000000005555*55500ppr09333339999ruuuuuurr935**55          ....**5500055555555555553333333;%%%;;;%%33333***5<***55*         .....***5***<<******..**555**.***#..*****;35888553;;*%;3.  .%  .%%%;;;%%%%;;;;;%...#***.+........**....****%.......**.***..             ......%**++....................%*......     .....%*.            ..............     ....................    ......             ",
"     .......................................                    ......**.....   ...***....................    +                     .********.......**%%........*....%*....*********.            ...*******************....*******..%#*********5595<<<#  ...... ..##********33*3*5555505333333333;%;;33;%%%*************            ...%****550005*;;;;;3;;;;3333333999555***35555550055**              .*35500005555****555500053*%%%;;33389rrr999983%51***           .....*550055555555555599933333;;;;3;;%%33333*;*5555555.           ....******15*********5555***1*******;;++%*;;;*%%%;**%%   +%   .X.O..%OOO%%%%%%...**********.******...****...*%........+.               ... ........ .................*%*......... ......*.              . ...........    .....  .............. ........             ",
"        .. ...................  ..........                         ...**...     ..##*..   .............       .                     ..**555*.......+**..........*#...%*........+****.              .......********11*************....**55551*55**5*###.   ..      ...**555**.*555555***55333;;;%%;3333333;%35555555555**.  .       ..........*5555*53333883333333333333555*1*5555555005**%              ..**555500555555555000553**++%%;-3333333;;;;%+.3***           ....   .***155555555558599333;%%;;3333;;333333555555555                 ...*555*11<**#***555***555***3555.+%%***%%+.;3;+.  .%.      XX OOOOOOOO++...***********3*555*...***%...3***...   .                    ......    ...................**%%...... ..  ...                   .......     .....    ............. .......             ",
"                                                                      .....     . .                 *... . ...                         ..*...      ...   .......**..%***...  .......                    ***********1******<*......  ..******.**..#.  ..    .       .**5555**************;**%%%+OO%33;;%;%%%*55*****5<%..   .                  .***+%%%%%%%%%%OOOO+++%%+******35*****55....                  ...555555555*55555****++++%%%%;;;%O..OO..  +*.                     ....***.********%O.....O++%+OOO%%%%.......**..                    *1*1*1555*.....**....*......+..+%%***%%+ %;+.   .%.         OO............**%..........**.  ...... .***..                                   .........           ..                                      .         ..      .                                 ",
"                                                                                                    .        .   .                                        ......      .. ..   ....     .   ..                 ...         ..... ......          .*#  ...   ## .#.  ....    ..........%..     X..X....               .     ...       ..           ..    XXX   .............    ....****   .  ....               ...       ..        ...............OO.. ...                        ..*..........    X .....XXX ...       ...    .      .               ......      ...             ....... %%.  ...+%   . ..X ++O....X   .......         ... ......                  .                          .                                                                                                             ",
"                                             ...         .. .....                       ..         ...     .... ... ....  ........ ...                    ..**.... ...%+.%*....*%.....***..*****%%.....                     .........*... .......5<#.#<*#..0<##<*.#.......  .......         ...%%+.+......+.........***.  *5* .%+.*********.     ..          O%%%%%%+%O%+....***.***5*  .*.+***1**....++*+..           ...      ..*%%%%+++OOOO++%%%;%+O.....*****..........**+.   ..*.    ...    X.O+%%%%+O...O+........***. .**  ***.******.....       ....      ................+++++...*+  .*%++;..++.+%O.%+O.. X                  .........+.....     ..... ....... .%...........                                        .                 ...                        ..           ..                    ",
"                     .....****  .............*****......*********.....                 *55*********355**..+*55***55**355**;555555555555******.         ..*5599550555550000055555555595000950p000000558555*******..      .*555555555050p0000900000pp050p0000p0500050555000955*5555..       .%38ruuurr000000ppppu0000p0u0055pp05500550000000005***333.. ...X X.3rr0000999upu00pppppp0ppp050pp0000000000pppppr05***55*****5**.   *50uppuur0rrrruur99999999000550pp000000ppp000pp055**5503.. ....   %39990rr9r99r9rr3*0000000p005000550p00p0pp00000005*******%..      *0000000009990090000088808;*80098088983898333333*%+...++.        .**5559555555555555555500000***35555**0555555******......          .********************.****.......  .....*55**.....                 .............***..   .........    ..",
"***%**...           *****55000****;5555555***5*5505555555550055555555555**...         *0pp000u0ppuupffpp5**5pppppp000pffpppppppp00ppppffpp0005    +    5ffffccccbccfffffcccccccccccccffcccccccffcccccccccccffp05**      .0fcxxxxffcccccccccccccccccccccccbbccffcccccbcccffffffpff*+. .....*0fcbbbbbbbccccbbMMMbbbbbbbbccfcbbbbcccgfcbMbcccbbccbbbff5...**  .3dcccbbbbbcnMMnbbbbnMMMnnMMMMMNbccccccbbMMMnbbMMbcpccfpp0550*5.   0cbcNNMbbccbbnMNMbcfppfcbMMbcccbbccbbbbbbbbbcbbbcccccccc0. .53%.  rbbxccbMcMxcMkcbp5Mbbbbccccccccccbbbbbbccbbbccbbbbcfppfp0*..    ..pbbbbbbbcccccbcccccccffccccccccxxxccckfffccxkxccffpu05pp5.. %*.. .5ppffffffffffffffffffffxfffppppffcfppfp000pfpppfp0000p00*         *pppppppppp000000000pp0009550000*...*5950pp05**55*.#**.           .*3<***;****3<55**..****...****..*..%",
"..*%....            +++***5555*****5555505******5000888850000555500055**..            *0pp00pp00pppp0055***550fppp0pppppppppppppppppppppp005**... .   .0fcgfccccbbcffffcccfffffffffccffcccffccccccfffffffpp0055****  ...*pfccccccccccbMbbccccfccccccccbbbbbbccccbbbbbbcccxcccp009.*5**. .*0pfccbbbMMbbbcbbbMbbbbbbbbbbcccccbcccbbbbbbbbbbbbcccffp0555***.  .5kbbbbbbbMMMMMbbbbbbbbcfffffffcMMMbbbbbbMbbbbbMMMbcccfpp0555.;*  .0cbcMNMMbcbbbMMbcfp000pffbbcccbMnbccbccccbbccbccccccffp05*.**.    snbbbbMMbbcbbxbcp0bbccccccccccccccbbbbbbbbbcccccccfp00005*.*.   *3fbcbbbbbbbbccMbbccbbccfcccccccccccccccfcccccccccffffp553..* .. . *0ppffffccxccffffffffffccfffffffffffdfffpppaffpffp05555*.....      *00000000pp00p000000009553*5553**5500puu9*55*.  ....%..           .*;;35555555555*%.  .......***%......",
"..*#...             ......***3**5555555505*.....*500955555559555580055553*..          *50p00000000p005*..*5555fppppppp00000000ppppppppffp05*.****    ..0fcfffcxfpp0555500pppppppppppfppfffpppfpppfffcccccfp00505055  ...*pfcccccccccccccffcccccccccccccccbbcfffccbbbbcccfffffp00030p5*. .;pffffcbbbbbcccccbccbbbbbbbbbbbbbbccbbbbbbbccccbbccbccfdp0pp05*. .*9dcfffffcbbbMbbbbbbbbbcfpppppfcMMMbbbccccccccbbMMbbbcfffp055.*#   5fcfbMbbccccbbbfpr05500ppcccccMMnbccfffffccccbccccccfp00000u5.  ..fnbcbbbMbcccdkcpppccccccxxzzffffffcfccccfffcccbcccfp05000955.   55fcpcbbbbccccckfffccbbccccccccccccccffffccccbccfffffff095550... . *0p0sppfffffffpffpffffffffffffffffppppffppppppppppp00055**;*.      .055555500p0pppp0000055;**#****50000550u9****.  .**+%.            .%***333**3535**.    .. ..****%......",
"***#.....           .......***555555505053%... ..*5553******5<5*5555550005***.        .5555555*5550005...*55*5ppppppp095555555500pppffffp05* 555*    ..5pfpppffp0051***555580005559000000000000900pfcccccffp00pppp5   ..*0ppffffffffffp00ppfccffccccccccccffp0ppfcccffffpppppppfcpff5*.  *pppppfccffkffspffffccbbbbccccbbbccfcccccbffppfcbbbbbccffffcf0*...*8up00000pffbbbbccccbbnbcfpp0pfcbbbccfffdfpsffzcbbbbbbccbfpp0.%.   3pffccfffsffkfcpr0550ppp0cccbbbbccffpp00ppfcxbcccbbcfp00pfff5. .%.pccfxfccfpcd5pf50p0pppffdpdppppppppppppppppfcbbbccfp000pppp5.   55pf0fffffffppp0000pfccccffffxxccccffppppffccxfpp000ppp0pffff...   *00000ppppppp00000ppppfffpppuppppp000uppp0055500pppppp095555*.     .55****5500pppp00500555;*.....*0005**.*553..*********.. ..         .**************.   ... ..****.. ....",
"*****..... .        .... ...%*55555555553*....   .****%.....******55<50005***..       ..**5**...**555**.*155550ppfp05555***..#*500pppfffp5*..580*    . *8000000000555555555555555555555555**5505500fcfffffp0000pfp3     .500000000000005550pffppffffffffffp05500pfffppp000000pfcMccf*..  *0pp00pffpppprr00pppffcccccffffffpp0ppffffp000pfccbbbcfffffcf0. ...*50085000pfcbccccccccbbfpp000pfffffpppp0000pppffgccbbbbbcfpp..    *0duffpp000ppppp0000ppfp0fccbbccfffpu05500pffcbbbbccfp0ppffp5.  ..0pp0pppp05f0*p0.5f5000ppur00000000000000000pfcccfcfp000ppfp*    **0p50pppp0000055550pppppppppddffffp00000pfffp0005550000dcbbc. ..  *00555005595555555000ppppp00500005555500055***550ppfp0553505*.     .51**.**5000p0005555555**.....**55**....*3. .*5***;5*+...%         .**%..........*.........%***%..  ...",
"%%%%%%.......       . .......+*****.%%%%%...*..  .**%............+%*%*355**...         .*%*%.. ..**********15<*0ffp5**15**....*15500pppp05***055*      .*5555550000000000555555555555**555**5505500pfpp00005555000*      *555555005550p0550ppp50pppppppppp0055500ppp0000555500pfcccf.    .500000p000pp0000000pfffffff0000055555pfpp055500pfccfp00900pp*      500pppppffffffppfffffpp0005550ppp00p00050pppppppffcbccccfpp.     .0p0fp000000000ppp0ppffpppcbMbfp00pp05550ppffccbbccfpppppp8*.     5555000055f0*p5.0f500000000000050005550p0000pppp0pp000000p0.    . *05000000505500000555550000p0pppp005550uppp55555555550pfcbc      *55*55555555*1****5550000055<5555*****5555**.***500p0*.  .05*      .5**..**55550055*****3**.......  .***%...%   .+...*5;+...*.        .%%...........*.....%...%***...  ...",
"........  ...       ............        . ..**.   %..........  ........***....         .*%*%....#***.****.#***.5pp0*..*55*****15555500055***5051.       *5555555555555555500000000005555055550555500pp055555555555*      *550000000000p0000pppp00000000000000000pppp000000000005upcc5..  .50rpp000ppppp0000000pppppppp0pp000000ppp0000000ppppp005000pp*  .   *00ppppppppppp000pppp0000005500000pppp00ppppp000ppfffppp000   .. .0ppppp00pppp000p000pppp0pfcbcp050pp00000pppfpffffp000ppp05.      *550p00050pp005*pf00000000000ppp0000000055550pp005500055555.    . *00000000000500000055555550550000000000000055555055550550dc*.  . .55*5**5555555555**155555555*5555*****5555******55505*...*5*.       ***************.....*..... .......%**.  ......  .***.....         ...............    ... ...%%...  ...",
"........ ....       ............        . ..%*.........................***..**.       ..**%....#****.****.....#*5051****55****1555**5555****501*.       .*5555550000000555555500555055550555051555500pp05000055005*      *50000000000000000ppppp0000000000000pppppp00000000ppp0500cc5..  .*0pppu00ppffpppp000000ppppppppppppffpfpp000pppp0000ppppppppp% .+.  5000000005ppp000000pp000ppp000000ppppp00ppppp0500pppp000005   .. .0p0ppppppppp00p0000000000pfff0000pp0000ppppp0ppppp0000pfp0*  ... *5*0fp000p0pp5.5ppp0000000000ppppp00000555500ppp05000055500.    . *p00000000005500550000055555550055000p00000500500505005*50f**  . .55555155000555555**1555551*<5555555**55<5*5151***555<**535*        *******.....*........... ...%*5*.........***....+.....  .         ...............    ...  ............",
"............        .................   .  .%%........................ .....*%.       .***....*********1****.*****5555*#*5**********555**555*5**.       .*555555555500555555555555555**555*55555855555005500555555.      .50000000000000000000000000000000000pppp00000005500pp05urfp. .  .50pppr000pfffpp000p00000000ppp0pppffpppppppppppp0000ppppppp0. .*. .5ppp0000550ppp000pppp00ppppp0p00ppppp0050ppp05550pppp000000   ..  5p000000ppp000ppp00000000ppp000ppfp0000pp00000pppppp000pf0*   .. ***0fp0p0p50f* 0p0p000000000000000005555000000000500p055500*    . *pp000000055555555555500555500005*50pp00555055555500005555u... . .55555*55555555551****55515**5*555055*5*****15**<********<*.        ***53**.  ..*.#...%........%**%..........**...%.. ....             ...............  .....  ...........",
"..........          ..........%+%...........................%........  .... ..        .***....******1**5****.*5*..*555************5555***555*5**.       .55555555555555555555555***555555555559000555555555055555*.      .555500000000pp000555550000000000000p000055005500000000ppp0  .  .5000000pppppppp000pp000000000000pppppp0000ppppppp000ppp0ppp0.  .. .5pppp00000ppppp0pppp0000ppp00pppppppp00000pp00550pppp000ppp   ..  5p000000000000ppp00050000000000ppfp00000pp00pppppppp005pp0*   .. .150fp000p*5p. 50000000000000000005555500000095500000000000*      *005555555555550555555500055500555500p055550555555550555555      .*5555*55555555*******5555115**15555511*****51*******#%+***.        .*****.. ..%**%%.%%........**.  ..%**......  .%.  ....  .          ...    ............%...............",
"   .......             ....   ..... ...........   ................... ..***.+.        .***....************..+*55****1555**.****5550551***55<.55*.       *55*5555055550000055555555555555500009550000555555500005*..      .5555800000pp0000000050000000000000000000000000000000050upu5 .*. 5000000ppppp000000000000000ppppppppppppp0000ppppppppp00000p0.   .  *500ppppppp0000000000000000000pppppppppp0000pp0000ppp500pfp    .  *000000000000pppp000000000055500pp0000ppppppppp00000000000*  %%  .0p000pp0p05****55500000000pp00000000000000pp000005000p005*.      .5005555000005005*5pp000000000000000555555555555555555*555*.      *5005555555555********55555**1511**<*55<***555*...**.****5<.       .........**%%#............*%%............................         ....     ...........................",
"   .......            ..+.... .................   ................... ..**....        .*******************..**55*****151*****55555555***5555*55*.       .55*55**055550000500555555555555555555550000005555000055*..      .5559000000000000050000555500000000005555000000ppp000000000* ... 5000p00pppp0000000pp00000000000000000ppp00000ppppppp00000pp0.  ..  *00ppppppppppppppppp000pppp0p0ppppppppp00000000000ppp500ppp    .  5p00ppppppppppppppppppp0pp0000ppp0pppppppffppppppppppp0pp0*  ..  .5000ppp0f05..505* 0000p00055000000000050000000000000p00055.      .5000000000005505**000555555555550555555555005555555555555*       *0005555550055555**55555555**********11*****<**....******5*.       ************%**..........%%+%............................         ..........%.........................",
"  ..........          ..........................  ......................**....        .*************#*********55********<*5***5555<1****5555*55*.       .*5*555*555555555505555555555555555****355000005500005***..      .50000000000000500000005555000000000055550000ppp0000000p000*  .  *000p0000000000000pppp000000000000000ppp0000pppp0ppp00000pp0.      *00ppp0000ppppppppppp0p0ppp00000000pppppp0000000000005000p0       5p0ppppppppppppp00pp0pp0fp0000ppp0pppppppppppp00ppppppppp0*  ..  .*500pp05*..*50pp05555550000500000000055555500000000p00555*.      .500000050000500555505*55555555555555555500000555555555555*       *500555555555555155555555551**<51*1************..********55.       ******.*********....%%%++...............................+         ........%%....   ..................X",
" ............         ...... ...............................  ....+....%*%.....       .******##%***...***%*****<********133*************=555*551.        **.*55*****5555555595555555*<115****%.%**55900055005*%....      .550000055055555500000000000000000000000000000000055000p000*  .  *000p0p00000000550ppp0000000000000000ppp00000ppp000000ppppp0*      *00pp00000p000pppp000000000000000000ppppppppppppp00005000p0       5ppppppppppp000000000000pp000000000pppppp00000000pppp000pp5      .*5500p05.*3000000055****55000000555555***5550000000005****       .500005555555500055095*50000000055555555000000551555555555*       .500555555555*1**5555555555555555555;********************55.       *****....%***%.%....***+.................................         ............. .....................X",
"  ........%..         ....   ...............................   ...++...**%..%*.       .***..#..........%*%*****31<*1************+*..***5155**551.       .**..*53**<55555555505555555********....**55500555095*.....      .*5009505555555555000005000000000000000000000000055500000005     *000p0pp0000000000ppp0000500000000000ppp00000pp00000p0ppppp0*      *0pppp00000p000pp00000000000000000000000pppp0ppppp0005000p0       500p00000p00050000000000000000000000000000550000000p00000p5      .*5555055550ppp0000005**.**55055551********55000000005*****.      .50595555555555500005**00000000005**1155000005555555555555*.      .5555551555******5555555*****<<*3333**********************3.       ..***.....***%+.....*++..... ............................         ..........    .....................X",
"  ........*..         .... .................................   ....+..%***.....       ..**....%#%#%.......*******1551************..**<5555**1<5*.       .*.  *55*=55555555555555553*****........**5555055505<*.....      .**5555555555****5555555555000005555555555550000000500000005  .. *00000ppp000000000p0000055505550550000000p00000000000p0pp000*      *0ppppp0000pppppp00005505000050ppp000005ppp0000ppp0p00pp000.   . .500p00000000000pp000pppp00ppp00000000000005500000pppp000005.      *5****5500000ppp05fp05*....*555*****.*****55000000005*****.      .*55555=555555*5555****5555555555******5559005555555555555*       .*55555555*******5555333**********************%%..*********.       ..**.....%*++.............    ...........................         ..........    .....................X",
"   ..........        ...................     ...............  ........%***..#...       ...**********.......%**.%*1155<**555551******555555******.       ..   .***55509555555555*****#..........**555550055955***...      ..*************.**********115555**********50000pppp000505005  .. *55005pppppppppp000005055555*********500000000000000000000005.     *00pppp00pppppfppp0055555555555555000ppppp0000000pppp0pp00p*.  . .50000000pppppppppppppppp00ppfppppp00p00000000pppppppp005555.      .**...*55500000pppp00055*...*****.....****55500000095***<5*       .*..*****<<<*...**....*************...****5585000055**355*       .*555505555555555********..............*****+%......****+.*.       .*********...............     ............................         . ................... ............X",
"   .....  ..               ...........        ..............   ..... ..**......           ....******.......... ..*551**************555555**%.....            ...**5555**55********%.......**....**15555555*5****...       ......********%*%.#.#.************.......*550000pp005*5*505  .. *555950p0000000005555555555***********555005555*555550000550;.     .**5500000000ppppp0551*35**55**.*1550ppp00000550000000p0500..  .  *5*5*55000pp00pppp0000005500ppppr000000000000pppppp0055***5.       ..   .*50pfp5**505155555*****..******..**<555550055******.        .  ...%*****.  ... .+++%++.++.+**........**5550055*%.****       .*<**5555************%%..................#............%%....        ....*****..................    .....  ..................                ..............   ...    .....",
"    ....   .                ........          ............... .....   .%... ...              ...****..........  .******#......******<555*%... ...             .  .%***..********.........****....***********+**....            ...********#.......********************55500005*****55  .. .***5500555555555553**55*1**************5555*******555555**5*         .******555000005*****<**55****5555005055555550055555***0.      .%.+..**5500050000555*******50pp05***5555000000000055*5*..1.            ..*5000****5********15*...******..**5<555555*#..****.             ...****   **..**.++++++*.****....... .**55555*. ..*.       ..*..*****.....#****..... ........... .......    ........ ..            .........      ..........  .....   .................                  ..  ....       ...    .....",
"    ....                          ..         ..............   ....   .....  ..                  ...*.....  ...   ..****.     .....******+........                 .........#............................*..........            .....********..***.**<*.*11****************5551*******  .   ...+.5**************3***55*15555********1********1555155***.           ...%****55505***11**355*55505555***555555555555****#**             ..*555555551*******..%*5955*.**555***555555555**5**..             ...****555551<***.#**5***..*<1***********5**....****.              ..***%. .*3*#*;...+%%%*;3***##..... ...*5***.......             .     .............  ...%......  .... ..  ......... .                 ............................        ............                     ....        ... .  .....",
"........                           ..     ....  .........     ..    .*.%......                   .....      .+%..  .......  ...   *.......%...+.    ..           .......**.....  .%................... ........**.           ...   .*. .555*.**5*..505  55************....**55*155*   .           ...*****..**55***151*151**...#*****.#*5555555****55.    .        ..******55055**5**1*555**5p0555*.5***555555555*..**%.           ......**5555****55555****..*5***5005*..********550555*             .....*****155**55*****5.**. *55**55***..***....*%****               ...** .+%33;%%%  X.%%%;59...#***%...*...**....***.                    ...  ..  ..%.. . .%.  .%.  ...  ... .%...  ...                      ................+;....   ..      ...........                     .           .....  . ...",
"                                        ....      ..          ..    .* .    .                       ...    ....     ....*********.       ..   .%*%.                   ..**.....+********555555******************;.                     .***..***...**. .*55555550095**...%**5*.***.   .     ..**5*****5553*...%*..****.*555***5***5*****55*5555******.                .  ..555*. .*****5555*55**551*9****5****50055***..                   ..******1***55*****3****555=*@**...  .....***.                     ........*****5* *55.*5555**.....*********5***                    .O%%%OO.OOOOO..O++.......**************...*..               ..***5555*........... ...  ..             ...     .                 .          .*....     .         .%....***.                                                    ",
"                                                                    ..                                                          .         .                               .    ...  .                                                    ..   .  ...    ..               ..... ...             ..       .         .........   ......    .         .                   .    .%**. ...  ..   .**  ... .......  .%.                             .. ....   *........           ..........                              ...        *55.    .      ....                              ....X   XX XX        ..    ...                                 . ..           ...                                                                                                                                             ",
"                                                ..          ..       .      ..                                                  .*...   ......        . .........         .                                           ..      ...   .   ..        .             . .     ............  .*..    ....     ....      ..           ........          ..*....... ..  ...     .    .....            .  ...  .++*..  ..      ...*. ......                                 .      .%...   ....      ... ......   .........             .**     ...........          ...#.. ... .%+....  ..XX   ...                  ..      ..    ...    ....   ...   ....              .      .  ......                                                                                                                              ",
"                  ..   .        .                      ........      .......****......%...**......#*.                  .#***...*55*******555585;%... .%%*;****;;55**5555*#....           .*55******35555555551*<***5555555555555555555553****......   ..   .*5555005*;555555555550055500555555000555**555555**..**.         .*0555555555*55555500ppp005000055500005555555555*****.      ...  .%*50555505055**55=***5550005555000555555****555**5****..      .  .*5555<550005555555555555**5055*500555555555559555******......   ..****5*5555555555555555555500055550050005908. %;%%%++%%%.   ..     ..**..**55555555555*555555555************55******..*..            **3******************...********......   ..***...                  ......*......  ...........   ..  ........                           ",
"..+***............**.................   ...          .*555**5***...**********355***35555555555*;5500551*****..         *0000550ppp0000000rpppkcxd9*%%;0rrrrruuuuppppffcffp5008*.       .*0fcccppffffffffffffffffpppfffffffpppppppfffpffffp0005555%........*5fcccccbcffzccccfcffpffffffcfppfffffcccffpfffffgp0000055.  .   .*0fbbcxxcbbbcggccffcccccbbcfgbbbcfcMMMbbbbbbccbbbcfp00095**.....  *0fccbbbbcccffffffffppppffffffffffkcffcccggffcccfffffp0055.%*..*..3fccffffccccbbbcccccbbgccfffcffpfcccfffffspppffffpppffpp5*....    *fcczcfffffffffffffcffffcfffcffpfffcpffffccf5+uuuurr93333O.O;;X ...*5pppppfffffffffffpffffffffffpp000ppp00ppppppppp0055555*.         5pp000555505000000pp0055000555000000000555555553**....%..         .*55*1555***55**%****%%**********.*******......                    ..",
"***********.%%.%+***......**..******.......          .5505550555550555*#.****350000000005500050000pp000555**.         .*p0000ppppuppu0uppspffcckp5*;5rdfkkfdffkfpppffccff050p05.       .*pfcccccccccccccfffffcffffccccccbccffffzccbccbbbcfffppp08*....   *0fbbbccccbcccbbbbbbbcccbbbccbcccxfffccccbcccccbbbcffppp05*.%..  .5pcMbcccbMMMnccccfccccccbMcpfbMMbfcbcccccccggcbMMbccbncd05*.      5fbbbMNMMMnbMMMMnbfpp00pfffxbbbbbbbbbcbbbnnbMMMNbcbccfpp00**5..*..5bbbbccbbbbcccxffxccccbMMMbbbbcfbbbbbbccccffccbcccxxcffp5*.   .   5cMbbbbbbbbbbbccccccccccccbccccccccccffcbbbf05cxxxkdu93;;OX.%.   %upfccccccccccccccccfcfcffcccccccfffcccffffppppffppp00555*.        .5pf000000ppp0p0000pp0055555000pppfppppppp0000005555**....         *50555055**5555*%.%%....***55555********....%*...                 .**",
"....**%...***...................*******%             .*555;****550055**...%%%*50ppp0000555555555500055555*.   .       .5fp00pfcf0500000000ppur8;. .*8rrupppupppp0pppfpp00555555*.      *5pffdfccccczffffffffccccfffcccccccffppppfcbcccccfpppppp0095.     5cccbccfffffffsdffxccbcxcbbcccbbbbccccccbbbccbbbMMbfffp009555*   .*0pppp0pfcbbcffcccbbbbcfffp0pfcbbcbbcffcccff050pp00pfbp53*........*pcfccbccbccbMMMbg0000ppfccbbbbbbbccfffppppfffccccccfp0000555. .  *bbbbcbbbbccfffffffcccfccccffffpccccccffffdffccccccf5***=555%..   5ccffccbccccffffcccccbbbbbccccffcccffpsfccfp00fdddssu983+%%+.    .pffffffpppccxffcccfffffppfffpfcffffcccffffp0pfffff000555*...      .500005000pppp005500p05*5****5000pp05500005500055055**....         *555555055550005*........*55555<**..........**.....                ..",
"..........*......................**********..         .*55;*...*5555%..  ....*50pu000055*...*++**55000005*.  .*.      *0p5*50ff0*.3**;;55508*+.. ..*88;35853355550pfffpppp0***500*     .50pp0ufffppppp000ppfffcfffpfccfccffp0050pfccfffp000pppp0rff5  .. *pp0ppfffffpp0000ppfcbcxcbbcffccccfffffcccfffffccbcccfppppff0.   .50000000pcbbcfcccbbMMbfp00000pfcbMbcf0pfccfp00pfpp00pccfp05*.......0fdfcbfffppfbbbf0000pppppccbbbbbbcfp00000pppffcbbccfp000ppp0. .. *bcfffffcfp0000000ppff00pppppp00pppppppp00uppfcccccf05*50pf0*    .5ffppcccfkffppp0pffffccccccccffcccfpf0ppff05500999ruuur95sd9.  .  90000pppppp00000p00pfffffffpppfpppppppppfp950pffffppp0055505      .***5555500p0pp0000ppp55**..*5000005**5005..55555555**555*.        .********.*<555*........**5555***..   .......%%.....                 ",
"....................................+***553*.         ..***%   .%**%. . .....+500005****........%*;500p003*...*.      .55*..<005. *******35*. ...%%*;*+****%+%**550pffffpp5***0pp5      *500550000000050000ppppppp0pffppfpp05550pfffp0005500p000pcb0. ...*55*50pppfp00055500pfcccccffffpppppppppppppp000pfcbbcfppppfc0.   .*0p00000pfcccfffcccbbcfp000000pfcbcfp00pffp0ppfffffppfbbfp05*.     5pppfcfpp00pfcfp000ppp00pfccbcccffp00pp000ppffcbbbcp000pppfu* ...*cpp000pp055555555000p55000000550000000000000pffcfppp0050ff0.    *5pp0pcppppp000000000pppffffffppfccfpp000005*503335890upssccp.  .. *555550pp05555555555ffccfppppp0055500000p5***5ppffffpp055000      .*.*5***55000pp000ppp095**..*550555*..*55*..333;355555005*.         ..+..... ..**%.........**5533*%..   .........%%......               ",
"...............................    ..*;55**..           .%............  ..  ..*5000*  .*.......%***500555*****#       .**...**********..*;5* .+**%++.+;333;*%%****500pp005*.**551.       *05155555555505555555555555000000005550pppp05555000000pfcbu.    *05500055000000000000pcccf0000000000000000p0000pfbbcfp0000pf5.    .5p000000ppfffffppfffffp00000000000000000000ppp00fcfpfcf0555*.     50p00ppp000000000p00pp00pcMbcffp00000fp050p00pcbbbf050pp0005*..  .000000000000000000000000000000000000000005500pfcp0500550p0*   ...*5050p00005550005555555555000ppppppp0005***55535985*;5usfks8.     55055*500055555555550pccp5**805555555555555***50ffpp055***5*       ..*55****50pp5555551<**...*******......****%%.**550p05**..           ................  ...***;**...   ...........*%.........           ",
".........................++.....   ..%***#...           .%............ ...  ..*;555*  .*. .....%***351**......*        .**..******5*...*5;*. .+*;;*%%*;353;**;;****5555555****551.       *55**55555555555555555555**55555555**550000555555005000pfc0.    *550000550000000000000pfpp0555000000000050000555pffpp055500p*      50000000pppffppp00pppp000000000000000000000ppp550pp0pp0*****      *0000pp0000000000p000000pfbccfp000005pp550000pffffp5500p055*.     0000000000000000000000000000000000055000055500pf05500050p0*    ...5050p0005555000555555555555000000000005**150058985;;8rpsdp5.     *5555*5000555555555**5555*....5555555555*******50p055*#...*.        .**.....*555*********%...*.*****......%%%.......*3555*...           .................  ...****+.................%..........           ",
"........................++.............%..  ..          .%................. ...**5*.  .%.........****.........*        .**...*****1*.*****.. .%;;;;;;***;;;**;;;**********55**55*.       *551155555555555555555555******5555**5550005500555555500pf5     *550000550000000000055000055555000000000550005500pp000555500*      *000000000ppp0000000000000000000000000000000pp550005505****.      *0000p00000000000p0000000pfffp0000000p00500050p0000550pp05*.      50000000000000000000000000000000000550000055500005*00000p0*      .5055050055550000555000000555555555550055<555588085;;5000p05.     *55555500055555555555****55*..555555555*********5555***..**.       ..**......***..........*****.*#............... ...*****...           .................  ....%*%.......................    ..           ",
".........................................   ..          .+......................**..  .%%.........%%%%.......**         .***..*********.......+*;;;;3;%*;;;*%*;355****55*5555555*        *55**5555555555555555555511**5555555550055000005555555500p5     *50000555500000000005550000055500000000000000000000000000000.      .00r00000000000005000000000000000000000000000p00pu05*555551.      *0000p00000000000p00000000ppp000000000000000550550000pppp5*       5000000000000000000000000000000555555000p00055005550pu00p0%       5505000055555050555500005000055555550005555550005555550500*      *555555555555555555505**50053*5555555555******************3.       .******...%**....#***********.......................%%....        .. ..................    ..#.......................      .           ",
"..............................................          .%..........................................+%+%.******.        .***..***%.*5<*   .+..+%*;;;3;+%****%*;5555***5555053533*        *55**55555555555555555555555555500550000500p00055555*15550*     .50000505550000000000050000000000000000000pp0p00005000ppppu0.      .0ppp00000000000000000000000000000000000000000ppp005.*55005.  .   *000pp00000000000p00000p0050p0050000000000000555000pppp000*    . .5000000000000000000000000000000055550000pp0005005500pp0005.       *005000055505000555500000000000555550000505550005555555*55*      *555555055555555555555=55009555555555555**55555*********135*       .*55*********..#*****5*******..........   ..**............        .. ..................     .........%..............       .           ",
"......................................  *.....        . .+....................  .  ......%............++*******.        ....+.%***.***.  .++ ..+%%%*****;;**%*;35555***55555*****        *55**5555555555555555555555555550555000055000505555***5550*     .*0055500550000000000055500000000000000000000p00055500pppu00.      .5pppp0000000000000000000000000000000000000050p00555.**50p5*  *.  *000pp00000000000p00000p0050000000ppp00p0000005000pppp0000*    . .*5000000000000000000000000000000000000000ppp00550000pp0505.       *90550555505550005500000500000055555000050555005555555;*55*      .550550555555555555*.*555**3355555555555555555***.*********#       .*55<<****%.+.*%************........       ...**..........        .. ...................    .......................      . .           ",
".................... ........ ........  **....        . .+............%..........  ..*...%....................*.        .....%%****..  ..++.....++.+%*;353;***;**********555****.        *55**55555555555555555555****55555555555**5555555555555550.      *50555005500000000005555550000000000000000500005**555000005.   .   50ppp0000000000p000000000000000000000000000555<.*55*5550p0.  .   .000pp00000000000p00000pp050000000ppp00p00000050000pp05*50*       *50000000000000000000000000000000000055500000055500000055*.       *50505555555550005550000055555555555000055555055555555;*55.      .*50550555555555555*.*555*.*555555555555********...#*******.       .*5*****...............%%***.....            .....     ...        .. .............................................       . .           ",
"........ ........... .......    ...... .%.....          .*............%..   .....  .**. ..%%..................*.        ......*****.   .**%...+.+...+*;33;;+++++.*******155*..%*..       .5***55555555555555555553***311555505****55555555555555055.      *5055500550000000000055555500000000000000055000055500000005*   .   500pp00000000000000000000000000000000000000555*..5p5000pp5.      .500pp000000000000000000p00000000000000p0550pp00050p0555005.      .50000000000000000000000000000000055555515500055500500055*.       *5550555555500055555555555555555555500055555505;*550555*55.      .*5555555*555555555**55555*=555555555555*******************.        **.........................%.%%.    .....    ....     .%%        .. ........................%.... ................    .....           ",
"........  ..........  ..**..    ....... ......          .*..............   .....+  .**. ..*%........%%%%*%....*.        ......***.......***%++%++....%;;;*+......*1555*555**...*..       .5***555555555555555555555555555550055*5555555555550000055.      .005550055000000000000055550p000000000000050ppp0500000000005.  .   *50000000000000pp000000000000000000000000005505**0f0000005.  .   .500pp000000000000000000000000000000050p0550pp00055pp055p05.      .50000000000000000000000000000000055******50p00500p500555*.       *5550555950000055555555555555555000000055505555**550055555.      .*5555555*5555555555511*5551**5555555555***#**1***#********.        .*..*****%..***..............%*.   .......  ......    .%%        .. ..............  ....++%%%....   ..... .................           ",
"  ....    .......... ...++...    ......... ..           ... ............   ....... .**. ............%%****....*.        ......+*..  ..%%****%***%+..........   ...*55555555*......       .5*.*555555555555555555555555500050055*5550055555550000000.      *005*500*50000000000pp00055000000000000000000pp0000000000005.      *500000000000000000500055500000u00000pp000555pp550p00000p5.      .5000p000000000000500000000000500000050p0500pp00050pp000pp5.      *505555000000000000000000000055555*****.***50p000005555*1*.       *555555909005555555550555555500000055555*50005***<50555505*       *5005555*55555555555<***55**+5555***11*******************..        .*****************........................  .........  ..        ................................   .....  ...............            ",
"   ..               ....................%.. .           ... .................... ...........................***.        .......*..  ..%%**********..        ......#**5555505.   .        .*...*5555******555555555555500051*<***.*500055555555555p0*      *00***00*500000000000000555555555555555500u0055555555500ppp5.      50r00000000000000055505*<5500ppp05000pp000*50pp0000ppu00p0.      .*500pp00000000550055000000555500p0000ppppppp000000000000p5       .55*.*50000000000000000ppp005*.**********.*55000000p05****.       *5****5550055**55555505555055555555******5000****555**5500*       %0p0515*55555555555555*******553***.*******************%*...       .3***************.....**...   ...............   .....   .        .................%%.....................  ..............             ",
"                              ...............                   ................    ..........................*.        .    ..... ..*******.+***+.         ......%*3555555*   ...   .   .*.  .............****.%****5555*****%..**5505500555555500*     .50p550pp95555555555555555*****555555555550000555055555500005.      *000000550000000055555.  ...****1550000005**5000000p0050p0*      *0ppp000000000055000000000000000pp0000000000000000000005505       .55***50000pppppppppp5550555*..************5500000055*****.       ***.*.#******..****<<5555555555555**....**5555555555555500*.      *0p05***5555555555555***....%*%%.......******************...       .***********.***%.........    .......................  ..         ....     ..............................................             ",
"                    ........................                     .....              ..........................*.               .....%***##*........          ......***;***..  .**..  .    .       ............. .....****...*%....***555555555***00*     .300550pp000000000005*1*****..***********55055***5*****55555*.      .*5555555555000055*****#*****551550ppppp00**5555555005*5001.     .*005550000000000055555555*5000000005000ppppppp000555555505        .%...*55000000555505***<3**.. ************55505555**.****.       .........****..********************.......***555555555**55*.     .5005**1555555*5*******... ......       ***%%#.......%%%%**.        .*.....#%%%..****.......       ................    ..  ..                   .............  ...........................                ",
"           ................... ........... .                    ...............     ........................ ..                 .....%*%....  ......       .........%****..  ..**..  .           ...........................*%.....***55555**..**5*.      .*5**5005555*5************....************3**...**...******.   .   ...******<<550555******************5000051********5551**55*.       ....*5000000ppp055*****..55000055551155000000005555555*5*         . ....*50055*******..#****...************55555**<*******.              ..******.......**************.......**555******.%**.      .*55*****5*******%%+.....   ......      ........  ..........         .  ..........**... ..         ...........+...      .   .                   ....%........  ...........         .....                  ",
"          ....................     ......                       ....+...........   .........        ........                    ........... ..........    ...... ....%%...  ...*..   .          .......%*****%..............**.......******%....**#         ....***...........**.#**....**********.***..........*****.   .      ......%**55555***.***********...**55**.****************.            .**55550000555****...*55005*****.***555550555555***5*           .....*5551******...********.******.*.***55************.             ....******....******************.......******.....*..        ...  .******...........    .......  ......          ......                .... .....            ..         .+....                             ....%........   .........          .....                  ",
"                      ........    ......                            ..               .....          ........                      ........  ..........    ...... .........  ....                 .......*****...........+...**.......%****%........              . ............++%%++%++*********%*****...%%%...*****.                ...***35*%*************...**********************.               ....***5555******..*55005****..***155555553********.              ..**55555*************5*.........****************%.               ......*%*.***********+***..****%+....%%......  %..               ...%.........      .................            ...                 . .. ....             .................                                ...                              .                     ",
"                              ..........                                              ......    ...       .                       ........ .... ......     ..............  ....                         .......  .*......++..........%*****%......                 .**555333**......%%%%..%%**...**555***************.                   ..****...***************55555553*...*********          .            ..*55**********555******55555555********.+..                 ...*****************1**#%.%%**.*****...********.                      .%%+.*******....**%#..%%*......%%..........                 ...........       ......   ..........     .  .....                       ..              ..................                                                                                      ",
"                                    ....                                                                                              ....  ...     .           .......     ...                              .   ...    .... ................. ..                   .........  ...................*****...............       .              ........         ...    ...**.  ..*.......          .              .*#...+*......****.......................                            ..............................*......                        .......***..........    ..    ....... ...                  .........                     .....      .                                                 .........    ..                                                                                       ",
"                                                                                                                                       ..   ..                                                                                  ...             .                                     ..           ...                       *..                  .                   ...     .                             . .               ....     ..          ....                           ...                            ..                                     ....     ..                                     .                                                                                                                                                                                                    ",
"                                                                                       ...          ...    ...  .....***..... ....      .   .            .++*...................  .......*...*.*******..                 .+..%*******.........#*5*++****.***.****.**....%.......       ..    .****.****....****%**...***5****551**********....... .     .....***.*#****5**#.**5***...******55******51****555***.              .*555******************55******.**555555*****.*.........           ..**....*********5***********..**.**********+...*..              .......................***..%....*..***....***...                     ........... .........        ..............                                   ..    .        ...                                                                     ",
"                         ......................%...............****.. ...             .******;55****555****155**555550005555555805*55**.**...           *0pp000009995900000000000005000000000000pppppp005**....          *0ppppppppppppppppppppffffffspppdfffffpffpp00p0u0085555% ...  .%  .*5ffffpdppppppfpppppfppp0pffffffffffffffffffcfpp0005**..    .....0ppfffffppppfffffcccfppffffffpfffpppffffppffccfp0505;55.... .    *pffbfffffffffffffp00ppfz0pfcfpppfcffffffppffpppu0055****. .      *0rfcppppppppddfffffffffppffppppppppfpppffcfsp00pp055*...         *59pppppppppppppuupu000fdpp0p000000ppp00000pp0055****..  ...   .   .*5005555800955505558009555***5505055555550005*.......           .*333*******************....**5**********...*..                    .......    ...*..     ............  ",
".....               ......++++..........%......%.***************5553*....             .*55055555555505**..**555500000000555555500050pppfcccd5**#.      .50pppppppppuuuppppspfppppppppppppppffpppffffffpffffffp0*        .0pffffffffffcbbccccffffpppffxccccfzffffccccbbbbbccccfpp0555*.%.  0fcccppfcccbbbbbMcccccccccfcccccccffccccccccccccccccccccx5.       .pcccccccccccccccccbcbbcccfccccccccfffcccbbccccccccfppfcp5*. ..   5pcfbccccccccccccfp000pppcccccccccccccffffffcffffcccccbxp0*....*5.0pfcccfffccfzffcfcccccccfcfffffffffccccffccccffffffcccf0<.       .5ppfffkfxffffccffffffffffffffccccfppffppppfffffpppsdp005..*.     .5ppffpupppppppppp00pppppppu0000000uu0p00000upppp00000055*         .5555555555000000000555***.**555555***55********...               ....***%......%*..     .........    .",
"......              .....+++%%..++++++++**+.......*********.****5555*****..           *555005555550005*...****50000055055555555000ppspp005*..         .50p00ppp0ur00090000pppppppppppppppppppp0pppfffffffp00555*..      *ufcfkxxfgxxxcccccccbbccffffccccccffffffccbcffffffffd08055**     .fccffpfcccccccffccccccbccccccbcbccccccbbbbcccccbbbbcfpu0595*.    ..pffppfcbbMbccccccfccbccfppppfccbbcccffccccccbbbbcccfp05*.**...   *pffbcccccccccccffp005505bbccccbbccffffffffccbbbbbcfpp005*..     .uxffccccfcffpppppffcccfcfffffpffffffcffppfxccccccpppp0055*%.     *rxccccccccccfccffkcccxfppfppppppfffppppffffppp0000005**....      .500ppppfdpppuuppp00pffpppddppppp000upppppp000p050555****. .       .***;555555555555***555***..**555551**************......           ...***%......%*..      ........    .",
".......               .......+++++++++++**... ....****%.......+***3***155**..         .*55553*%+*5559;%...**.%50000555*<3*****3550pppp005*..*...       500550p00955******155555555555550000000000ppppfpffp5****555.     *0ffppsppsppfppp0pfccccfffffcccccffpp00ppfcfpppppp0pp000p005.  ...pfp000fffffpp0000pfffccccccccccccffffccccccffffcbcccfpp00pp0*.   .*505500pfcbbbbbbbccccccp05550ppfccccfppffp0pfcbccffcfffp0555 .    *pfpcfffffffffffffp055555cbcccccccppppppppfffcccbccfp055555**     0ffpffffpfpp055500pppppppppp0000ppppppp000pffcccffp05**5000.     *0ffffffffffppppppppppppfffffppfpspp0000pffs000005555555555*.  .  .****0pppp09555500550ppppppp0ppp055550000055555000005*%.**.*.       ..%%***3350055555533***......*5551*...*+..%%********%...          ...%%%............   ...+%%...    ..",
".......                  .....++++++++++%+.    . .*%%...    ......****5555***.        ..****.. ...*;5*....*...555555**..%%...+***590000055**5***.      *05**50555;**#....****************<*5555555000pppp055**5005.     .5pp000000000055550ppp00pppppffffp0055550pfp0000550000pffffp*  .. 0u05550p0p000555500pppfffffffffffpp00pffffpppppfccccfffppffp5.   .*55555500ppcbbbbbcccccfp0555500pfffp0050p050ppffffpcbcccfp05      *0p0fppppppppppppp0055555ffcccffppp05505500ppppfccffp0500005*.    0fp0pppp0pp05**=5500000050555**5550505555550pfffffp05*500pp.     .5pp000p0p00005555500000pppppppffp05***50pp0005555555550ppp0* ..  .**..*55055*...*****5000000055005****55551*****300005*******.         ....+***0000055553**.. .  ..33***............%+*3***%..          ..................  ...%%%...    . ",
"   ...                   .....++.++++++++.........%%....    ..   ...**5553***.          ..*..    ..*3%....*. .550955*..........%.*55500095533***.      *53*.155*5****....**********************155550000055555555;*      *5555555555555***55551155500ppffp5555*500pp0555**5500pfxccf5 ..  30000***55000050000000pppppp0pp0005550ppp000500fcccfffpppps05.     5000005555pffffffppppppp0050000ppp0555500005500ppfbbbcfp003      .0p0p000000000000000555550pfccf000055*5*550000ppfffffp0ppp0*. ..* 500550005u00555*55055555111******55555****15ppppppp0000055*.      *555555555555*****=55555555000ppp05*.**5005******555000pffp.  .  .*<...**5**..  ..*****50005***55*. ..*****.....*00095******<.           .....*5555*******...     .****.. ..... .....+****%...          .......     .......   .%%....      ",
"    ..                  ..........................**%%.............%*****%.*..           .%...  ...++.........550005***........*.*5555**.      .       .**#*55**5************************115555555550005******1555*      **555555555551***5505555555550000055555500055******55550pp0.   . *8000*.*50005555000000pppp005000055555000055555pffpp053**505*      *00000005555555555550ppp000000000005555000050000ppffp05.**5      .50500000000000555555000050fbcf05005555555550pppffpu55*5005.      *0555550500005555505555555<***115555555*1*5500pp05555555;*.       .**555555555******5555********55505***55005..........**5000.     ...  ...55**%..#.*5****5005*.****....****............    .**         ......%+.          **........****.............%**%......          ...+...............    ......    ..",
"    ..              ........................................%...  ...%**....*.            ....................**5553*.......++********5*****5***.       .***51*****#..******************555555555155550555****50u9.      ***555555555****55500000005555**505555550000055555000555000.  .. *5550555505555**5500000000050000055555000050000050000000005*.      *5500000000000000000050005555500000550005550000005555pp0p05    . .50500000000000555000000050pfffp00000055555005550000055*505<.     *5555555555555555550000555555555000005555555055555555550000       *55555555555555515555550000555***555<5555555553**...***50pp1..*       .#.**********5**..***5*..**.#.*****%....%***.........*+        ............. .  .......................................%         .............. .....    ........  . ",
"      .               ..................  .....................      .......*.          . .........   ..........****..  ......++.**..********.**.        .*55******.***********************1**5;*****555555551***.      .***5555555555555555555555555555555555555550005*11500005*505* ..  *5555155555555550050005555555500055508500000000050000000000*.   .. *0005555555555000000000500000000555550050000555500050000005    . .5050555000055555000000555000ppp005000000550055550500005555.   .. ***505*55*55500955500005555555555500005555555**5*555555555*       *5555555555*5555**55***5555555****1**1*****5553***..*5**500* ..   ****5<...******..**#.   .**......#%*%%%.....****%...***%+**        ..................%.    ....................  .... . ...*.        ......         .....      ....... . ",
"      .                .................   .......  ..........        ..   .*.          ..  .......  .................  .............#**..%%....         .*<******#...**************..********5;*********;5555*..        .****5555555555555****155555500555505555555555***550055*555.     *0555*55550005005555055555555555000005550000000005000000005*   ... *0005555000555000000000000000055555500000000055500000055505      .500055550055555000555555005550000500055550055555555000055*.   .. .*500555555555505555050555555555550005555905*****55555055*.       .*555555555555555555***5555511*<**11*****************5**15<       *5555*. .********..   ..**%%....+*%***......#****...**...++         .................%.      ..................  ..........*.        ....          .....        ...... . ",
"           .           ....             ....................               ...          .......................................................         .*********.....***********************5555*********35853*.        *<***5555555555551****55555555055000000055555555550055555*      *505550000000555*555555500055555555555550000550555555000005*   .   *5005550pp05550505505055555555550000000p550pp05500055555005   .   *0005*5500055550555555550005555000005555055500055555555555*      .1000005*005*55555*5000055555**5000005555005****55**<5005*.        .**55**5550055555*53**5555511***5551**************.*<**55*       ..****#.*15**.*55.   .505%.******%%****... ..****........ .         .................................................... ..*.        ...  ...  ....+....          ....   ",
"          ...          .*%....           . ................................**.        ......%%*%.................................*..++.++..****.        ..****5***....***********************;55555555<533559095;+       .*3***51155553***********5555555555555555*5955555555055555*.     *000550000000005550055555555555555555550000000000000000p000*   ..  %55055500055500000005555555555000000000000ppp000000550000p5  .*   *5*5*55500000p00000000000000050000000000000000055555800555*      .<900005500555555555555555555*555000551500005555555555005*.       .**5****555555*********5555******51********<<********.**55.      ..***;;333*****...    .***..*****%%..***......****..........           ..*............................................... ..+.        ... ...    .........         ....   ",
"           ..          .......          . ............................+....**..       ....**%*................ .....................++++...%;**.         .****<***..**********************..%*;5555555553558998;%.       .;5**3****************;555555555555555535*5555555555005555*      *50555505000000555005555555555555555555000000000000000000005       .*555555**5550000000000000000000000000000000000000050000005  .+   *55500000000000000000pup0000555000000000000000555555000055*       *58000950055555555555555555055555555***50000950555555553%        .155555555555********5<5555***********111155*********..***.      ..*******...*55*.  ..%.....%*****%....*.......%**...........           .**%.............................................. ..+.        .....+..   ..................       ",
"            .           ..    ................................................         ...%...................   .....%.  .................%*3*.        ....****#.#***********************.....+***1555;;;3553;+...      .;5***********355555555**55555555555555555555555555*505555*      .*5555555555555555055555555555555555555500000005555500000005.      .50p0005555550000000000000000000000550550000000000050005505   .   *500000055555500500000000005555555000050000555555555550095*       .*555555005555555555555550005555555***.**550555555555***.        .555555555555*55*5555555555**********155555*********. ..**.       ....%%.....*55*.  .***....******...........................           ..*..  ...............................................         ....%*.    ....  ......... .        ",
"            .           .     ..............................................           ........... ...........    ...%%.  ........+........%*3*..        .....**.##**********************..... ...*********;;%+.  .       *3**********3555555585**55555555555555555555555555*50555**       *5555555555555555085555555555555555555550555555555555055000.      .50ppp0055555000000000000000000000555555005555050005000555*   .   *550000555555555550000000005555555555555005555555555550555*       .*55555555555**51555555590005555****#....*3555555555**..         .505555555<**51555559555555************5555*********%.  .**.         ......***5*...%%***.....****............................           ..%..  ...............................................         ....%*.    ...    ........          ",
"                              ..........          ....................  ...   .         ......................    ....*.....................***%        .....%%%...***************%%**+......   ...*****;;;;%+.. ..       %***..**********155555**5555555555*****55555500555*505155*.      *5055555555555555550555555555555555555555550555555550555000*      .50p00085*5550000050555555555500055555550055555005950p05555   .   *500055555500005505505055000505555555555905555550055555555*       .*;*=*55555055**55555555555555;***.#......*5955*55555*....        *555555*********555555555155****.%%*****************.  ..*.        .... .*555%.  .3*%%***.. %...............................          ..%%.................   ........................ ......         ... ...    ..       ...             ",
"                      ......... ........          ......................%*.. ...       .......*****%..........    ...........%%***...........%**.       ...........****..*******.......... ......****555333;%+.....       .......*****.....*++%******5555**#.. ...***35900055555*15*.      *5005500005555005555555*************555000000555500000005005      .*500555555550000555*%#...*..*5005555555p005550000000p05505.     .5000000000000000000050555555000000000550000555500000055555*       .*****=55500053*555555553***3**%.....**...*5005<50005**..*        .%*********%.....**%%*55*******...........***55553***. .....     ....... .*5*.  .*3...%***. ................................          ....................     ....................... ......         ..   ..    ..                       ",
"                        .   ..                      .................. .%%.  ...       .. .. ...****..........................%***.......... ...         ..   .. ...%*%...............  .........*******;;;%+..++..       .     ....%.............********#.    .....%*50055555*.*5*.      .50055500555555555*5*****************5555555555555555555<50*      *50000000005000005***.........*355555550p05**55055555005500.      *55555000555550000555551**555000005555590055550000055****5*        .%....**5500****55555***...**+.....***...*5955*15555**.**.          ...................***..........     ....*1555***.....        .......   .  ..**...*%............... ...%%................             ................       .....................  .... .                    ......                   ",
"                                                         ...           ....    .                ..%........................................   ...                 ..%%....              ......  ....*.**%%+.. ....                ....%................#+**..   ..*.  %355555**...**.      .*55**5055***********%....**********%**********...******.*5*       ......***50000055*.**********..%***555505*. .*5*****55**50.  .   .%....**5555**00055***....**5500055****555555555555**.***1*         .    ..*505*..*5555**..   %.......**%.  .*3**..****....*.               .  .................. .....         .****%....*.         ........     ...  .**%   .*..........  ...... .............                ..............      ............ ........  .... .                    ......                   ",
"                                                        ....           .                        ...................    ..................... ...                 ..........   ..    .     ...   ............   ...                 ................. .............*%...**55****. ....       ..**.****....%%*****.....+.*.******.....***%*....+%%%**.%*.                *55555**+***********.....****33*....**%.%***..*35.           ...****;555555**......*5555*******55*****555***..%****              ...***...*5***%**%.. ...  ...*%..  ..**..........**.                . .%****.........  ...... ....     ..*...  ....                .     ...  .**.   .*.....       ....................                      .......            .       ....    .....                          ...                   ",
"                                   .....           .  ......          .                       ........... .........   ............ ....... ..%+.                 ... ....*.  ..%.  .*.    .*. .........     .....                         ...**%.........  .%....*%*5*...**...*...             ............****%.....**%...****.....%**#************%.                ....*%...%**....***%%*...***.**...****%..%*5*...*.           .*...  .*5*5555**....*.*5553. **..305..********.. .**+.    .          .......*55*...****%.*.   ....................%**%.               ...  ...*%......%..   .....  ..... .  .  . .......                    .......    ........        ....................                      .........          .       ....    .....                                                ",
"                                    ....                ....          .                             ... ..........    .........    ....... .....                        ..*.....   .*..   .*.           ..........                    .......*****************......*.  ..%. ......             .......+**%.... .....*55**%....           .........                  ..   ..  ..%... ..#...***.***..*%***33***%..*.  ..                    .*******.......**3**. **..*51..51******#*.                            ..**..  ..*5*...................     ..                  .          ...                   .... ...........                                    ....              ..          .                       ...............    ....    .... .  ....                                                 ",
"                                                                                                             .                                                  .....   ..%.       .. ..  ..    ....    .........                       .......    .......**%....  ......***..                     ........................... ..%.***...............                     ......***...******%.....   ....**.....***...*.                   ......     .  .... .....  .*.. *.......  ......   ..          .      .......    ....   ....           ........                          ...... .......     ..   **                                   ........         .               .           ..                            ..   ....    ...                                                                  ",
"                                                                                                                                                                                           .                                                              .              ...                             ..                   ..........                                                                  ...  ...   ..                                         .     .   *            .      .                      ...                         .                                                   ....  ..                                                            .                                                                                                                                   ",
"                                                                                                                           ...                       ..                                                 ....      ....     ...                                         .....         .. ...       .........                   .......              ..   ...  ......         ..                       .............  .... ..    ....     ..   ..                       ....*.        ....    ....    .              .....              . .... .  ...                                                .  ...                                                                                                                                                                                                    ",
"                                                                                          ... .....   ......             ..**+................%%..%***..........    ...**.    . .          ..***********;;%%%%++.%*;;;;****;55*************.....*..           .*******5555555******5555555555*5***335555555*******%..   .     .***********55555555555555555555555555***55**355**..*...          .*555555*1*<555053**<1*5555****5555*****5555555******....         *55****5055*****555;55553;555**5555**.%***5555***55*.....         .***3333****5555;*3*********11*************555***......       ..    **.  **......**..*******.%*********...............               ...     ............   .......**.....      ....                                                                                     ",
"            ...     ....................                 ...........+**.......*.**************%%****.***3**....          .*555**55555555555555595555555555555550p000000005*****..          .50fffffffffprrrr09999000rrr0000rpp0000000ppp000005555**.        .*00pppfffcxfffccfpppppppffffffffpfppppppppfffffpffffpu05.       .*0fffffffffccccccccccccffffffccffffffppppfffffxcfp0pp00555**...  .5ufcffffpppffffccfpffpppffffppfffffccfffcccccffpppppp05**.       .0ffppppfxccffppfffckxxxkxffxcfffffffffpfffccccfffpp05;***..   .. .;0ppppppppppdfffffffffppppppppppp00000000ppcffffpp00095*..  ...    *00055000095000000000000000000000000pppppuu000855555**.           5555555555**********55555555005555****************.....            ........%%.....    ....               ....                       ",
"..........................%%%%....******.....            .******%%****5;*%%+%+++;;****<333*******555*;5555*.....         .*595555085555555990000000055000000000pppp00005550005***.         *0pppppppppppuuupppppssppppppppppppp000ppfffpppppppp05**.        *0pfffffffffpppfzzffffcccfffffzffffffffffzfccccffffffp05*.       .*0ffddffccccfffffffffcffpppppfcccccccfffcffppfcccfppp0055*.  ..  .*pcbbbbccfffcbbbfp0pp055pccbbbccccbbccffffcffcccccccf0555**..    .0cbccccccbbccfffffccfffffffffppffffffppppffcccfffppr9555*..   .  .5pcffffffffffffppsffffpppffffffpppppppppffffffppp00005*..         *0ppppfpp000000pppppppppp00ppppppppp00p0000059555555*%..          .00000000pu5555555555*51**%**5555555555555555555*****...           .*3*%+++.+%%%.......................................              ",
"                      ............******....             .**.........%5*%.......;;;;**1<3**%...#**55355555*.  .+.        .*5555805*********5995599055;555555599555555900000005***..        5pp00pppu0000rrruuupppppppppppppppp0000ppffpppp000pp0555**.      *0pfppffffffp00pfzffffffffffffffffffffffffffffffffzffp05**5**.    .5pp000pfccfffffffffffpp05550ffcccffffffffpppfcbbcfffp055*.       .0fcccccffffccbcf00000150fcccccffccffp00pffccccffccfp5**555*      5fbcfcffczffp00000pffffffffpp00ppffpppp00ppffffppfdu5%...*3      .5fbfpfppfpfffppppppfffppppppppp00pp0000ppffpppppp000005***.      *50050pf0000000000pprurpp00500uuu000000000000555000055*%....       .***%%**5005555555555****...%*3**<1*************...**...           .*5*..............................        .........               ",
"                      ........    ....**.....             ............*+........****51****.......***355555*.  ...        ..*553553.........%************************3500000055*****.       *005000000000555900urur0000uppppp0055500ppppp0000509000p005.     100000ppppp00550ppppffkcffpppfffp00ppppppppppppfccccfp0050p05.     *9555500pffffffffffffpp055500pffffppppppp000pffccffffpp05*.  .   .5pfpffppppppfffp05000555pfccccfpppp055500ppppffcccf05*55555.     0ff0pdpppp000555550ppppppp0000000000055*50pppfppfcd9;...*00       *pcppppppp00000000ppppppppppppp0pp005500pffp000055555000005.     .55<**5055555*55550000ppp005000009555500055**555500p005*%*5*.      ... ....**599955555551***...********%%*......******;**..           .+*%.................  ..........          ........               ",
"..                  ..........      ..#**+.....           .........++............+**51**%...........**5553*.. .          ...*****%................................****5550555****55<.      .*5**55555555****550085555000ppp0=****50pppp05555*1**5pfff0.     51**000555555555**50pfxxfpp0pfzf05550pp00555500pfcccfpp00ffp*      .55555550ppfffffffffffp0555555pffp0555000005500pfffccfcfp5*  ..  .500000055000000055550555pffcccfp0555555555550pfbbfp55550000;     pf5*00000555555555500005555550055551***.*5000pppsfr;.O;39ru       *5p00000005555555500000pppppppppp005<*550pf005*******5pffsp#     .*5*.*153<*********550pppp00500053***5005*. .*55*50pp9****00*      ..  ..+..*5009555****5*......*******.........***;;555***.          .....................  .%**.....  ...................             ",
"                     .........        .........          .........................*****.............%***5*%.. .            .........................................%**3555**...***..       **.%********....**5******<555895**.#.**500051*******50ppp0.     55**55555555555****550pp00551555****555555***5500ppp005550p0.      .55555550000000000000055******50551**550055555000ppffpfp05*       .5550555555555555***55**0pfffffp05555555555550pffp55**5555*.     0p5.5550555555555555555555555555555********50pu0**.   .%%;;       *505555551********555555<1*11555555****550055********30ppp0.      *5*.*<3**********..#*55553*.@*...  ..*3*.    ...*555*....55.       .  ......****#%%....*..    .........      .....%+*5**%%.           ....................  ........   .........   .....               ",
"                           ....        ... .....         ... ......................**..................%*%... .             ...............................+..........*%****........        %*....******.....***...+#*********...***5555********105000*     55**5555555555******55555***********55*5*****555555555***555.      .55*=555555*********555**************50005555555500pf0pp5*.       .5555555555555555***55**50pffp0000555555555555000055**555*.      *0*.5555555555555555555555555555555555555*#*0p0* .   .%333*       .50*********5********************5*******555***.******50000.      ***.***....%****. ....***#...........**%.     ...***..  ...        .. .... ..............     ...       ..    ... ...**%...           ....................  .......    .........                       ",
"        ..                 .....            ....         ........................................... .......... ..         ...............................++.............**......*..        .%..****************%.******..%*********55***********5*555*     55**5555555555**15*********5551155555*555****505155555555***.      %55**5555<11155*1555555**55555551551550005555555550005005**       *50500555550555555550555550pp0055055555555555500055555555*.      *5**55550555555555505555555555*<5555555555*5005. ...%388853       .*05******555555**<*****************1********...*****.55555.      .*%.***......#**......*******...****.#***+... .%%***.......        ......    ...................... ........................          ....................   ......     ....  ..                       ",
"      ....                 .....             ...         ......................................................  .        ..%%%%%.........................+++.............*....****.        .%%%********5*******%*********+*555******5********51*1**5*.     *5**5***555555**15551******55555555551*555*55505155555555***.      *05*55555*5555555555555555505555555555000555555555500*555**      .*50000555500050555500005*50000555055555555555555555000000*.    . .***5555055555555555555555555***55555555555555*. +*;333333*        *555****550055555551551<1**111****5551*****...******.**555.      .*..***.......*****...******....%**..*%*****...*****#.... .        ...       ...............%%**. . ....%%%.................          ....................   .....      ..... ..                       ",
"       ...              .........    ...     ...         ......................................................  .        ......%...............................++........**...****.        .%.%***************#**55<*******5<*************55551*<****      *5**5***1111**5555555****1555555511*5**555<55505555555555***.  .   *0555555515505555555555555505550000555555550555555500*5555*       *50005555550550555555555*550051*555555555555555*5555555005.       .**505505555555555555555555**5*51**553*5005*..  %3333;;%%+        .555****555555555*****5555555555********************.****5.      .*#.**........*************... ..*.....%****...*%........           .        ..............%%%%%.   .......%%........   .....         . ..................   ......    ........                        ",
"        ..              ........    ....     ...         ......................................................  .         .....................................+.........*.....**%.        .....*.**.....*.*....*<*1*************#******55**151*5****      ****5******1**55555551***553*****1155*********5551**5555****       .5555558555555555555555155551*555555*****5550555**500*55055       .*55555*555555511***555*5555555*5555555555555****5555*5005        .**555*0555555555555555555<**=*55*****.*5*.     *5993%%+++        .5*********1***********1<*1****1********************.**.*<.      .*.%**%......#%%**%...%**%%%..............*..  ..  .....            .    ... .......... .......         .............. ......         . ..................     ....    .......  .                      ",
"                            ..      ....    ...          ...  ......................................*%.........  .          .. .................++....+++++++++........%%%*.....#..         .....*****....%*.....*********.*....*.******15*******5***.   .  .***5*********5551***<**555555*<55551**51******555**555**55*       .**55555555555555555555<555****55555******5500055*505*50055       .*555555555555555**5555*5555555555555555555555***5551**005.        55*5*.55555555555555555511155551*****+%+.  ... +3993;;;%%        .5*******************1*************...#****************.*5.      .*****.*.%**.....*.........*******%%..  .........   ....  .              ...... .       ......            ..................          .  .................    ......   .......  ..                     ",
"                                    ....   ....          ...    .................... ...............**...   ...  .         .....................++....+++++++++........%*****..%....        ....********.%********.*....*..*************555******5***.   .. .***5*********155****1155**005**555<.*5555*****5055*5555*505.       .*5555555555555555555555555***555555555**50000055555*50055       .*500555555555055555055500055555555555555555555*55051**500.        5555*.5555555555555555551115555=*****;*.  .***. +;3;%O%%.        .5*35555<*********5555*************...**55*********#55*.*5.      .*****+******....**...**...****%..........**%..*.  .***....              .%..%.....    ....+...  ....................%......          . ..................   ............. .... ..                     ",
"                                            ...          ...........................................%....    .....        ..................................+...........#***+......         ...%********%*********...*****************1151*******5***.   .  .*55*********1155****1<5**=505**155***555555***555555****555.       .*555*****555555555555555555*55555555555555000955555**5005       *50000000005555555555555055555551*5555555555555555005**505.       .5055**55****55555555555511*55533****.*..  .55;+ .+O.X..++.      .*555555555*******11553**************.***5*********..*5****.      .********+**.....*%%...%*....*...  ..*....***%%*.....%.....              ....%...  ............ ...........................           ...............           ......                   .             ",
"                                              .          .............  .......+%.................................         .......  ....................................%****...            ............**********..#*******+++%..****55**..*****5*+..      .*55***511****55553*51****1*************55551***5515******55.      .**********5555555*55*********55555555555555555555555***505       *505500000055*55555555505555535******1155555*<555555555555*       *505***153<1*5555******55555*******...   ..*53;;++.    .+%.      .***555******...************************************.**53*.       .**.**%..........*%*%**%*%.....................%......   .         ..    .......   .+*................    ............. ...           ..............                                    ..             ",
"                         .....  .   ... .   ....         .................++++++..........         ...............         .................%%%%++%%%%+++++++++..........*5***%....         ..         .......**#*********************5*1********5****.      *11*.*511**5555355551<*1*=************550055***555555555155.      .5555555555555555555**********155555555555555555550005*155*       *55555500555**000055550055555555********5<*1555555555555555       .*5**#**55555555555555555*********....  ..**533;3;%.XXX..+.       %#............#*******.**********************************.       .*.....%%+**%..#*..........%****..**...........%..........         ..    .......   .++.....................+.................        .................    ...                           ..             ",
"                          ....  ..  ... ..  ....          ............+++++++++................................**.         .......  ........OOOOOOOOOO....................***%......         . ......................******%.........#***1<*1***.*****.      .****15*********553**********+*.***.***55555*********115555.      .55555555555555555***.........*****55555**********50p05555*.      .*5****5555555000555555555555555555555555555555555555*5555*       ......**555555**55555*******......... ....**533;983%.X  ...       ..      .........**.........*..*.........%******51**.#**#.       .*..#..**********..................+.         .............              .... ..   ..............   .................%.......        ....   .................                    ....                  ",
"                                                                  ....++........     ...............  ........%%..              ..      ....XXXX....XXXXXXXXXXX.................                   .. .            .....................**53***. *..**.      .****5;************%%................ ..*****%.....%****555.       ..********<155*****...........%*%****5<*......%%**55555555*      .***.****55555555************55555355*55555555555553*******             ...*555*..*55****%...........     ...****%85;O.X    .                ...    ......     .........  ........*.****......       .. .....................  ....   ....           ...........               ...     ....                  ......      ...  ...                   .....                             .....                 ",
"                                                                  ...........          ......   ....         .%..               ..      ....    XXXX  XXXX  XXX.............  .                                         ...            ..****..  ....*.      ...**;*..#.**%%........    ........    ........  ....%*****.         .......*******..................*****...............*3**.       .......***555553***..*.....******%...%.****5555511**%...*%              ...***....****%....  ........     ..%*%++**+..     .                ...     ....      ...... ..  ....   ....%*.  ...         .  ..................... .         ...........   .......%.                .     .....                  ......                                  ...                              ....                  ",
"                                                                     .......            ..         .............                        ....................................  ....                      ........      ......           ..***%..  .. ..          ..+................     .........     ......  ......****                 ..*%*......................%**............   .%..            ......***<***.*..*#.  ....+%%... ......***3****.......                ..%.....**......    ........ ..  ...+......X  X.                   .     .....      ...............  ........   .             .  ..........         ................................                        ....                  ......       .    ..                     ..                                                    ",
"                                                                     ...........        ......  ...............                    ..  ............................................             ..................  ......%...............%....  .....                        .......   ..................%........**...                 ...........................%%...........**.   .                     ..*;********.....*****.......*********...... ..                ........**........  ......   ..  ......    XXX...                       .......     .....**...%%%*...........                    ..........          ...............................                       ............ ..       ........     .........                     ...                                                  ",
"                                                                      ..........          ..    ..          ..                           .....X XXXXX...........   ..  ...      ...                         ....        ...................     ...  .                            .. .. ..............................                        ...................................**%....                       .........%...%%%+.......******...........   .                    ...............          ..    ...      XX                          ......       ... .................                          ....             .                  ......                               ..  ...                 .         .  . ..                       .                                                   ",
"                                                                              .                                                                                                                                          ..           ..        ..                                                ..                                             ...  ..........        .       .    .        ..                        .                   .     ......                          ..    .......                                                                                                                                                                                                                                                                                                              ",
"                                                                                                                                                                                                                                                                                                                                                          ...                                                           .                            ...                                  .                                                                                                                                                                                                                                                                                                                  ",
"                                                                                                            ..                   .                      ....    ..........          ... ...........                       .................. o ......   ..%.... .... .......                ................%**%.  .*.............*....*****..            .....%**+...................*...*.........********.  ..       . ..   ....**.....***%%......***.................. *..                  .*% .....%......+**%................   ..........                 ...   ..........              .....           ....                              ......                                                ..                                                                                                   ",
"                             ...  ......................   ...........                 ............*553;**5555*****..**********355****.#....           .*555****55555*5555**5555***50000ppfpp00000000005..***.           .500ruprr00000000ppppfppppppppppppppppppppp00000551**5*..         *50ppfp0ppp0000pppppp000pfp0ppp0000ppp000pppp0ffp05005*..         5ppffffppfffffffffffffffffpppfffpppp00000ppppfpp0555**..         .5up0dfffffpfffffppp00000000pffffp0ffffffffpacfp0555*+..          *0p00pppdppp0pu0ppppppppppppppppppppppp05000ppddp500005*          .505555900055000500000555550000000055555555p000055*****.           .*****51<****3350055555555*.**....**5555555551*.. .....           .++++......++++++++.. ...........    ...... ....                  .. ..........o          ooooo.ooo   ",
"                        ....................................*********+                ..%...%%*******%..  ..**355551<155555*555905555****+...           *50055900000555555000000000555550000055555550000000005*..       .50p0uuprr000000590pp00000000ppppppppppppffp00ppp000555**.       .*50ppfccffzffpppfdfffffffcccfccffffffccfppffffpfp055pffp5*.        5ppfpppffffpppppppppffppp000ppzccfffffffffffccccfffp0005*....    *0fkfffffffffffcfp0555555000pfccffppfppppppffffppppppp05*.        *pfp0000pffffppppppfppffpfffp000pppppp000000pppp00p0005.         .*0fpppffffppp005500uu0000pppppppp0000000000ppprr00555*.           .*590000000595555*55550555555555***<555555*****5***......          .%%**%%%%*%%%%%%%%%%+.+......+***....%**%.........                .............oooo.           .      ",
"                        .......   ......................   .......%+*%..              ..%.....%%******..   ...*****************355**1****......         %35555999553******5555555555***1555553*5555000000055**..        .50p000000000005<5000055000000pppp00p0pppffp0000000005****..  . .*55000pffpfffp000000pppffffffffffpppppffffpffpppccf00005*.**.       50r0000pffppppppppppfpu055550pfffffpfpffppppffffffp00005*.       .5pffffffffffffzf05**555*pppppfffffpp000000ppffffpp00555**..      5fcpp000ppp00000905pppppppppp0550000000000000ppp00055*..  .      .*rfpppppppppp00000uppp000000000p05555500005588555555*..           .*55555055555333**550000055955555***555555*****5***%... ..         ..++++%%%%++++++++++**+.......**+..  .........%%....              ...           o                     ",
"                         .....      ....          ......       .......+.....          ...........#.*3*%.   .....****#............***1*1**. .....        +*;*5555***.......**************5553*****355000055**......       *00580055580055*550p000000000pppp0005000pfp000005555555555*     .*5555500000005555590ppfffppppppp00000ppfffp00ppffffp00553595.....  *5855550ppfffffffffffp0555**50pfpppp000000000pppppp000055*.       *0pfpppppppppppp5***155*pfdpppppsf005***5000ppfffp05*%555*.      5pfp0pppf0555******50000000005555550000555500ppp0005*...*55.      *0p05555555555555000pu0555500000055***550005555;******%***.       .%*****5****%%...**500009555555******55555***#*****%..   ..         .....++++......++++*....   .....      .    .........             ..                                  ",
"                            ..    ......          ..........       ...%%.....         .............#**%....... .%***....      ....***15**......        .%%*..***%...      ..........*..*******..***5550055*....**.       .55555555555**..*50p0055550000000055**550ppp00555***5500p0*     .*****55555555*****50pffffp0000000555550fff0**5p00pzfp050pp05*....  *55****50pffffffffffp05555**50ppp000555*5555500000pppp0055.       .50p000555500005**.*555*pfppppp00055*****55550pffp05**555*#.     *00500ppp55****....**************555555***1500000p05*..**50.      .*55**************555553*5555555555****50000953**....<5000*       .......**..........*55553******.... .5****%....****+...  ..       ........++++++++++%%+....     ...             ........                 .......oo              ooo      ",
"                              ..........          ..........       ...........        ...........##..         ..*;***%....  ....*...*****%.....        ....  ...%....    ............  ....... ...****5555*...*55*.       **..............#*55********<5555**...*5555<*******5500pp5.    .*******5*55*******550ppfp055550555*55*50p0*..*00pcbcp*.#500*.      .*****.*55000000000005*******500055555555555550000fcffpp05*.      .*5555******555**..*555*50ppp055***********5.*0pfp0555355*..     .**.*55**5****.....................***.*..***55*5955**..****       .***********.   ......*****555555*%...**5*****.......*5005       ....  .**........  ...*..  ......   .......   .*****%......       ...+++++++++++++++++.............      .      ........  .                 ....                         ",
"                              ........                      .......... ..  ...        ... .......... ...........*353*%.........%*.  ..##%... ..               ...........................**%..******<35*..     ....       ************3*******.**********55555*5555*.. ...*55***5p05.    .*********************55001****5*****<*.****...*..50055**555*       *5555**550055555555505555555505*****555555555500000005****.  ..   .***5555555550555555500050pffp05555555555555550pp0*...**5*.     .505*55<..****...#***11<***<55**********5555555*****%....           ..************...***.....*******%..   ....      ....  .*5*       ...................*****........ .  .*****......%**%.......        ++++++........................      ......    .                                                       ",
"                              ..                            .....          ...                ......  ..**%... .%***..............   ..****....           .  ...     .....................*............******......       **..........%......*.#.....***.****5****.***..***50*..*005      ..**1************55*.*555************55***5555*..*5555***55*.      *55******555555555555***5555555********555***55555555******      .155*5555555555**55555555*50p05**55**<<55****.*5005***5****       *55*55*..**#.*****************1******##**.*****..***.....**        .*************...%*.............%.........%........**..*5*       .........   ................................... .....   ...        +++.................  ...%%...       .....                        ...                                 ",
"                                                            ....           ...               ...........%%.... ...%............... .....%%%.....        ............... ................................*****.*...        .*.................***.#..@.......*****..*<*******5*..*55*       .****************1*****11**************.**5555****151***55*.      .*********5551111**<1551555*55555551111<<**=555511155*1555*       *55**1<55551<1**555*******151***50**********.**55***55****.      .***********************#**#*******#....**.****.+***%..%**%        .*.%%%.%%**%***..#*.............*.....+...***.......%.%**.        .. ...    .................................... ...........        ..........+.........  ........     .......                                                            ",
"                                                                      .....               ..........+%................%.....................%*..        ................................................**........        .......*.***.%..***************...******************..**1*       ....*********************1***********..****555*******15555.       .****11111555555**5555555555555555555555***5555<******55***       .****11****515555**********+.**5555**5551111*************1*       .***************************..........****1<****.****%....        .*..........***%.%%********%........................ ..*.          . .......................................................        ..........++...................   .....                                                               ",
"                                                                      .....             . ..................................................+*..         ...............................................**+.......        ........%%**%%*********##.**.+...+*******************.****       .*%**************..******************5****555555555555555*.       .*****1**<*55*******555555555555551511****5555555<****55***       .****1111***=**<*1<************5555***155115*************1*       .******************5*11111***..#****..****5*****..#%**...         .*....................*%%*.......................... ..%.         .. ................................. ....... .............         .........++........         ..   ...                                                                 ",
"                                                                      .....             . ......................................................         ...............................................*++.......        ..........***%********..##%#**%*%%***********************.       .***********************************151****55555555555555<.       .********************151111***************5555555*****55***       .****1111*********111*55<*****1<551***115555**********<**1*       .**5*****..***....***11*************..%*********...***....        .*..................................+..++...........  ...         .. .................................   ...    ............         .........++........         ..    .                                                                  ",
"                                                                      ..                ........................................................         ........................... ..................+.........        ..........*++++********%***.*%.+%%%%+******......**%*3****.       **#*********************************35***.****5555*********.       *****1*********3**********************************<**5***1       .*1***************1555555551<***=1********************5115*       .*3<*****************************%%......*******........          .*..................................+...............  ...         ....................................   ....   ............         .........+.........          .                         .                                             ",
"                                                                      ..                . ............................ .........................         ........................... .............................       .........**++++%*******.***.%..+%*%%.%+**5*......**%*3***#.       ***#********************************3<**..+*****<******.***.       .*************<<**********************************1**5<**1       .*1****************155553*5511<***********************5155*       .**<********************...%****%.......#********.#..+.           .%.........++.......................+...............   ..         ..........................................................         ..........++.......          .                                                                       ",
"                                                                      ..                ............  ................ .........................         ...........................  .......................... .       .........%%+...#..*****..***#...+*+....**5***......%******.       +*..*************111*****************<*********111*********.       .***********1155********************11*53******151***5***1       .*1*****************1555***555************************5155*       .*******************************...   ....*********....           .%*..****%%*.++.......*%%.........+++..+.+........  .   .         ..........................................................         ............+......         ..  ..                                                                   ",
"                                                                      .                 ........................................................         ...........................  .......................... .       ...................***#..***.....+......*****##...%%**..**.       .*..*************111*****.#************155555**555111***33*.       ..********15551***.*****************51*555<***1551***5***5       .*1************************155************************5****       ..*.*%**************1<*<****%.....    ....*********....           .*....+......++.......%%%%.......................   .   ..        ..........................................................         ..................           .....   ..                                                              ",
"                                                                                        ....................    ................................              ..................................................         .      ..............+...........%..  ..***.............**.       ....*******************...............+*3555**********3;****.      ..********55555**............**%*******555**%**353***5***5       .***********************..#*15*************************..**         ....**********************.....  ... ...%****%***..    ..        ...............................................   ...   .         ..  .........................................          ..        ..................               ..   ..                                                              ",
"                                                                                        ..................       ...............................              ..................................................         .        ...........................   .#**......++.....**.       ....****************%...............   .****%......%********.      ..********555<**.  .............%%********.....******5***5       .********************%%. ..*155***********************.....            .************.................... ...%****%***..    ..       ................................................   .+    .         ..  .....................            ......            ..        .................                     ..                                                              ",
"                                                                                             ..............       .......................... ...                ................................................                     ........................  ...*............ ....        ...................................   ..%%.................          .......******.. ..................+%.....  ...%*..*..**         .......********%%..... ...*****.....+%%####*****%***.  .             .................................................  ...               .............................................   ..             ... .....................................           .                 ........                                                                                     ",
"                                                                           .                  .................   .......................... ...                ...XXXX..........................................                   ........................................... ...         ..  ................................................... ..                  ....%%...................................  .....   .            ...****........... ..*...............+*+.....                    .............................................. ...                ... .........................................                        ....................................     .    .                                                                                                              ",
"                                                                                              .................   .......................... ...                ....XXX...........................................                  ........................................... ...         ..   ..................................................  .                  ....................... .................  .....   .            ...*****.........  ..*#..............@*.....                     ...........................................                       .   .........................................  ...                   ....................................     .                                                                                                                   "
};
